;START_OF_HEADER
;HEADER_VERSION:0.1
;FLAVOR:Griffin
;GENERATOR.NAME:Cura_SteamEngine
;GENERATOR.VERSION:2.7.0
;GENERATOR.BUILD_DATE:2017-08-30
;TARGET_MACHINE.NAME:Ultimaker 3
;EXTRUDER_TRAIN.0.INITIAL_TEMPERATURE:100
;EXTRUDER_TRAIN.0.MATERIAL.VOLUME_USED:4256
;EXTRUDER_TRAIN.0.MATERIAL.GUID:506c9f0d-e3aa-4bd4-b2d2-23e2425b1aa9
;EXTRUDER_TRAIN.0.NOZZLE.DIAMETER:0.4
;EXTRUDER_TRAIN.0.NOZZLE.NAME:AA 0.4
;EXTRUDER_TRAIN.1.INITIAL_TEMPERATURE:220
;EXTRUDER_TRAIN.1.MATERIAL.VOLUME_USED:850
;EXTRUDER_TRAIN.1.MATERIAL.GUID:86a89ceb-4159-47f6-ab97-e9953803d70f
;EXTRUDER_TRAIN.1.NOZZLE.DIAMETER:0.4
;EXTRUDER_TRAIN.1.NOZZLE.NAME:BB 0.4
;BUILD_PLATE.INITIAL_TEMPERATURE:50
;PRINT.TIME:5328
;PRINT.SIZE.MIN.X:9
;PRINT.SIZE.MIN.Y:6
;PRINT.SIZE.MIN.Z:0.27
;PRINT.SIZE.MAX.X:213
;PRINT.SIZE.MAX.Y:207
;PRINT.SIZE.MAX.Z:25.47
;END_OF_HEADER
;Generated with Cura_SteamEngine 2.7.0

T0
T1
G92 E0

M109 S220
G0 F15000 X204 Y6 Z2
G280
G1 F1500 E-2
;LAYER_COUNT:181
;LAYER:0
M107
M204 S625
M205 X6 Y6
G0 F8571.4 X112.114 Y89.974 Z0.27
M204 S500
M205 X5 Y5
;TYPE:SKIRT
G1 F900 E0
G1 F1200 X112.582 Y90.494 E0.01036
G1 X112.989 Y91.063 E0.02073
G1 X113.327 Y91.676 E0.0311
G1 X113.593 Y92.323 E0.04146
G1 X113.784 Y92.996 E0.05182
G1 X113.897 Y93.687 E0.06219
G1 X113.931 Y94.328 E0.0717
G1 X113.931 Y94.474 E0.07386
G1 X113.891 Y95.173 E0.08424
G1 X113.772 Y95.862 E0.09459
G1 X113.574 Y96.533 E0.10496
G1 X113.302 Y97.178 E0.11533
G1 X112.958 Y97.787 E0.12569
G1 X112.546 Y98.353 E0.13606
G1 X112.434 Y98.475 E0.13851
G1 X112.485 Y98.657 E0.14131
G1 X112.595 Y99.348 E0.15168
G1 X112.625 Y99.957 E0.16071
G1 X112.626 Y115.041 E0.38415
G1 X112.586 Y115.739 E0.39451
G1 X112.467 Y116.429 E0.40488
G1 X112.439 Y116.525 E0.40636
G1 X112.779 Y116.945 E0.41437
G1 X113.154 Y117.535 E0.42472
G1 X113.46 Y118.165 E0.4351
G1 X113.692 Y118.825 E0.44546
G1 X113.847 Y119.507 E0.45582
G1 X113.932 Y120.522 E0.47091
G1 X113.932 Y120.662 E0.47298
G1 X113.892 Y121.361 E0.48335
G1 X113.773 Y122.05 E0.49371
G1 X113.575 Y122.721 E0.50408
G1 X113.303 Y123.366 E0.51445
G1 X112.959 Y123.975 E0.52481
G1 X112.547 Y124.541 E0.53518
G1 X112.138 Y124.993 E0.54421
G1 X110.301 Y126.83 E0.58269
G1 X109.779 Y127.296 E0.59306
G1 X109.207 Y127.699 E0.60342
G1 X108.593 Y128.034 E0.61378
G1 X107.944 Y128.297 E0.62415
G1 X107.27 Y128.484 E0.63452
G1 X106.579 Y128.594 E0.64488
G1 X105.97 Y128.624 E0.65391
G1 X103.106 Y128.624 E0.69634
G1 X103.082 Y128.64 E0.69677
G1 X102.46 Y128.961 E0.70713
G1 X101.806 Y129.208 E0.71749
G1 X101.128 Y129.38 E0.72785
G1 X100.434 Y129.473 E0.73822
G1 X99.735 Y129.487 E0.74858
G1 X99.038 Y129.42 E0.75895
G1 X98.209 Y129.233 E0.77154
G1 X96.176 Y128.624 E0.80298
G1 X91.04 Y128.624 E0.87906
G1 X90.341 Y128.584 E0.88943
G1 X89.652 Y128.465 E0.89979
G1 X88.981 Y128.267 E0.91015
G1 X88.336 Y127.995 E0.92052
G1 X87.727 Y127.651 E0.93088
G1 X87.161 Y127.239 E0.94125
G1 X86.731 Y126.852 E0.94982
G1 X84.885 Y125.025 E0.9883
G1 X84.417 Y124.506 E0.99865
G1 X84.011 Y123.936 E1.00902
G1 X83.673 Y123.323 E1.01939
G1 X83.406 Y122.676 E1.02975
G1 X83.215 Y122.003 E1.04012
G1 X83.103 Y121.313 E1.05047
G1 X83.069 Y120.672 E1.05998
G1 X83.069 Y120.524 E1.06217
G1 X83.109 Y119.825 E1.07254
G1 X83.228 Y119.136 E1.0829
G1 X83.426 Y118.465 E1.09327
G1 X83.698 Y117.82 E1.10363
G1 X84.042 Y117.211 E1.114
G1 X84.454 Y116.645 E1.12437
G1 X84.566 Y116.523 E1.12682
G1 X84.515 Y116.341 E1.12962
G1 X84.405 Y115.65 E1.13998
G1 X84.375 Y115.041 E1.14902
G1 X84.374 Y99.957 E1.37246
G1 X84.414 Y99.259 E1.38282
G1 X84.533 Y98.569 E1.39319
G1 X84.561 Y98.473 E1.39467
G1 X84.221 Y98.053 E1.40268
G1 X83.846 Y97.463 E1.41303
G1 X83.54 Y96.833 E1.42341
G1 X83.308 Y96.173 E1.43377
G1 X83.153 Y95.491 E1.44413
G1 X83.068 Y94.476 E1.45922
G1 X83.068 Y94.336 E1.46129
G1 X83.108 Y93.637 E1.47166
G1 X83.227 Y92.948 E1.48202
G1 X83.425 Y92.277 E1.49238
G1 X83.697 Y91.632 E1.50275
G1 X84.041 Y91.023 E1.51311
G1 X84.453 Y90.457 E1.52348
G1 X84.862 Y90.005 E1.53251
G1 X86.699 Y88.168 E1.571
G1 X87.221 Y87.702 E1.58136
G1 X87.793 Y87.299 E1.59173
G1 X88.407 Y86.964 E1.60209
G1 X89.056 Y86.701 E1.61246
G1 X89.73 Y86.514 E1.62282
G1 X90.421 Y86.404 E1.63319
G1 X91.03 Y86.374 E1.64222
G1 X92.407 Y86.374 E1.66262
G1 X92.709 Y86.244 E1.66749
G1 X93.38 Y86.042 E1.67787
G1 X94.068 Y85.919 E1.68822
G1 X94.767 Y85.875 E1.6986
G1 X95.466 Y85.911 E1.70897
G1 X95.842 Y85.964 E1.71459
G1 X96.25 Y86.034 E1.72072
G1 X96.686 Y85.993 E1.72721
G1 X97.386 Y86.007 E1.73758
G1 X98.079 Y86.101 E1.74794
G1 X98.846 Y86.303 E1.75969
G1 X99.059 Y86.374 E1.76302
G1 X100.657 Y86.374 E1.78669
G1 X104.506 Y85.836 E1.84426
G1 X105.203 Y85.779 E1.85462
G1 X105.903 Y85.802 E1.86499
G1 X106.595 Y85.904 E1.87536
G1 X107.271 Y86.085 E1.88572
G1 X107.922 Y86.341 E1.89608
G1 X108.539 Y86.67 E1.90644
G1 X109.115 Y87.068 E1.91681
G1 X109.662 Y87.548 E1.92759
G1 X112.114 Y89.974 E1.97869
M204 S625
M205 X6 Y6
G0 F8571.4 X111.868 Y90.223
M204 S500
M205 X5 Y5
G1 F1200 X112.322 Y90.728 E1.98875
G1 X112.713 Y91.283 E1.99881
G1 X113.037 Y91.881 E2.00888
G1 X113.288 Y92.512 E2.01894
G1 X113.463 Y93.168 E2.029
G1 X113.56 Y93.841 E2.03907
G1 X113.581 Y94.328 E2.04629
G1 X113.581 Y94.474 E2.04845
G1 X113.541 Y95.152 E2.05851
G1 X113.422 Y95.821 E2.06858
G1 X113.225 Y96.471 E2.07864
G1 X112.953 Y97.094 E2.08871
G1 X112.609 Y97.68 E2.09878
G1 X112.199 Y98.222 E2.10884
G1 X112.047 Y98.38 E2.11209
G1 X112.164 Y98.828 E2.11895
G1 X112.257 Y99.501 E2.12901
G1 X112.275 Y99.957 E2.13577
G1 X112.276 Y115.041 E2.35922
G1 X112.236 Y115.719 E2.36928
G1 X112.117 Y116.388 E2.37935
G1 X112.048 Y116.616 E2.38287
G1 X112.222 Y116.8 E2.38663
G1 X112.629 Y117.344 E2.39669
G1 X112.969 Y117.932 E2.40675
G1 X113.237 Y118.556 E2.41681
G1 X113.43 Y119.208 E2.42688
G1 X113.546 Y119.877 E2.43694
G1 X113.582 Y120.522 E2.44651
G1 X113.582 Y120.662 E2.44859
G1 X113.542 Y121.34 E2.45865
G1 X113.423 Y122.009 E2.46871
G1 X113.226 Y122.659 E2.47877
G1 X112.954 Y123.282 E2.48884
G1 X112.61 Y123.868 E2.49891
G1 X112.2 Y124.41 E2.50898
G1 X111.891 Y124.746 E2.51574
G1 X110.054 Y126.583 E2.55422
G1 X109.546 Y127.034 E2.56428
G1 X108.988 Y127.422 E2.57435
G1 X108.389 Y127.743 E2.58442
G1 X107.757 Y127.991 E2.59448
G1 X107.099 Y128.163 E2.60455
G1 X106.426 Y128.256 E2.61461
G1 X105.97 Y128.274 E2.62137
G1 X102.991 Y128.274 E2.6655
G1 X102.75 Y128.426 E2.66972
G1 X102.136 Y128.718 E2.6798
G1 X101.493 Y128.936 E2.68985
G1 X100.828 Y129.076 E2.69992
G1 X100.152 Y129.138 E2.70998
G1 X99.472 Y129.12 E2.72005
G1 X98.8 Y129.022 E2.73011
G1 X98.31 Y128.898 E2.7376
G1 X96.227 Y128.274 E2.76981
G1 X91.04 Y128.274 E2.84665
G1 X90.362 Y128.234 E2.85671
G1 X89.693 Y128.115 E2.86677
G1 X89.043 Y127.918 E2.87684
G1 X88.42 Y127.646 E2.88691
G1 X87.834 Y127.302 E2.89697
G1 X87.292 Y126.892 E2.90704
G1 X86.978 Y126.604 E2.91335
G1 X85.132 Y124.777 E2.95182
G1 X84.678 Y124.271 E2.96189
G1 X84.286 Y123.716 E2.97196
G1 X83.963 Y123.118 E2.98203
G1 X83.712 Y122.487 E2.99209
G1 X83.536 Y121.831 E3.00215
G1 X83.439 Y121.158 E3.01222
G1 X83.419 Y120.672 E3.01943
G1 X83.419 Y120.524 E3.02162
G1 X83.459 Y119.846 E3.03168
G1 X83.578 Y119.177 E3.04174
G1 X83.775 Y118.527 E3.05181
G1 X84.047 Y117.904 E3.06188
G1 X84.391 Y117.318 E3.07194
G1 X84.801 Y116.776 E3.08201
G1 X84.953 Y116.618 E3.08526
G1 X84.836 Y116.17 E3.09212
G1 X84.743 Y115.497 E3.10218
G1 X84.725 Y115.041 E3.10894
G1 X84.724 Y99.957 E3.33238
G1 X84.764 Y99.279 E3.34244
G1 X84.883 Y98.61 E3.35251
G1 X84.952 Y98.382 E3.35604
G1 X84.778 Y98.198 E3.35979
G1 X84.371 Y97.654 E3.36985
G1 X84.031 Y97.066 E3.37992
G1 X83.763 Y96.442 E3.38998
G1 X83.57 Y95.79 E3.40005
G1 X83.454 Y95.121 E3.41011
G1 X83.418 Y94.476 E3.41968
G1 X83.418 Y94.336 E3.42175
G1 X83.458 Y93.658 E3.43181
G1 X83.577 Y92.989 E3.44188
G1 X83.774 Y92.339 E3.45194
G1 X84.046 Y91.716 E3.46201
G1 X84.39 Y91.13 E3.47207
G1 X84.8 Y90.588 E3.48214
G1 X85.109 Y90.252 E3.4889
G1 X86.946 Y88.415 E3.52739
G1 X87.454 Y87.964 E3.53745
G1 X88.012 Y87.576 E3.54752
G1 X88.611 Y87.255 E3.55758
G1 X89.243 Y87.007 E3.56764
G1 X89.901 Y86.835 E3.57772
G1 X90.574 Y86.742 E3.58778
G1 X91.03 Y86.724 E3.59454
G1 X92.465 Y86.724 E3.6158
G1 X93.015 Y86.508 E3.62455
G1 X93.673 Y86.336 E3.63462
G1 X94.346 Y86.243 E3.64469
G1 X95.025 Y86.229 E3.65475
G1 X95.783 Y86.309 E3.66604
G1 X96.228 Y86.386 E3.67273
G1 X96.778 Y86.341 E3.6809
G1 X97.457 Y86.365 E3.69097
G1 X98.128 Y86.469 E3.70103
G1 X98.736 Y86.635 E3.71036
G1 X99.003 Y86.724 E3.71453
G1 X100.685 Y86.724 E3.73945
G1 X104.555 Y86.183 E3.79733
G1 X105.232 Y86.128 E3.80739
G1 X105.911 Y86.154 E3.81746
G1 X106.582 Y86.259 E3.82752
G1 X107.236 Y86.442 E3.83758
G1 X107.864 Y86.701 E3.84764
G1 X108.458 Y87.032 E3.85772
G1 X109.008 Y87.43 E3.86777
G1 X109.416 Y87.797 E3.8759
G1 X111.868 Y90.223 E3.927
M204 S625
M205 X6 Y6
G0 F8571.4 X111.622 Y90.472
M204 S500
M205 X5 Y5
G1 F1200 X112.061 Y90.962 E3.93674
G1 X112.437 Y91.503 E3.9465
G1 X112.745 Y92.084 E3.95624
G1 X112.981 Y92.699 E3.966
G1 X113.14 Y93.338 E3.97576
G1 X113.221 Y93.992 E3.98552
G1 X113.231 Y94.328 E3.9905
G1 X113.231 Y94.474 E3.99266
G1 X113.191 Y95.131 E4.00241
G1 X113.072 Y95.779 E4.01217
G1 X112.875 Y96.407 E4.02192
G1 X112.603 Y97.007 E4.03168
G1 X112.261 Y97.57 E4.04144
G1 X111.853 Y98.087 E4.05119
G1 X111.655 Y98.283 E4.05532
G1 X111.683 Y98.356 E4.05648
G1 X111.839 Y98.996 E4.06624
G1 X111.925 Y99.957 E4.08053
G1 X111.926 Y115.041 E4.30397
G1 X111.886 Y115.698 E4.31372
G1 X111.767 Y116.346 E4.32348
G1 X111.656 Y116.7 E4.32898
G1 X111.661 Y116.704 E4.32907
G1 X112.095 Y117.199 E4.33883
G1 X112.466 Y117.743 E4.34858
G1 X112.768 Y118.328 E4.35833
G1 X112.998 Y118.945 E4.36809
G1 X113.151 Y119.586 E4.37785
G1 X113.232 Y120.522 E4.39177
G1 X113.232 Y120.662 E4.39384
G1 X113.192 Y121.319 E4.40359
G1 X113.073 Y121.967 E4.41335
G1 X112.876 Y122.595 E4.4231
G1 X112.604 Y123.195 E4.43286
G1 X112.262 Y123.758 E4.44262
G1 X111.643 Y124.498 E4.45691
G1 X109.806 Y126.335 E4.49539
G1 X109.313 Y126.772 E4.50515
G1 X108.771 Y127.145 E4.5149
G1 X108.187 Y127.45 E4.52466
G1 X107.571 Y127.682 E4.53441
G1 X106.931 Y127.838 E4.54416
G1 X105.97 Y127.924 E4.55846
G1 X102.899 Y127.924 E4.60395
G1 X102.42 Y128.205 E4.61218
G1 X101.816 Y128.466 E4.62192
G1 X101.184 Y128.653 E4.63169
G1 X100.535 Y128.761 E4.64143
G1 X99.877 Y128.79 E4.65119
G1 X99.22 Y128.739 E4.66095
G1 X98.41 Y128.563 E4.67323
G1 X96.277 Y127.924 E4.70621
G1 X91.04 Y127.924 E4.78379
G1 X90.383 Y127.884 E4.79354
G1 X89.735 Y127.765 E4.8033
G1 X89.107 Y127.568 E4.81305
G1 X88.507 Y127.296 E4.82281
G1 X87.944 Y126.954 E4.83257
G1 X87.224 Y126.355 E4.84644
G1 X85.378 Y124.528 E4.88491
G1 X84.939 Y124.037 E4.89467
G1 X84.562 Y123.497 E4.90443
G1 X84.254 Y122.915 E4.91418
G1 X84.019 Y122.3 E4.92393
G1 X83.86 Y121.661 E4.93369
G1 X83.779 Y121.007 E4.94345
G1 X83.769 Y120.672 E4.94841
G1 X83.769 Y120.524 E4.95061
G1 X83.809 Y119.867 E4.96036
G1 X83.928 Y119.219 E4.97012
G1 X84.125 Y118.591 E4.97987
G1 X84.397 Y117.991 E4.98962
G1 X84.739 Y117.428 E4.99938
G1 X85.147 Y116.911 E5.00914
G1 X85.345 Y116.715 E5.01327
G1 X85.317 Y116.642 E5.01442
G1 X85.161 Y116.002 E5.02418
G1 X85.075 Y115.041 E5.03847
G1 X85.074 Y99.957 E5.26192
G1 X85.114 Y99.3 E5.27167
G1 X85.233 Y98.652 E5.28143
G1 X85.344 Y98.298 E5.28692
G1 X85.339 Y98.294 E5.28702
G1 X84.905 Y97.799 E5.29677
G1 X84.534 Y97.255 E5.30652
G1 X84.232 Y96.67 E5.31628
G1 X84.002 Y96.053 E5.32603
G1 X83.849 Y95.412 E5.33579
G1 X83.768 Y94.476 E5.34971
G1 X83.768 Y94.336 E5.35178
G1 X83.808 Y93.679 E5.36153
G1 X83.927 Y93.031 E5.37129
G1 X84.124 Y92.403 E5.38104
G1 X84.396 Y91.803 E5.3908
G1 X84.738 Y91.24 E5.40056
G1 X85.357 Y90.5 E5.41485
G1 X87.194 Y88.663 E5.45334
G1 X87.687 Y88.226 E5.46309
G1 X88.229 Y87.853 E5.47284
G1 X88.813 Y87.548 E5.4826
G1 X89.429 Y87.316 E5.49235
G1 X90.069 Y87.16 E5.50211
G1 X91.03 Y87.074 E5.5164
G1 X92.546 Y87.074 E5.53886
G1 X92.696 Y87 E5.54134
G1 X93.318 Y86.782 E5.5511
G1 X93.961 Y86.641 E5.56085
G1 X94.616 Y86.578 E5.5706
G1 X95.275 Y86.596 E5.58036
G1 X95.723 Y86.654 E5.58706
G1 X96.199 Y86.736 E5.59421
G1 X96.21 Y86.734 E5.59438
G1 X96.867 Y86.689 E5.60413
G1 X97.524 Y86.724 E5.61388
G1 X98.173 Y86.838 E5.62364
G1 X98.625 Y86.967 E5.6306
G1 X98.946 Y87.074 E5.63561
G1 X100.704 Y87.074 E5.66166
G1 X104.603 Y86.529 E5.71997
G1 X105.259 Y86.478 E5.72972
G1 X105.917 Y86.506 E5.73948
G1 X106.567 Y86.614 E5.74924
G1 X107.199 Y86.8 E5.759
G1 X107.803 Y87.061 E5.76874
G1 X108.372 Y87.394 E5.77851
G1 X108.896 Y87.792 E5.78826
G1 X109.17 Y88.046 E5.79379
G1 X111.622 Y90.472 E5.84489
M204 S625
M205 X6 Y6
G0 F8571.4 X111.375 Y90.72
M204 S500
M205 X5 Y5
G1 F1200 X111.799 Y91.196 E5.85433
G1 X112.16 Y91.721 E5.86377
G1 X112.452 Y92.286 E5.87319
G1 X112.671 Y92.884 E5.88262
G1 X112.814 Y93.505 E5.89206
G1 X112.881 Y94.328 E5.9043
G1 X112.881 Y94.474 E5.90646
G1 X112.841 Y95.11 E5.9159
G1 X112.722 Y95.735 E5.92532
G1 X112.525 Y96.341 E5.93476
G1 X112.254 Y96.917 E5.94419
G1 X111.913 Y97.455 E5.95363
G1 X111.507 Y97.946 E5.96307
G1 X111.247 Y98.19 E5.96835
G1 X111.373 Y98.539 E5.97384
G1 X111.512 Y99.161 E5.98328
G1 X111.575 Y99.957 E5.99511
G1 X111.576 Y115.041 E6.21856
G1 X111.536 Y115.676 E6.22798
G1 X111.417 Y116.302 E6.23742
G1 X111.252 Y116.808 E6.24531
G1 X111.556 Y117.102 E6.25157
G1 X111.955 Y117.598 E6.261
G1 X112.289 Y118.141 E6.27044
G1 X112.552 Y118.721 E6.27988
G1 X112.74 Y119.329 E6.2893
G1 X112.85 Y119.956 E6.29873
G1 X112.882 Y120.522 E6.30713
G1 X112.882 Y120.662 E6.30921
G1 X112.842 Y121.298 E6.31865
G1 X112.723 Y121.923 E6.32807
G1 X112.526 Y122.529 E6.33751
G1 X112.255 Y123.105 E6.34694
G1 X111.914 Y123.643 E6.35637
G1 X111.396 Y124.251 E6.36821
G1 X109.559 Y126.088 E6.40669
G1 X109.081 Y126.509 E6.41613
G1 X108.554 Y126.867 E6.42556
G1 X107.987 Y127.156 E6.43499
G1 X107.388 Y127.372 E6.44442
G1 X106.766 Y127.511 E6.45386
G1 X105.97 Y127.574 E6.46569
G1 X102.79 Y127.574 E6.5128
G1 X102.653 Y127.672 E6.51529
G1 X102.092 Y127.975 E6.52474
G1 X101.498 Y128.204 E6.53417
G1 X100.88 Y128.358 E6.5436
G1 X100.248 Y128.433 E6.55303
G1 X99.611 Y128.429 E6.56247
G1 X98.98 Y128.344 E6.5719
G1 X98.511 Y128.228 E6.57906
G1 X96.328 Y127.574 E6.61281
G1 X91.04 Y127.574 E6.69115
G1 X90.404 Y127.534 E6.70059
G1 X89.779 Y127.415 E6.71001
G1 X89.173 Y127.218 E6.71945
G1 X88.597 Y126.947 E6.72888
G1 X88.059 Y126.606 E6.73832
G1 X87.47 Y126.106 E6.74976
G1 X85.624 Y124.279 E6.78823
G1 X85.2 Y123.804 E6.79767
G1 X84.84 Y123.279 E6.8071
G1 X84.547 Y122.713 E6.81654
G1 X84.328 Y122.115 E6.82597
G1 X84.186 Y121.494 E6.83541
G1 X84.119 Y120.672 E6.84762
G1 X84.119 Y120.524 E6.84982
G1 X84.159 Y119.888 E6.85926
G1 X84.278 Y119.263 E6.86868
G1 X84.475 Y118.657 E6.87812
G1 X84.746 Y118.081 E6.88755
G1 X85.087 Y117.543 E6.89699
G1 X85.493 Y117.052 E6.90642
G1 X85.753 Y116.808 E6.9117
G1 X85.627 Y116.459 E6.9172
G1 X85.488 Y115.837 E6.92664
G1 X85.425 Y115.041 E6.93847
G1 X85.424 Y99.957 E7.16191
G1 X85.464 Y99.322 E7.17134
G1 X85.583 Y98.696 E7.18078
G1 X85.748 Y98.19 E7.18866
G1 X85.444 Y97.896 E7.19493
G1 X85.045 Y97.4 E7.20436
G1 X84.711 Y96.857 E7.2138
G1 X84.448 Y96.277 E7.22323
G1 X84.26 Y95.669 E7.23266
G1 X84.15 Y95.042 E7.24209
G1 X84.118 Y94.476 E7.25049
G1 X84.118 Y94.336 E7.25256
G1 X84.158 Y93.7 E7.262
G1 X84.277 Y93.075 E7.27143
G1 X84.474 Y92.469 E7.28087
G1 X84.745 Y91.893 E7.2903
G1 X85.086 Y91.355 E7.29973
G1 X85.604 Y90.747 E7.31156
G1 X87.441 Y88.91 E7.35005
G1 X87.919 Y88.489 E7.35948
G1 X88.446 Y88.131 E7.36892
G1 X89.013 Y87.842 E7.37835
G1 X89.612 Y87.626 E7.38778
G1 X90.234 Y87.487 E7.39722
G1 X91.03 Y87.424 E7.40905
