;FLAVOR:UltiGCode
;TIME:4916
;MATERIAL:2364
;MATERIAL2:0
;NOZZLE_DIAMETER:0.25
;Generated with Cura_SteamEngine 2.3.1

;LAYER_COUNT:199
;LAYER:0
M107
G10
G0 F4800 X99.579 Y96.119 Z.18
;TYPE:WALL-INNER
G11
G1 F1200 X99.793 Y95.932 E0.01125
G1 X100.016 Y95.792 E0.02168
G1 X100.274 Y95.682 E0.03279
G1 X100.541 Y95.617 E0.04367
G1 X100.84 Y95.593 E0.05555
G1 X122.2 Y95.592 E0.9014
G1 X122.5 Y95.617 E0.91333
G1 X122.767 Y95.682 E0.92421
G1 X123.025 Y95.792 E0.93531
G1 X123.251 Y95.934 E0.94588
G1 X123.46 Y96.117 E0.95688
G1 X123.64 Y96.333 E0.96802
G1 X123.774 Y96.564 E0.97859
G1 X123.872 Y96.82 E0.98945
G1 X123.93 Y97.086 E1.00023
G1 X123.944 Y97.365 E1.01129
G1 X123.912 Y97.642 E1.02233
G1 X123.837 Y97.92 E1.03374
G1 X119.824 Y108.891 E1.49634
G1 X119.277 Y110.509 E1.56398
G1 X118.81 Y112.16 E1.63192
G1 X118.424 Y113.834 E1.69995
G1 X118.124 Y115.525 E1.76796
G1 X117.912 Y117.231 E1.83604
G1 X117.782 Y118.943 E1.90403
G1 X117.74 Y120.648 E1.97157
G1 X117.74 Y125.598 E2.16759
G1 X117.302 Y125.849 E2.18758
G1 X116.691 Y126.168 E2.21487
G1 X116.121 Y126.436 E2.23981
G1 X115.504 Y126.69 E2.26624
G1 X114.919 Y126.897 E2.29081
G1 X114.316 Y127.076 E2.31572
G1 X113.826 Y127.197 E2.33571
G1 X113.249 Y127.308 E2.35897
G1 X112.634 Y127.395 E2.38357
G1 X112.072 Y127.44 E2.4059
G1 X111.474 Y127.455 E2.42958
G1 X110.861 Y127.433 E2.45388
G1 X110.309 Y127.383 E2.47582
G1 X109.654 Y127.286 E2.50204
G1 X109.056 Y127.163 E2.52622
G1 X108.424 Y126.99 E2.55217
G1 X107.806 Y126.789 E2.5779
G1 X107.184 Y126.548 E2.60432
G1 X106.864 Y126.409 E2.61814
G1 X106.213 Y126.1 E2.64667
G1 X105.543 Y125.739 E2.67681
G1 X105.301 Y125.596 E2.68794
G1 X105.3 Y120.648 E2.88388
G1 X105.259 Y118.943 E2.95142
G1 X105.129 Y117.229 E3.01949
G1 X104.916 Y115.525 E3.08749
G1 X104.617 Y113.834 E3.15549
G1 X104.231 Y112.16 E3.22352
G1 X103.764 Y110.509 E3.29147
G1 X103.218 Y108.89 E3.35913
G1 X99.203 Y97.921 E3.82169
G1 X99.126 Y97.643 E3.83311
G1 X99.097 Y97.368 E3.84406
G1 X99.111 Y97.085 E3.85528
G1 X99.169 Y96.82 E3.86602
G1 X99.266 Y96.567 E3.87675
G1 X99.404 Y96.331 E3.88758
G1 X99.579 Y96.119 E3.89846
G0 F4800 X106.89 Y104.966
G1 F1200 X106.311 Y105.53 E3.93047
G1 X105.799 Y106.154 E3.96244
G1 X105.361 Y106.835 E3.9945
G1 X105.005 Y107.559 E4.02645
G1 X104.735 Y108.321 E4.05846
G1 X104.552 Y109.106 E4.09038
G1 X104.459 Y109.908 E4.12235
G1 X104.459 Y110.718 E4.15443
G1 X104.552 Y111.52 E4.1864
G1 X104.735 Y112.304 E4.21828
G1 X105.005 Y113.066 E4.2503
G1 X105.361 Y113.79 E4.28225
G1 X105.799 Y114.471 E4.31431
G1 X106.311 Y115.095 E4.34627
G1 X106.89 Y115.659 E4.37828
G1 X107.529 Y116.151 E4.41022
G1 X108.22 Y116.569 E4.4422
G1 X108.956 Y116.903 E4.4742
G1 X109.723 Y117.153 E4.50615
G1 X110.515 Y117.313 E4.53815
G1 X111.317 Y117.382 E4.57002
G1 X112.126 Y117.362 E4.60207
G1 X112.925 Y117.245 E4.63405
G1 X113.707 Y117.04 E4.66606
G1 X114.459 Y116.745 E4.69805
G1 X115.174 Y116.37 E4.73002
G1 X115.839 Y115.913 E4.76197
G1 X116.449 Y115.385 E4.79392
G1 X116.997 Y114.789 E4.82598
G1 X117.47 Y114.136 E4.85791
G1 X117.867 Y113.433 E4.88989
G1 X118.183 Y112.689 E4.9219
G1 X118.41 Y111.913 E4.95391
G1 X118.547 Y111.118 E4.98586
G1 X118.592 Y110.313 E5.01779
G1 X118.547 Y109.508 E5.04971
G1 X118.41 Y108.712 E5.0817
G1 X118.183 Y107.936 E5.11372
G1 X117.867 Y107.192 E5.14573
G1 X117.47 Y106.489 E5.1777
G1 X116.997 Y105.836 E5.20963
G1 X116.449 Y105.24 E5.24169
G1 X115.839 Y104.712 E5.27364
G1 X115.174 Y104.255 E5.30559
G1 X114.459 Y103.88 E5.33756
G1 X113.707 Y103.585 E5.36955
G1 X112.925 Y103.38 E5.40157
G1 X112.126 Y103.263 E5.43354
G1 X111.317 Y103.243 E5.46559
G1 X110.515 Y103.312 E5.49747
G1 X109.723 Y103.472 E5.52946
G1 X108.956 Y103.722 E5.56141
G1 X108.22 Y104.056 E5.59341
G1 X107.529 Y104.474 E5.6254
G1 X106.89 Y104.966 E5.65733
G0 F4800 X107.034 Y105.133
G1 F1200 X106.473 Y105.679 E5.68833
G1 X105.977 Y106.284 E5.71931
G1 X105.553 Y106.943 E5.75034
G1 X105.208 Y107.645 E5.78132
G1 X104.946 Y108.383 E5.81233
G1 X104.769 Y109.144 E5.84327
G1 X104.679 Y109.921 E5.87424
G1 X104.679 Y110.705 E5.90529
G1 X104.769 Y111.482 E5.93627
G1 X104.946 Y112.242 E5.96717
G1 X105.208 Y112.98 E5.99818
G1 X105.553 Y113.682 E6.02915
G1 X105.977 Y114.341 E6.06019
G1 X106.473 Y114.946 E6.09117
G1 X107.034 Y115.492 E6.12217
G1 X107.653 Y115.969 E6.15311
G1 X108.323 Y116.374 E6.18412
G1 X109.036 Y116.698 E6.21513
G1 X109.779 Y116.94 E6.24607
G1 X110.546 Y117.095 E6.27706
G1 X111.324 Y117.162 E6.30798
G1 X112.107 Y117.142 E6.339
G1 X112.881 Y117.029 E6.36997
G1 X113.639 Y116.83 E6.40101
G1 X114.367 Y116.545 E6.43197
G1 X115.06 Y116.181 E6.46297
G1 X115.704 Y115.739 E6.4939
G1 X116.296 Y115.227 E6.52489
G1 X116.826 Y114.65 E6.55592
G1 X117.285 Y114.017 E6.58688
G1 X117.669 Y113.336 E6.61784
G1 X117.975 Y112.615 E6.64886
G1 X118.195 Y111.863 E6.67988
G1 X118.328 Y111.093 E6.71083
G1 X118.372 Y110.313 E6.74176
G1 X118.328 Y109.533 E6.7727
G1 X118.195 Y108.762 E6.80368
G1 X117.975 Y108.01 E6.83471
G1 X117.669 Y107.289 E6.86573
G1 X117.285 Y106.608 E6.89669
G1 X116.826 Y105.975 E6.92765
G1 X116.296 Y105.398 E6.95868
G1 X115.704 Y104.886 E6.98967
G1 X115.06 Y104.444 E7.0206
G1 X114.367 Y104.08 E7.0516
G1 X113.639 Y103.795 E7.08256
G1 X112.881 Y103.596 E7.11359
G1 X112.107 Y103.483 E7.14457
G1 X111.324 Y103.463 E7.17559
G1 X110.546 Y103.53 E7.20651
G1 X109.779 Y103.685 E7.2375
G1 X109.036 Y103.927 E7.26844
G1 X108.323 Y104.251 E7.29945
G1 X107.653 Y104.656 E7.33046
G1 X107.034 Y105.133 E7.3614
G0 F4800 X103.01 Y108.963
G1 F1200 X98.996 Y97.997 E7.82383
G1 X98.909 Y97.681 E7.83681
G1 X98.876 Y97.374 E7.84904
G1 X98.892 Y97.059 E7.86153
G1 X98.957 Y96.758 E7.87372
G1 X99.068 Y96.47 E7.88595
G1 X99.223 Y96.204 E7.89814
G1 X99.421 Y95.964 E7.91046
G1 X99.658 Y95.757 E7.92292
G1 X99.913 Y95.597 E7.93484
G1 X100.209 Y95.471 E7.94758
G1 X100.503 Y95.4 E7.95956
G1 X100.834 Y95.373 E7.97271
G1 X122.206 Y95.372 E8.81904
G1 X122.538 Y95.4 E8.83223
G1 X122.832 Y95.471 E8.84421
G1 X123.128 Y95.597 E8.85695
G1 X123.386 Y95.759 E8.86901
G1 X123.617 Y95.961 E8.88117
G1 X123.819 Y96.204 E8.89368
G1 X123.973 Y96.47 E8.90585
G1 X124.084 Y96.758 E8.91807
G1 X124.149 Y97.059 E8.93027
G1 X124.165 Y97.373 E8.94272
G1 X124.13 Y97.68 E8.95495
G1 X124.044 Y97.996 E8.96792
G1 X120.032 Y108.964 E9.4304
G1 X119.487 Y110.574 E9.49771
G1 X119.023 Y112.215 E9.56524
G1 X118.64 Y113.878 E9.63282
G1 X118.342 Y115.558 E9.70039
G1 X118.131 Y117.253 E9.76803
G1 X118.002 Y118.954 E9.83558
G1 X117.96 Y120.651 E9.9028
G1 X117.96 Y125.725 E10.10373
G1 X117.404 Y126.044 E10.12912
G1 X116.793 Y126.363 E10.15641
G1 X116.205 Y126.639 E10.18213
G1 X115.586 Y126.894 E10.20865
G1 X114.982 Y127.108 E10.23402
G1 X114.369 Y127.29 E10.25934
G1 X113.879 Y127.411 E10.27933
G1 X113.282 Y127.526 E10.30341
G1 X112.665 Y127.613 E10.32808
G1 X112.078 Y127.66 E10.3514
G1 X111.471 Y127.675 E10.37544
G1 X110.851 Y127.653 E10.40001
G1 X110.277 Y127.601 E10.42284
G1 X109.622 Y127.504 E10.44906
G1 X109.003 Y127.376 E10.47409
G1 X108.361 Y127.201 E10.50044
G1 X107.734 Y126.997 E10.52655
G1 X107.096 Y126.75 E10.55364
G1 X106.776 Y126.611 E10.56746
G1 X106.113 Y126.296 E10.59652
G1 X105.439 Y125.933 E10.62684
G1 X105.081 Y125.721 E10.64332
G1 X105.08 Y120.651 E10.84409
G1 X105.039 Y118.954 E10.91131
G1 X104.91 Y117.251 E10.97894
G1 X104.698 Y115.558 E11.04651
G1 X104.401 Y113.878 E11.11407
G1 X104.018 Y112.215 E11.18164
G1 X103.554 Y110.574 E11.24918
G1 X103.01 Y108.963 E11.31651
G0 F4800 X102.802 Y109.036
G1 F1200 X98.789 Y98.073 E11.77882
G1 X98.692 Y97.719 E11.79335
G1 X98.655 Y97.381 E11.80682
G1 X98.673 Y97.033 E11.82062
G1 X98.745 Y96.696 E11.83426
G1 X98.87 Y96.372 E11.84801
G1 X99.042 Y96.077 E11.86154
G1 X99.263 Y95.809 E11.87529
G1 X99.523 Y95.582 E11.88896
G1 X99.815 Y95.399 E11.90261
G1 X100.138 Y95.262 E11.9165
G1 X100.465 Y95.183 E11.92982
G1 X100.828 Y95.153 E11.94425
G1 X122.213 Y95.152 E12.79109
G1 X122.576 Y95.183 E12.80552
G1 X122.903 Y95.262 E12.81884
G1 X123.226 Y95.399 E12.83274
G1 X123.521 Y95.584 E12.84652
G1 X123.775 Y95.806 E12.85988
G1 X123.999 Y96.077 E12.87381
G1 X124.171 Y96.372 E12.88733
G1 X124.296 Y96.696 E12.90108
G1 X124.368 Y97.033 E12.91473
G1 X124.386 Y97.381 E12.92853
G1 X124.348 Y97.718 E12.94196
G1 X124.251 Y98.072 E12.95649
G1 X120.24 Y109.037 E13.41884
G1 X119.697 Y110.639 E13.48583
G1 X119.236 Y112.27 E13.55295
G1 X118.856 Y113.922 E13.62007
G1 X118.56 Y115.591 E13.6872
G1 X118.35 Y117.275 E13.7544
G1 X118.222 Y118.965 E13.82152
G1 X118.18 Y120.654 E13.88842
G1 X118.181 Y125.738 E14.08975
G1 X118.168 Y125.81 E14.09265
G1 X118.139 Y125.863 E14.09504
G1 X118.09 Y125.904 E14.09757
G1 X117.506 Y126.239 E14.12423
G1 X116.895 Y126.558 E14.15152
G1 X116.289 Y126.842 E14.17803
G1 X115.66 Y127.101 E14.20496
G1 X115.045 Y127.319 E14.2308
G1 X114.422 Y127.504 E14.25654
G1 X113.932 Y127.625 E14.27653
G1 X113.315 Y127.744 E14.30141
G1 X112.697 Y127.831 E14.32612
G1 X112.083 Y127.88 E14.35051
G1 X111.468 Y127.895 E14.37488
G1 X110.841 Y127.873 E14.39972
G1 X110.244 Y127.819 E14.42346
G1 X109.589 Y127.721 E14.44968
G1 X108.95 Y127.589 E14.47552
G1 X108.298 Y127.412 E14.50228
G1 X107.662 Y127.205 E14.52876
G1 X107.008 Y126.952 E14.55653
G1 X106.688 Y126.813 E14.57035
G1 X106.013 Y126.492 E14.59995
G1 X105.335 Y126.127 E14.63044
G1 X104.919 Y125.88 E14.6496
G1 X104.902 Y125.863 E14.65055
G1 X104.869 Y125.804 E14.65323
G1 X104.861 Y125.748 E14.65547
G1 X104.86 Y120.654 E14.85719
G1 X104.819 Y118.965 E14.92409
G1 X104.691 Y117.273 E14.99129
G1 X104.48 Y115.591 E15.05842
G1 X104.185 Y113.922 E15.12553
G1 X103.805 Y112.27 E15.19266
G1 X103.344 Y110.639 E15.25978
G1 X102.802 Y109.036 E15.32679
G0 F4800 X102.896 Y109.003
G0 X104.888 Y109.165
G0 X104.986 Y109.182
G1 F1200 X104.899 Y109.934 E15.35677
G1 X104.899 Y110.692 E15.38678
G1 X104.986 Y111.444 E15.41676
G1 X105.157 Y112.18 E15.44668
G1 X105.411 Y112.894 E15.47669
G1 X105.745 Y113.574 E15.50669
G1 X106.155 Y114.211 E15.53669
G1 X106.635 Y114.797 E15.56669
G1 X107.178 Y115.325 E15.59668
G1 X107.777 Y115.787 E15.62664
G1 X108.426 Y116.179 E15.65666
G1 X109.116 Y116.493 E15.68668
G1 X109.835 Y116.727 E15.71662
G1 X110.577 Y116.877 E15.7466
G1 X111.331 Y116.942 E15.77657
G1 X112.088 Y116.922 E15.80656
G1 X112.837 Y116.813 E15.83653
G1 X113.571 Y116.62 E15.86659
G1 X114.275 Y116.345 E15.89652
G1 X114.946 Y115.992 E15.92654
G1 X115.569 Y115.565 E15.95645
G1 X116.142 Y115.069 E15.98646
G1 X116.655 Y114.51 E16.01651
G1 X117.1 Y113.898 E16.04647
G1 X117.471 Y113.239 E16.07642
G1 X117.767 Y112.541 E16.10644
G1 X117.98 Y111.813 E16.13648
G1 X118.109 Y111.068 E16.16642
G1 X118.152 Y110.313 E16.19637
G1 X118.109 Y109.558 E16.22631
G1 X117.98 Y108.812 E16.25629
G1 X117.767 Y108.084 E16.28633
G1 X117.471 Y107.386 E16.31635
G1 X117.1 Y106.727 E16.3463
G1 X116.655 Y106.115 E16.37627
G1 X116.142 Y105.556 E16.40631
G1 X115.569 Y105.06 E16.43632
G1 X114.946 Y104.633 E16.46623
G1 X114.275 Y104.28 E16.49626
G1 X113.571 Y104.005 E16.52619
G1 X112.837 Y103.812 E16.55624
G1 X112.088 Y103.703 E16.58621
G1 X111.331 Y103.683 E16.6162
G1 X110.577 Y103.748 E16.64617
G1 X109.835 Y103.898 E16.67615
G1 X109.116 Y104.132 E16.70609
G1 X108.426 Y104.446 E16.73611
G1 X107.777 Y104.838 E16.76614
G1 X107.178 Y105.3 E16.79609
G1 X106.635 Y105.828 E16.82608
G1 X106.155 Y106.414 E16.85608
G1 X105.745 Y107.051 E16.88608
G1 X105.411 Y107.731 E16.91608
G1 X105.157 Y108.445 E16.94609
G1 X104.986 Y109.182 E16.97605
G0 F4800 X105.188 Y109.217
;TYPE:WALL-OUTER
G1 F1200 X105.104 Y109.946 E17.00511
G1 X105.104 Y110.68 E17.03418
G1 X105.188 Y111.409 E17.06324
G1 X105.354 Y112.122 E17.09223
G1 X105.6 Y112.814 E17.12131
G1 X105.924 Y113.473 E17.15039
G1 X106.321 Y114.09 E17.17944
G1 X106.786 Y114.658 E17.20851
G1 X107.312 Y115.17 E17.23758
G1 X107.893 Y115.617 E17.26661
G1 X108.522 Y115.997 E17.29571
G1 X109.19 Y116.302 E17.32479
G1 X109.887 Y116.528 E17.35381
G1 X110.606 Y116.674 E17.38286
G1 X111.337 Y116.737 E17.41191
G1 X112.07 Y116.717 E17.44095
G1 X112.796 Y116.612 E17.47
G1 X113.507 Y116.425 E17.49911
G1 X114.19 Y116.158 E17.52815
G1 X114.84 Y115.816 E17.55724
G1 X115.444 Y115.402 E17.58624
G1 X115.999 Y114.922 E17.61529
G1 X116.496 Y114.38 E17.64442
G1 X116.927 Y113.787 E17.67345
G1 X117.287 Y113.148 E17.70249
G1 X117.574 Y112.472 E17.73157
G1 X117.78 Y111.767 E17.76066
G1 X117.905 Y111.045 E17.78967
G1 X117.947 Y110.313 E17.81871
G1 X117.905 Y109.581 E17.84774
G1 X117.78 Y108.858 E17.8768
G1 X117.574 Y108.153 E17.90588
G1 X117.287 Y107.477 E17.93497
G1 X116.927 Y106.838 E17.96401
G1 X116.496 Y106.245 E17.99304
G1 X115.999 Y105.703 E18.02216
G1 X115.444 Y105.223 E18.05122
G1 X114.84 Y104.809 E18.08022
G1 X114.19 Y104.467 E18.1093
G1 X113.507 Y104.2 E18.13834
G1 X112.796 Y104.013 E18.16745
G1 X112.07 Y103.908 E18.1965
G1 X111.337 Y103.888 E18.22554
G1 X110.606 Y103.951 E18.2546
G1 X109.887 Y104.097 E18.28365
G1 X109.19 Y104.323 E18.31267
G1 X108.522 Y104.628 E18.34175
G1 X107.893 Y105.008 E18.37085
G1 X107.312 Y105.455 E18.39988
G1 X106.786 Y105.967 E18.42894
G1 X106.321 Y106.535 E18.45801
G1 X105.924 Y107.152 E18.48707
G1 X105.6 Y107.811 E18.51615
G1 X105.354 Y108.503 E18.54523
G1 X105.188 Y109.217 E18.57426
G0 F4800 X104.892 Y109.149
G0 X103.437 Y110.604
G0 X103.148 Y110.7
G1 F1200 X102.609 Y109.104 E18.64097
G1 X98.594 Y98.136 E19.10349
G1 X98.49 Y97.757 E19.11905
G1 X98.449 Y97.387 E19.13379
G1 X98.469 Y97.005 E19.14894
G1 X98.546 Y96.642 E19.16363
G1 X98.685 Y96.283 E19.17888
G1 X98.875 Y95.957 E19.19382
G1 X99.114 Y95.668 E19.20867
G1 X99.403 Y95.415 E19.22388
G1 X99.719 Y95.217 E19.23865
G1 X100.07 Y95.068 E19.25375
G1 X100.432 Y94.98 E19.2685
G1 X100.823 Y94.948 E19.28404
G1 X122.218 Y94.947 E20.13128
G1 X122.609 Y94.98 E20.14682
G1 X122.971 Y95.068 E20.16157
G1 X123.322 Y95.217 E20.17667
G1 X123.641 Y95.417 E20.19158
G1 X123.924 Y95.665 E20.20648
G1 X124.166 Y95.957 E20.2215
G1 X124.356 Y96.283 E20.23644
G1 X124.495 Y96.642 E20.25169
G1 X124.572 Y97.005 E20.26638
G1 X124.592 Y97.387 E20.28153
G1 X124.55 Y97.757 E20.29627
G1 X124.446 Y98.135 E20.3118
G1 X120.433 Y109.105 E20.77437
G1 X119.893 Y110.7 E20.84105
G1 X119.435 Y112.321 E20.90775
G1 X119.057 Y113.963 E20.97448
G1 X118.763 Y115.622 E21.0412
G1 X118.554 Y117.295 E21.10796
G1 X118.427 Y118.975 E21.17468
G1 X118.385 Y120.657 E21.24131
G1 X118.386 Y125.758 E21.44331
G1 X118.364 Y125.88 E21.44822
G1 X118.304 Y125.987 E21.45308
G1 X118.258 Y126.034 E21.45568
G1 X118.202 Y126.076 E21.45845
G1 X117.601 Y126.421 E21.4859
G1 X116.982 Y126.744 E21.51354
G1 X116.367 Y127.032 E21.54044
G1 X115.738 Y127.291 E21.56737
G1 X115.113 Y127.512 E21.59363
G1 X114.471 Y127.703 E21.62015
G1 X113.98 Y127.824 E21.64017
G1 X113.345 Y127.947 E21.66579
G1 X112.724 Y128.034 E21.69062
G1 X112.088 Y128.085 E21.71589
G1 X111.466 Y128.1 E21.74052
G1 X110.834 Y128.078 E21.76557
G1 X110.214 Y128.022 E21.79022
G1 X109.551 Y127.923 E21.81677
G1 X108.904 Y127.789 E21.84293
G1 X108.244 Y127.61 E21.87001
G1 X107.595 Y127.399 E21.89703
G1 X106.934 Y127.143 E21.9251
G1 X106.599 Y126.998 E21.93956
G1 X105.916 Y126.673 E21.96951
G1 X105.238 Y126.308 E22.00001
G1 X104.836 Y126.073 E22.01844
G1 X104.783 Y126.034 E22.02105
G1 X104.737 Y125.987 E22.02365
G1 X104.677 Y125.88 E22.02851
G1 X104.662 Y125.819 E22.031
G1 X104.656 Y125.758 E22.03343
G1 X104.655 Y120.657 E22.23543
G1 X104.614 Y118.975 E22.30205
G1 X104.487 Y117.294 E22.36881
G1 X104.277 Y115.622 E22.43554
G1 X103.984 Y113.963 E22.50226
G1 X103.606 Y112.321 E22.56898
G1 X103.148 Y110.7 E22.63568
G0 F4800 X103.437 Y110.604
G0 X103.813 Y110.347
;TYPE:SKIN
G1 F1200 X104.382 Y110.916 E22.66755
G0 X104.42 Y110.954
