;FLAVOR:UltiGCode
;TIME:21344
;MATERIAL:21237
;MATERIAL2:0
;NOZZLE_DIAMETER:0.4
;Generated with Cura_SteamEngine 2.3.1

;LAYER_COUNT:4
;LAYER:0
M107
G10
G0 F2880 X12.425 Y12.425 Z.18
;TYPE:WALL-INNER
G11
G1 F1200 X210.575 Y12.425 E13.19679
G1 X210.575 Y210.575 E26.39358
G1 X12.425 Y210.575 E39.59037
G1 X12.425 Y12.425 E52.78716
G0 F2880 X58.294 Y89.066
G1 F1200 X57.339 Y90.437 E52.89844
G1 X59.157 Y91.993 E53.05781
G1 X60.173 Y92.602 E53.1367
G1 X61.444 Y93.106 E53.22776
G1 X64.364 Y93.752 E53.42693
G1 X66.756 Y93.912 E53.5866
G1 X69.628 Y93.688 E53.77845
G1 X74.128 Y92.829 E54.08356
G1 X77.801 Y92.253 E54.33118
G1 X80.607 Y92.236 E54.51806
G1 X83.762 Y92.597 E54.72955
G1 X85.394 Y93.042 E54.84221
G1 X86.135 Y93.339 E54.89538
G1 X88.551 Y94.77 E55.08239
G1 X90.133 Y96.056 E55.21817
G1 X90.815 Y96.81 E55.28588
G1 X91.105 Y97.252 E55.32109
G1 X91.267 Y97.614 E55.3475
G1 X91.489 Y97.963 E55.37505
G1 X91.926 Y98.871 E55.44216
G1 X92.564 Y100.881 E55.58261
G1 X92.947 Y103.217 E55.74027
G1 X92.95 Y104.798 E55.84556
G1 X92.685 Y106.364 E55.95134
G1 X92.477 Y106.952 E55.99288
G1 X91.612 Y108.729 E56.1245
G1 X91.325 Y109.121 E56.15686
G1 X91.12 Y109.402 E56.18003
G1 X91.003 Y109.075 E56.19292
G1 X90.672 Y108.153 E56.25817
G1 X89.912 Y106.638 E56.37105
G1 X89.484 Y106.033 E56.42041
G1 X88.089 Y104.529 E56.55703
G1 X86.628 Y103.32 E56.68332
G1 X85.043 Y102.389 E56.80575
G1 X83.682 Y101.852 E56.90319
G1 X82.622 Y101.602 E56.97572
G1 X81.837 Y101.494 E57.0285
G1 X79.025 Y101.375 E57.21594
G1 X77.513 Y101.441 E57.31674
G1 X77.433 Y101.433 E57.32209
G1 X75.628 Y100.456 E57.45879
G1 X70.178 Y97.644 E57.86722
G1 X68.875 Y97.181 E57.95932
G1 X67.993 Y97.028 E58.01894
G1 X67.656 Y97.064 E58.04151
G1 X67.336 Y97.151 E58.0636
G1 X66.961 Y97.317 E58.09091
G1 X66.533 Y97.59 E58.12472
G1 X66.034 Y98.041 E58.16951
G1 X65.697 Y98.471 E58.2059
G1 X65.644 Y98.565 E58.21309
G1 X65.627 Y98.594 E58.21532
G1 X65.621 Y98.604 E58.2161
G0 X65.598 Y98.578
G1 X65.407 Y98.43 E58.21642
G1 X64.839 Y98.105 E58.26001
G1 X59.354 Y95.443 E58.66605
G1 X55.761 Y93.339 E58.94336
G1 X54.76 Y92.619 E59.02548
G1 X54.102 Y92.782 E59.07063
G1 X53.849 Y92.887 E59.08887
G1 X53.639 Y93.018 E59.10535
G1 X53.463 Y93.169 E59.1208
G1 X53.314 Y93.343 E59.13605
G1 X53.191 Y93.545 E59.15181
G1 X53.101 Y93.77 E59.16794
G1 X53.051 Y93.997 E59.18343
G1 X53.03 Y94.247 E59.20013
G1 X53.054 Y94.557 E59.22084
G1 X53.166 Y95.137 E59.26018
G1 X58.949 Y98.069 E59.692
G1 X63.896 Y99.874 E60.04272
G1 X64.191 Y99.981 E60.06362
G1 X63.953 Y100.185 E60.07548
G1 X63.952 Y100.186 E60.07557
G1 X63.822 Y100.298 E60.087
G1 X63.341 Y100.861 E60.13632
G1 X62.966 Y101.469 E60.18389
G1 X62.693 Y102.115 E60.2306
G1 X62.563 Y102.651 E60.26733
G1 X62.53 Y103.082 E60.29612
G1 X62.556 Y103.409 E60.31797
G1 X62.628 Y103.715 E60.3389
G1 X62.742 Y103.996 E60.3591
G1 X62.905 Y104.257 E60.37959
G1 X63.104 Y104.481 E60.39955
G1 X63.349 Y104.685 E60.42078
G1 X63.548 Y104.806 E60.43629
G1 X66.46 Y107.26 E60.68991
G1 X69.24 Y110.098 E60.9545
G1 X70.756 Y111.723 E61.10251
G1 X71.184 Y112.283 E61.14945
G1 X71.288 Y112.478 E61.16417
G1 X71.318 Y112.566 E61.17036
G1 X71.328 Y112.64 E61.17533
G1 X71.184 Y113.303 E61.22052
G1 X71.151 Y113.557 E61.23758
G1 X71.16 Y113.82 E61.2551
G1 X71.276 Y114.263 E61.2856
G1 X73.54 Y116.557 E61.50026
G1 X75.638 Y118.168 E61.67642
G1 X77.209 Y119.029 E61.79574
G1 X77.008 Y119.596 E61.8358
G1 X76.184 Y121.094 E61.94967
G1 X75.106 Y122.455 E62.0653
G1 X74.25 Y123.327 E62.14668
G1 X74.641 Y124.422 E62.22411
G1 X75.574 Y124.52 E62.28659
G1 X76.716 Y124.523 E62.36265
G1 X78.11 Y124.297 E62.4567
G1 X79.346 Y123.884 E62.5435
G1 X80.42 Y123.322 E62.62423
G1 X81.221 Y122.724 E62.6908
G1 X81.763 Y122.159 E62.74294
G1 X82.116 Y121.65 E62.7842
G1 X82.322 Y121.22 E62.81595
G1 X82.335 Y121.179 E62.81882
G1 X87.356 Y123.361 E63.18343
G1 X91.7 Y124.564 E63.48363
G1 X95.412 Y124.99 E63.73247
G1 X99.189 Y124.807 E63.98431
G1 X102.982 Y124.04 E64.24204
G1 X107.444 Y122.547 E64.5554
G1 X120.528 Y116.973 E65.50257
G1 X125.489 Y115.32 E65.85084
G1 X126.391 Y115.095 E65.91275
G1 X126.522 Y115.063 E65.92173
G1 X126.56 Y115.183 E65.93011
G1 X126.579 Y115.316 E65.93686
G1 X126.728 Y116.36 E66.0071
G1 X126.891 Y123.552 E66.48621
G1 X126.818 Y133.018 E67.11666
G1 X126.508 Y136.506 E67.34988
G1 X126.343 Y137.086 E67.39004
G1 X126.258 Y137.267 E67.40336
G1 X126.19 Y137.369 E67.41152
G1 X126.135 Y137.427 E67.41684
G1 X126.082 Y137.468 E67.42131
G1 X126.007 Y137.509 E67.427
G1 X125.829 Y137.572 E67.43957
G1 X125.382 Y137.654 E67.46984
G1 X123.242 Y137.795 E67.61267
G1 X123.242 Y140.157 E67.76998
G1 X133.13 Y140.157 E68.42852
G1 X134.697 Y140.075 E68.53303
G1 X136.295 Y139.742 E68.64174
G1 X137.687 Y139.221 E68.74073
G1 X138.768 Y138.611 E68.8234
G1 X139.536 Y138.015 E68.88814
G1 X140.203 Y137.316 E68.95249
G1 X140.721 Y136.566 E69.01319
G1 X141.127 Y135.707 E69.07647
G1 X141.382 Y134.803 E69.13903
G1 X141.492 Y133.86 E69.20226
G1 X141.492 Y133.412 E69.23209
G1 X141.679 Y133.412 E69.24455
G0 X141.667 Y133.366
G1 X141.053 Y131.096 E69.40116
G1 X140.525 Y129.913 E69.48744
G1 X139.788 Y128.78 E69.57746
G1 X139.102 Y127.998 E69.64674
G1 X138.154 Y127.192 E69.72961
G1 X137.408 Y126.747 E69.78746
G1 X137.248 Y126.652 E69.79986
G1 X137.345 Y126.493 E69.80786
G1 X138.786 Y124.147 E69.99122
G1 X142.294 Y119.814 E70.36252
G1 X143.436 Y118.692 E70.46914
G1 X143.667 Y118.465 E70.49071
G1 X143.765 Y118.387 E70.49905
G0 X143.765 Y118.465
G1 X143.765 Y118.789 E70.51333
G1 X143.765 Y124.673 E70.9052
G1 X143.74 Y124.955 E70.92406
G1 X143.701 Y125.109 E70.93464
G1 X143.631 Y125.266 E70.94608
G1 X143.555 Y125.381 E70.95526
G1 X143.444 Y125.499 E70.96605
G1 X143.31 Y125.605 E70.97743
G1 X143.105 Y125.719 E70.99305
G1 X142.756 Y125.846 E71.01779
G1 X142.14 Y125.959 E71.0595
G1 X140.115 Y126.053 E71.19451
G1 X140.115 Y128.4 E71.35082
G1 X151.201 Y128.4 E72.08915
G1 X151.201 Y126.016 E72.24792
G1 X149.301 Y126.004 E72.37446
G1 X148.825 Y125.929 E72.40656
G1 X148.507 Y125.828 E72.42878
G1 X148.319 Y125.735 E72.44275
G1 X148.184 Y125.64 E72.45374
G1 X148.073 Y125.531 E72.4641
G1 X147.986 Y125.408 E72.47414
G1 X147.907 Y125.25 E72.4859
G1 X147.812 Y124.953 E72.50667
G1 X147.713 Y124.283 E72.55177
G1 X147.698 Y118.202 E72.95677
G1 X147.698 Y118.201 E72.95684
G1 X147.698 Y117.841 E72.98081
G1 X147.991 Y118.051 E72.99415
G1 X149.279 Y118.977 E73.0998
G1 X152.584 Y122.172 E73.40595
G1 X155.139 Y125.169 E73.66824
G1 X155.361 Y125.505 E73.69506
G1 X155.514 Y125.738 E73.71363
G1 X155.24 Y125.788 E73.72443
G1 X153.185 Y126.164 E73.86357
G1 X153.185 Y128.4 E74.01249
G1 X164.094 Y128.4 E74.73903
G1 X164.094 Y126.115 E74.89121
G1 X164.094 Y126.114 E74.89127
G1 X164.094 Y125.923 E74.904
G1 X163.903 Y125.93 E74.91214
G1 X162.883 Y125.973 E74.98013
G1 X162.385 Y125.92 E75.01349
G1 X161.416 Y125.66 E75.08031
G1 X160.148 Y125.096 E75.17273
G1 X159.014 Y124.366 E75.26255
G1 X156.935 Y122.549 E75.44644
G1 X153.495 Y119.344 E75.75957
G1 X151.168 Y117.093 E75.9752
G1 X154.916 Y112.561 E76.36687
G1 X158.02 Y109.465 E76.65885
G1 X158.335 Y109.151 E76.68847
G1 X158.335 Y109.595 E76.70439
G1 X158.335 Y109.596 E76.70446
G1 X158.335 Y114.846 E77.05411
G1 X158.318 Y115.316 E77.08543
G1 X158.283 Y115.5 E77.0979
G1 X158.26 Y115.568 E77.10269
G1 X158.21 Y115.652 E77.1092
G1 X158.121 Y115.722 E77.11674
G1 X158.029 Y115.767 E77.12356
G1 X157.78 Y115.843 E77.1409
G1 X157.12 Y115.934 E77.18527
G1 X155.16 Y115.991 E77.31586
G1 X155.16 Y118.431 E77.47836
G1 X165.808 Y118.431 E78.18752
G1 X167.553 Y118.278 E78.30418
G1 X169.001 Y117.91 E78.40369
G1 X170.184 Y117.406 E78.48933
G1 X171.178 Y116.774 E78.56777
G1 X171.899 Y116.135 E78.63194
G1 X172.481 Y115.423 E78.69318
G1 X172.978 Y114.564 E78.75928
G1 X173.366 Y113.558 E78.83109
G1 X173.976 Y110.811 E79.01849
G1 X173.985 Y110.774 E79.02103
G1 X173.808 Y110.774 E79.02799
G1 X173.516 Y109.067 E79.14333
G1 X173.095 Y107.829 E79.23041
G1 X172.483 Y106.683 E79.31694
G1 X171.783 Y105.777 E79.39319
G1 X170.845 Y104.903 E79.47858
G1 X169.696 Y104.14 E79.57044
G1 X167.951 Y103.341 E79.69826
G1 X166.277 Y102.99 E79.81217
G1 X164.611 Y102.901 E79.92328
G1 X162.873 Y103.073 E80.0396
G1 X162.462 Y103.179 E80.06787
G1 X162.232 Y103.238 E80.08368
G1 X162.232 Y103.001 E80.09324
G1 X162.232 Y103 E80.0933
G1 X162.227 Y97.452 E80.4628
G1 X162.265 Y97.174 E80.48149
G1 X162.358 Y96.872 E80.50253
G1 X162.447 Y96.691 E80.51597
G1 X162.551 Y96.542 E80.52807
G1 X162.664 Y96.428 E80.53876
G1 X162.791 Y96.336 E80.5492
G1 X162.965 Y96.25 E80.56213
G1 X163.315 Y96.139 E80.58658
G1 X164.143 Y96.021 E80.64229
G1 X166.163 Y95.905 E80.77704
G1 X166.163 Y93.562 E80.93308
G1 X154.87 Y93.562 E81.6852
G1 X154.87 Y95.962 E81.84504
G1 X156.977 Y96.065 E81.98553
G1 X157.384 Y96.126 E82.01294
G1 X157.704 Y96.216 E82.03508
G1 X157.897 Y96.302 E82.04915
G1 X158.018 Y96.38 E82.05874
G1 X158.113 Y96.467 E82.06732
G1 X158.204 Y96.584 E82.07719
G1 X158.27 Y96.704 E82.08631
G1 X158.337 Y96.886 E82.09923
G1 X158.406 Y97.23 E82.12259
G1 X158.435 Y97.983 E82.17278
G1 X158.422 Y98.307 E82.19438
G1 X158.403 Y102.095 E82.44666
G1 X158.403 Y102.191 E82.45305
G1 X158.4 Y102.63 E82.48229
G1 X158.108 Y102.19 E82.49894
G1 X158.044 Y102.119 E82.5047
G1 X156.939 Y100.905 E82.61403
G1 X154.306 Y98.765 E82.84
G1 X150.571 Y96.58 E83.12819
G1 X147.395 Y95.36 E83.35478
G1 X144.114 Y94.68 E83.57794
G1 X140.738 Y94.53 E83.803
G1 X136.264 Y95.036 E84.10287
G1 X131.986 Y96.127 E84.3969
G1 X128.538 Y97.475 E84.64347
G1 X123.278 Y100.597 E85.05084
G1 X118.372 Y104.35 E85.46222
G1 X113.058 Y109.204 E85.94156
G1 X112.803 Y109.437 E85.96456
G1 X112.345 Y109.855 E86.00586
G1 X110.322 Y111.587 E86.18322
G1 X112.154 Y109.672 E86.24606
G1 X112.596 Y109.21 E86.27907
G1 X112.805 Y108.935 E86.30012
G1 X115.794 Y104.997 E86.62939
G1 X119.444 Y99.06 E87.09354
G1 X122.124 Y93.641 E87.49617
G1 X122.654 Y92.209 E87.59786
G1 X122.905 Y91.264 E87.66298
G1 X122.991 Y90.618 E87.70638
G1 X123.006 Y89.693 E87.768
G1 X121.532 Y89.367 E87.86854
G1 X119.144 Y94.699 E88.25764
G1 X115.969 Y99.921 E88.66466
G1 X111.628 Y105.622 E89.14189
G1 X107.23 Y110.258 E89.56748
G1 X103.262 Y113.551 E89.9109
G1 X98.971 Y116.214 E90.24724
G1 X95.013 Y117.905 E90.53389
G1 X90.904 Y119.005 E90.81719
G1 X90.364 Y119.114 E90.85388
G1 X86.672 Y119.459 E91.10083
G1 X83.567 Y119.212 E91.30828
G1 X81.383 Y118.757 E91.45686
G1 X81.256 Y119.155 E91.48468
G1 X80.039 Y120.111 E91.58775
G1 X79.899 Y120.22 E91.59957
G1 X79.702 Y120.331 E91.61463
G0 X79.702 Y120.22
G1 X79.702 Y120.042 E91.624
G1 X79.704 Y119.744 E91.64385
G1 X79.592 Y118.945 E91.69758
G1 X79.153 Y117.404 E91.80429
G1 X78.452 Y117.379 E91.85101
G1 X76.292 Y115.273 E92.05193
G1 X74.506 Y113.378 E92.22535
G1 X74.625 Y113.161 E92.24183
G1 X74.712 Y112.908 E92.25965
G1 X74.763 Y112.637 E92.27802
G1 X74.765 Y112.357 E92.29667
G1 X74.706 Y111.938 E92.32485
G1 X74.41 Y111.485 E92.36089
G1 X73.08 Y109.807 E92.50349
G1 X68.972 Y105.472 E92.90124
G1 X66.427 Y103.362 E93.12142
G1 X65.688 Y102.86 E93.18091
G1 X65.238 Y102.517 E93.2186
G1 X65.346 Y102.296 E93.23498
G1 X65.877 Y101.511 E93.2981
G1 X66.466 Y100.849 E93.35711
G1 X66.627 Y100.881 E93.36805
G1 X67.29 Y99.841 E93.45019
G1 X67.439 Y99.67 E93.46529
G1 X67.54 Y99.584 E93.47413
G1 X67.626 Y99.537 E93.48065
G1 X67.686 Y99.525 E93.48473
G1 X67.757 Y99.53 E93.48947
G1 X67.925 Y99.569 E93.50096
G1 X68.368 Y99.751 E93.53285
G1 X69.279 Y100.23 E93.6014
G1 X73.25 Y102.662 E93.91153
G1 X75.909 Y104.245 E94.11762
G1 X76.501 Y104.485 E94.16017
G1 X76.88 Y104.576 E94.18613
G1 X77.167 Y104.598 E94.2053
G1 X77.33 Y104.585 E94.21619
G1 X79.846 Y104.606 E94.38376
G1 X81.863 Y104.743 E94.5184
G1 X82.705 Y104.965 E94.57639
G1 X84.15 Y105.434 E94.67757
G1 X85.133 Y105.942 E94.75127
G1 X86.151 Y106.693 E94.83552
G1 X87.455 Y108.009 E94.9589
G1 X89.246 Y110.432 E95.15957
G1 X89.73 Y111.299 E95.2257
G1 X89.644 Y111.417 E95.23543
G1 X90.066 Y111.904 E95.27835
G1 X90.423 Y112.54 E95.32692
G1 X90.563 Y112.48 E95.33706
G1 X90.61 Y112.535 E95.34188
G1 X91.224 Y112.205 E95.38831
G1 X91.931 Y111.923 E95.439
G1 X91.889 Y111.768 E95.4497
G1 X92.222 Y111.484 E95.47884
G1 X93.059 Y110.505 E95.56463
G1 X94.368 Y108.392 E95.73017
G1 X95.162 Y106.738 E95.85236
G1 X95.469 Y105.834 E95.91594
G1 X95.691 Y104.511 E96.00529
G1 X95.701 Y102.488 E96.14002
G1 X95.192 Y99.158 E96.36437
G1 X94.767 Y97.476 E96.47992
G1 X94.046 Y96.088 E96.58408
G1 X92.744 Y94.317 E96.73048
G1 X91.028 Y92.649 E96.88986
G1 X89.196 Y91.379 E97.03832
G1 X86.804 Y90.24 E97.21476
G1 X82.776 Y89.066 E97.49419
G1 X78.285 Y89.063 E97.79329
G1 X74.201 Y89.755 E98.06916
G1 X69.596 Y90.955 E98.3861
G1 X66.839 Y91.201 E98.57044
G1 X63.688 Y91.118 E98.78037
G1 X61.875 Y90.776 E98.90325
G1 X60.496 Y90.285 E99.00074
G1 X58.294 Y89.066 E99.16836
G0 F2880 X53.582 Y93.538
G0 X51.735 Y96.658
G1 F1200 X51.131 Y96.848 E99.21053
G1 X50.399 Y95.75 E99.29842
G1 X47.472 Y97.452 E99.52392
G1 X45.598 Y99.009 E99.68619
G1 X44.066 Y100.771 E99.84169
G1 X42.812 Y102.772 E99.99896
G1 X41.826 Y105.04 E100.16367
G1 X41.35 Y106.625 E100.27389
G1 X40.918 Y109.829 E100.4892
G1 X41.025 Y112.967 E100.69832
G1 X41.203 Y114.302 E100.78801
G1 X42.053 Y117.259 E100.99292
G1 X44.564 Y123.259 E101.42611
G1 X45.283 Y124.798 E101.53924
G1 X47.082 Y128.391 E101.80685
G1 X48.592 Y132.941 E102.12613
G1 X50.115 Y132.728 E102.22855
G1 X50.163 Y131.715 E102.29609
G1 X50.124 Y131.174 E102.33222
G1 X49.976 Y130.267 E102.39342
G1 X49.53 Y128.599 E102.50841
G1 X46.576 Y121.666 E103.01032
G1 X44.983 Y117.671 E103.29676
G1 X43.944 Y113.789 E103.5644
G1 X43.582 Y111.537 E103.71631
G1 X43.58 Y111.171 E103.74068
G1 X43.579 Y110.738 E103.76952
G1 X43.577 Y110.438 E103.7895
G1 X43.683 Y109.497 E103.85257
G1 X43.793 Y110.413 E103.87028
G1 X43.832 Y110.736 E103.88436
G1 X43.948 Y111.153 E103.90866
G1 X44.703 Y113.858 E104.0957
G1 X46.879 Y118.998 E104.46743
G1 X47.827 Y120.844 E104.60564
G1 X48.801 Y122.899 E104.7571
G1 X49.868 Y125.818 E104.96409
G1 X51.497 Y125.388 E105.07629
G1 X51.225 Y123.742 E105.1874
G1 X50.572 Y121.392 E105.34984
G1 X49.56 Y119.155 E105.51336
G1 X48.469 Y116.601 E105.69833
G1 X46.837 Y112.512 E105.99155
G1 X46.319 Y110.303 E106.14266
G1 X46.171 Y109.334 E106.20794
G1 X46.173 Y107.632 E106.32129
G1 X46.462 Y105.624 E106.4564
G1 X47.069 Y103.599 E106.5972
G1 X47.715 Y102.234 E106.69777
G1 X48.466 Y101.1 E106.78836
G1 X49.317 Y100.159 E106.87286
G1 X50.354 Y99.33 E106.96128
G1 X52.396 Y98.192 E107.11697
G1 X51.735 Y96.658 E107.22821
G10
G0 F2880 X53.697 Y93.404
G0 X54.206 Y93.097
G0 X54.69 Y92.98
G0 X65.223 Y98.705
G0 X65.372 Y98.821
G0 X65.733 Y99.237
G0 X65.442 Y99.631
G0 X65.629 Y99.365
G0 X65.746 Y99.053
G0 X57.795 Y90.379
G0 X58.398 Y89.513
G0 X82.728 Y89.397
G0 X86.686 Y90.55
G0 X89.03 Y91.666
G0 X90.817 Y92.906
G0 X92.494 Y94.535
G0 X93.764 Y96.263
G0 X94.456 Y97.594
G0 X94.868 Y99.224
G0 X95.37 Y102.513
G0 X95.36 Y104.482
G0 X95.147 Y105.752
G0 X90.31 Y119.451
G0 X90.442 Y121.457
G0 X90.526 Y121.783
G11
G1 F1200 X91.545 Y121.715 E107.29623
G1 X92.225 Y121.568 E107.34256
G1 X95.598 Y120.835 E107.57245
G1 X96.48 Y120.557 E107.63404
G1 X96.689 Y120.492 E107.64862
G1 X96.718 Y120.709 E107.65761
G1 X96.762 Y121.024 E107.67879
G1 X101.928 Y120.591 E108.02406
G1 X103.434 Y120.206 E108.12758
G1 X105.871 Y119.584 E108.29509
G1 X107.615 Y118.842 E108.42131
G1 X109.895 Y117.871 E108.58636
G1 X111.069 Y117.185 E108.67692
G1 X114.977 Y114.9 E108.97842
G1 X120.683 Y111.241 E109.42986
G1 X122.134 Y110.383 E109.54212
G1 X126.646 Y108.122 E109.87824
G1 X130.881 Y106.668 E110.17645
