;START_OF_HEADER
;HEADER_VERSION:0.1
;FLAVOR:Griffin
;GENERATOR.NAME:Cura_SteamEngine
;GENERATOR.VERSION:2.7.0
;GENERATOR.BUILD_DATE:2017-08-30
;TARGET_MACHINE.NAME:Ultimaker 3
;EXTRUDER_TRAIN.0.INITIAL_TEMPERATURE:100
;EXTRUDER_TRAIN.0.MATERIAL.VOLUME_USED:237
;EXTRUDER_TRAIN.0.MATERIAL.GUID:506c9f0d-e3aa-4bd4-b2d2-23e2425b1aa9
;EXTRUDER_TRAIN.0.NOZZLE.DIAMETER:0.4
;EXTRUDER_TRAIN.0.NOZZLE.NAME:AA 0.4
;EXTRUDER_TRAIN.1.INITIAL_TEMPERATURE:220
;EXTRUDER_TRAIN.1.MATERIAL.VOLUME_USED:36
;EXTRUDER_TRAIN.1.MATERIAL.GUID:86a89ceb-4159-47f6-ab97-e9953803d70f
;EXTRUDER_TRAIN.1.NOZZLE.DIAMETER:0.4
;EXTRUDER_TRAIN.1.NOZZLE.NAME:BB 0.4
;BUILD_PLATE.INITIAL_TEMPERATURE:50
;PRINT.TIME:1240
;PRINT.SIZE.MIN.X:9
;PRINT.SIZE.MIN.Y:6
;PRINT.SIZE.MIN.Z:0.27
;PRINT.SIZE.MAX.X:213
;PRINT.SIZE.MAX.Y:207
;PRINT.SIZE.MAX.Z:13.13
;END_OF_HEADER
;Generated with Cura_SteamEngine 2.7.0

T0
T1
G92 E0

M109 S220
G0 F15000 X204 Y6 Z2
G280
G1 F1500 E-2
;LAYER_COUNT:182
;LAYER:0
M107
M104 T0 S205
M204 S625
M205 X6 Y6
G0 F8571.4 X102.875 Y99.471 Z0.27
M204 S500
M205 X5 Y5
;TYPE:SKIRT
G1 F900 E0
G1 F1200 X103.178 Y99.853 E0.00722
G1 X103.413 Y100.28 E0.01444
G1 X103.576 Y100.739 E0.02166
G1 X103.662 Y101.219 E0.02888
G1 X103.675 Y101.5 E0.03305
G1 X103.675 Y113.5 E0.21081
G1 X103.635 Y113.986 E0.21803
G1 X103.516 Y114.459 E0.22526
G1 X103.322 Y114.906 E0.23248
G1 X103.057 Y115.315 E0.23969
G1 X102.729 Y115.675 E0.24691
G1 X102.347 Y115.978 E0.25413
G1 X101.92 Y116.213 E0.26135
G1 X101.461 Y116.376 E0.26857
G1 X100.981 Y116.462 E0.27579
G1 X100.7 Y116.475 E0.27996
G1 X96.3 Y116.475 E0.34514
G1 X95.814 Y116.435 E0.35236
G1 X95.341 Y116.316 E0.35958
G1 X94.894 Y116.122 E0.3668
G1 X94.485 Y115.857 E0.37402
G1 X94.125 Y115.529 E0.38124
G1 X93.822 Y115.147 E0.38846
G1 X93.587 Y114.72 E0.39568
G1 X93.424 Y114.261 E0.40289
G1 X93.338 Y113.781 E0.41012
G1 X93.325 Y113.5 E0.41428
G1 X93.325 Y101.5 E0.59204
G1 X93.365 Y101.014 E0.59927
G1 X93.484 Y100.541 E0.60649
G1 X93.678 Y100.094 E0.61371
G1 X93.943 Y99.685 E0.62093
G1 X94.271 Y99.325 E0.62814
G1 X94.653 Y99.022 E0.63537
G1 X95.08 Y98.787 E0.64259
G1 X95.539 Y98.624 E0.6498
G1 X96.019 Y98.538 E0.65703
G1 X96.3 Y98.525 E0.66119
G1 X100.7 Y98.525 E0.72637
G1 X101.186 Y98.565 E0.7336
G1 X101.659 Y98.684 E0.74082
G1 X102.106 Y98.878 E0.74804
G1 X102.515 Y99.143 E0.75526
G1 X102.875 Y99.471 E0.76247
M204 S625
M205 X6 Y6
G0 F8571.4 X102.712 Y99.814
M204 S500
M205 X5 Y5
G1 F1200 X102.974 Y100.189 E0.76925
G1 X103.167 Y100.604 E0.77603
G1 X103.285 Y101.046 E0.78281
G1 X103.325 Y101.5 E0.78956
G1 X103.325 Y113.5 E0.96732
G1 X103.285 Y113.956 E0.9741
G1 X103.167 Y114.398 E0.98087
G1 X102.973 Y114.813 E0.98766
G1 X102.71 Y115.188 E0.99445
G1 X102.386 Y115.512 E1.00123
G1 X102.011 Y115.774 E1.00801
G1 X101.596 Y115.967 E1.01479
G1 X101.154 Y116.085 E1.02157
G1 X100.7 Y116.125 E1.02832
G1 X96.3 Y116.125 E1.0935
G1 X95.844 Y116.085 E1.10028
G1 X95.402 Y115.967 E1.10705
G1 X94.987 Y115.773 E1.11384
G1 X94.612 Y115.51 E1.12062
G1 X94.288 Y115.186 E1.12741
G1 X94.026 Y114.811 E1.13419
G1 X93.833 Y114.396 E1.14097
G1 X93.715 Y113.954 E1.14775
G1 X93.675 Y113.5 E1.1545
G1 X93.675 Y101.5 E1.33226
G1 X93.715 Y101.044 E1.33904
G1 X93.833 Y100.602 E1.34581
G1 X94.027 Y100.187 E1.3526
G1 X94.29 Y99.812 E1.35938
G1 X94.614 Y99.488 E1.36617
G1 X94.989 Y99.226 E1.37295
G1 X95.404 Y99.033 E1.37973
G1 X95.846 Y98.915 E1.38651
G1 X96.3 Y98.875 E1.39326
G1 X100.7 Y98.875 E1.45844
G1 X101.156 Y98.915 E1.46522
G1 X101.598 Y99.033 E1.47199
G1 X102.013 Y99.227 E1.47878
G1 X102.388 Y99.49 E1.48556
G1 X102.712 Y99.814 E1.49235
M204 S625
M205 X6 Y6
G0 F8571.4 X102.534 Y100.154
M104 S200
M204 S500
M205 X5 Y5
G1 F1200 X102.753 Y100.52 E1.49867
G1 X102.9 Y100.92 E1.50498
G1 X102.975 Y101.5 E1.51365
G1 X102.975 Y113.5 E1.69141
G1 X102.935 Y113.924 E1.69771
G1 X102.817 Y114.334 E1.70403
G1 X102.624 Y114.714 E1.71035
G1 X102.364 Y115.051 E1.71665
G1 X102.046 Y115.334 E1.72296
G1 X101.68 Y115.553 E1.72928
G1 X101.28 Y115.7 E1.73559
G1 X100.7 Y115.775 E1.74425
G1 X96.3 Y115.775 E1.80943
G1 X95.876 Y115.735 E1.81574
G1 X95.466 Y115.617 E1.82206
G1 X95.086 Y115.424 E1.82837
G1 X94.749 Y115.164 E1.83468
G1 X94.466 Y114.846 E1.84098
G1 X94.247 Y114.48 E1.8473
G1 X94.1 Y114.08 E1.85362
G1 X94.025 Y113.5 E1.86228
G1 X94.025 Y101.5 E2.04004
G1 X94.065 Y101.076 E2.04635
G1 X94.183 Y100.666 E2.05267
G1 X94.376 Y100.286 E2.05898
G1 X94.636 Y99.949 E2.06529
G1 X94.954 Y99.666 E2.07159
G1 X95.32 Y99.447 E2.07791
G1 X95.72 Y99.3 E2.08422
G1 X96.3 Y99.225 E2.09289
G1 X100.7 Y99.225 E2.15806
G1 X101.124 Y99.265 E2.16437
G1 X101.534 Y99.383 E2.17069
G1 X101.914 Y99.576 E2.17701
G1 X102.251 Y99.836 E2.18331
G1 X102.534 Y100.154 E2.18962
M204 S625
M205 X6 Y6
G0 F8571.4 X102.34 Y100.492
M204 S500
M205 X5 Y5
G1 F1200 X102.51 Y100.845 E2.19542
G1 X102.605 Y101.225 E2.20122
G1 X102.625 Y101.5 E2.20531
G1 X102.625 Y113.5 E2.38307
G1 X102.585 Y113.89 E2.38888
G1 X102.467 Y114.264 E2.39469
G1 X102.276 Y114.606 E2.40049
G1 X102.019 Y114.902 E2.40629
G1 X101.708 Y115.14 E2.4121
G1 X101.355 Y115.31 E2.4179
G1 X100.975 Y115.405 E2.4237
G1 X100.7 Y115.425 E2.42779
G1 X96.3 Y115.425 E2.49296
G1 X95.91 Y115.385 E2.49877
G1 X95.536 Y115.267 E2.50458
G1 X95.194 Y115.076 E2.51038
G1 X94.898 Y114.819 E2.51619
G1 X94.66 Y114.508 E2.52199
G1 X94.49 Y114.155 E2.5278
G1 X94.395 Y113.775 E2.5336
G1 X94.375 Y113.5 E2.53768
G1 X94.375 Y101.5 E2.71544
G1 X94.415 Y101.11 E2.72125
G1 X94.533 Y100.736 E2.72706
G1 X94.724 Y100.394 E2.73286
G1 X94.981 Y100.098 E2.73867
G1 X95.292 Y99.86 E2.74447
G1 X95.645 Y99.69 E2.75027
G1 X96.025 Y99.595 E2.75608
G1 X96.3 Y99.575 E2.76016
G1 X100.7 Y99.575 E2.82534
G1 X101.09 Y99.615 E2.83115
G1 X101.464 Y99.733 E2.83696
G1 X101.806 Y99.924 E2.84276
G1 X102.102 Y100.181 E2.84857
G1 X102.34 Y100.492 E2.85437
M204 S625
M205 X6 Y6
G0 F8571.4 X102.275 Y101.5
M204 S500
M205 X5 Y5
G1 F1200 X102.275 Y113.5 E3.03213
G1 X102.235 Y113.852 E3.03737
G1 X102.118 Y114.186 E3.04262
G1 X101.928 Y114.486 E3.04788
G1 X101.677 Y114.736 E3.05313
G1 X101.376 Y114.923 E3.05837
G1 X101.04 Y115.038 E3.06364
G1 X100.7 Y115.075 E3.0687
G1 X96.3 Y115.075 E3.13388
G1 X95.948 Y115.035 E3.13913
G1 X95.614 Y114.918 E3.14437
G1 X95.314 Y114.728 E3.14963
G1 X95.064 Y114.477 E3.15488
G1 X94.877 Y114.176 E3.16013
G1 X94.762 Y113.84 E3.16539
G1 X94.725 Y113.5 E3.17045
G1 X94.725 Y101.5 E3.34821
G1 X94.765 Y101.148 E3.35346
G1 X94.882 Y100.814 E3.3587
G1 X95.072 Y100.514 E3.36396
G1 X95.323 Y100.264 E3.36921
G1 X95.624 Y100.077 E3.37446
G1 X95.96 Y99.962 E3.37972
G1 X96.3 Y99.925 E3.38479
G1 X100.7 Y99.925 E3.44997
G1 X101.052 Y99.965 E3.45522
G1 X101.386 Y100.082 E3.46046
G1 X101.686 Y100.272 E3.46572
G1 X101.936 Y100.523 E3.47097
G1 X102.123 Y100.824 E3.47622
G1 X102.238 Y101.16 E3.48148
G1 X102.275 Y101.5 E3.48654
M204 S625
M205 X6 Y6
G0 F8571.4 X101.925 Y101.5
M204 S500
M205 X5 Y5
G1 F1200 X101.925 Y113.5 E3.6643
G1 X101.885 Y113.81 E3.66893
G1 X101.768 Y114.1 E3.67356
G1 X101.582 Y114.35 E3.67818
G1 X101.338 Y114.546 E3.68282
G1 X101.053 Y114.673 E3.68744
G1 X100.7 Y114.725 E3.69272
G1 X96.3 Y114.725 E3.7579
G1 X95.99 Y114.685 E3.76253
G1 X95.7 Y114.568 E3.76717
G1 X95.45 Y114.382 E3.77178
G1 X95.254 Y114.138 E3.77642
G1 X95.127 Y113.853 E3.78104
G1 X95.075 Y113.5 E3.78632
G1 X95.075 Y101.5 E3.96408
G1 X95.115 Y101.19 E3.96871
G1 X95.232 Y100.9 E3.97335
G1 X95.418 Y100.65 E3.97796
G1 X95.662 Y100.454 E3.9826
G1 X95.947 Y100.327 E3.98722
G1 X96.3 Y100.275 E3.99251
G1 X100.7 Y100.275 E4.05768
G1 X101.01 Y100.315 E4.06232
G1 X101.3 Y100.432 E4.06695
G1 X101.55 Y100.618 E4.07156
G1 X101.746 Y100.862 E4.0762
G1 X101.873 Y101.147 E4.08082
G1 X101.925 Y101.5 E4.08611
M204 S625
M205 X6 Y6
G0 F8571.4 X101.575 Y101.5
M204 S500
M205 X5 Y5
G1 F1200 X101.575 Y113.5 E4.26387
G1 X101.535 Y113.761 E4.26778
G1 X101.42 Y113.998 E4.27168
G1 X101.238 Y114.19 E4.2756
G1 X101.008 Y114.319 E4.27951
G1 X100.7 Y114.375 E4.28414
G1 X96.3 Y114.375 E4.34932
G1 X96.039 Y114.335 E4.35323
G1 X95.802 Y114.22 E4.35714
G1 X95.61 Y114.038 E4.36105
G1 X95.481 Y113.808 E4.36496
G1 X95.425 Y113.5 E4.3696
G1 X95.425 Y101.5 E4.54736
G1 X95.465 Y101.239 E4.55127
G1 X95.58 Y101.002 E4.55517
G1 X95.762 Y100.81 E4.55909
G1 X95.992 Y100.681 E4.563
G1 X96.3 Y100.625 E4.56763
G1 X100.7 Y100.625 E4.63281
G1 X100.961 Y100.665 E4.63672
G1 X101.198 Y100.78 E4.64063
G1 X101.39 Y100.962 E4.64454
G1 X101.519 Y101.192 E4.64845
G1 X101.575 Y101.5 E4.65309
M204 S625
M205 X6 Y6
G0 F8571.4 X101.225 Y101.5
M204 S500
M205 X5 Y5
G1 F1200 X101.225 Y113.5 E4.83085
G1 X101.185 Y113.7 E4.83387
G1 X101.073 Y113.87 E4.83689
G1 X100.903 Y113.984 E4.83992
G1 X100.7 Y114.025 E4.84299
G1 X96.3 Y114.025 E4.90816
G1 X96.1 Y113.985 E4.91119
G1 X95.93 Y113.873 E4.9142
G1 X95.816 Y113.703 E4.91723
G1 X95.775 Y113.5 E4.9203
G1 X95.775 Y101.5 E5.09806
G1 X95.815 Y101.3 E5.10108
G1 X95.927 Y101.13 E5.1041
G1 X96.097 Y101.016 E5.10713
G1 X96.3 Y100.975 E5.1102
G1 X100.7 Y100.975 E5.17538
G1 X100.9 Y101.015 E5.1784
G1 X101.07 Y101.127 E5.18141
G1 X101.184 Y101.297 E5.18444
G1 X101.225 Y101.5 E5.18751
M204 S625
M205 X6 Y6
G0 F8571.4 X100.7 Y101.325
M204 S500
M205 X5 Y5
G1 F1200 X100.81 Y101.364 E5.18924
G1 X100.875 Y101.5 E5.19147
G1 X100.875 Y113.5 E5.36923
G1 X100.836 Y113.61 E5.37096
G1 X100.7 Y113.675 E5.3732
G1 X96.3 Y113.675 E5.43837
G1 X96.19 Y113.636 E5.4401
G1 X96.125 Y113.5 E5.44234
G1 X96.125 Y101.5 E5.6201
G1 X96.164 Y101.39 E5.62182
G1 X96.3 Y101.325 E5.62406
G1 X100.7 Y101.325 E5.68924
M204 S625
M205 X6 Y6
G1 F1500 E3.68924
G0 F8571.4 X103.74 Y101.325
G0 X213 Y189
G1 F1200 E-2.31076
G92 E0

T0
G92 E0

M109 S205
M104 T1 S0
G1 F1500 E-6.5
G0 F4285.7 X213 Y207 Z0.27
G0 X111.272 Y116.528
G0 X9 Y6
G0 F15000 X9 Y6 Z2
G280
G0 F4285.7 X9 Y16 Z0.27
G0 X110.944 Y98.174
M204 S500
M205 X5 Y5
;TYPE:SKIRT
G1 F1500 E0
G1 F1200 X111.404 Y97.767 E0.0091
G1 X111.913 Y97.422 E0.01821
G1 X112.462 Y97.147 E0.0273
G1 X113.043 Y96.945 E0.03641
G1 X113.644 Y96.821 E0.04551
G1 X114.3 Y96.775 E0.05525
G1 X118.7 Y96.775 E0.12043
G1 X119.313 Y96.815 E0.12952
G1 X119.916 Y96.934 E0.13863
G1 X120.498 Y97.131 E0.14773
G1 X121.05 Y97.401 E0.15683
G1 X121.562 Y97.741 E0.16594
G1 X122.026 Y98.144 E0.17504
G1 X122.433 Y98.604 E0.18414
G1 X122.778 Y99.113 E0.19325
G1 X123.053 Y99.662 E0.20235
G1 X123.255 Y100.243 E0.21146
G1 X123.379 Y100.844 E0.22055
G1 X123.425 Y101.5 E0.23029
G1 X123.425 Y113.5 E0.40805
G1 X123.385 Y114.113 E0.41715
G1 X123.266 Y114.716 E0.42625
G1 X123.069 Y115.298 E0.43536
G1 X122.799 Y115.85 E0.44446
G1 X122.459 Y116.362 E0.45356
G1 X122.056 Y116.826 E0.46267
G1 X121.596 Y117.233 E0.47176
G1 X121.087 Y117.578 E0.48087
G1 X120.538 Y117.853 E0.48997
G1 X119.957 Y118.055 E0.49908
G1 X119.356 Y118.179 E0.50817
G1 X118.7 Y118.225 E0.51791
G1 X114.3 Y118.225 E0.58309
G1 X113.687 Y118.185 E0.59219
G1 X113.084 Y118.066 E0.6013
G1 X112.502 Y117.869 E0.6104
G1 X111.95 Y117.599 E0.6195
G1 X111.438 Y117.259 E0.6286
G1 X110.974 Y116.856 E0.63771
G1 X110.567 Y116.396 E0.64681
G1 X110.222 Y115.887 E0.65592
G1 X109.947 Y115.338 E0.66501
G1 X109.745 Y114.757 E0.67412
G1 X109.621 Y114.156 E0.68321
G1 X109.575 Y113.5 E0.69296
G1 X109.575 Y101.5 E0.87072
G1 X109.615 Y100.887 E0.87981
G1 X109.734 Y100.284 E0.88892
G1 X109.931 Y99.702 E0.89802
G1 X110.201 Y99.15 E0.90712
G1 X110.541 Y98.638 E0.91623
G1 X110.944 Y98.174 E0.92533
M204 S625
M205 X6 Y6
G0 F4285.7 X111.288 Y98.327
M204 S500
M205 X5 Y5
G1 F1200 X111.744 Y97.95 E0.9341
G1 X112.246 Y97.637 E0.94286
G1 X112.785 Y97.396 E0.95161
G1 X113.353 Y97.229 E0.96038
G1 X113.937 Y97.14 E0.96913
G1 X114.3 Y97.125 E0.97451
G1 X118.7 Y97.125 E1.03969
G1 X119.29 Y97.165 E1.04845
G1 X119.869 Y97.284 E1.0572
G1 X120.427 Y97.48 E1.06596
G1 X120.953 Y97.75 E1.07472
G1 X121.438 Y98.088 E1.08348
G1 X121.873 Y98.488 E1.09223
G1 X122.25 Y98.944 E1.101
G1 X122.563 Y99.446 E1.10976
G1 X122.804 Y99.985 E1.11851
G1 X122.971 Y100.553 E1.12728
G1 X123.06 Y101.137 E1.13603
G1 X123.075 Y101.5 E1.14141
G1 X123.075 Y113.5 E1.31917
G1 X123.035 Y114.09 E1.32793
G1 X122.916 Y114.669 E1.33669
G1 X122.72 Y115.227 E1.34545
G1 X122.45 Y115.753 E1.35421
G1 X122.112 Y116.238 E1.36296
G1 X121.712 Y116.673 E1.37172
G1 X121.256 Y117.05 E1.38048
G1 X120.754 Y117.363 E1.38924
G1 X120.215 Y117.604 E1.39799
G1 X119.647 Y117.771 E1.40676
G1 X119.063 Y117.86 E1.41551
G1 X118.7 Y117.875 E1.42089
G1 X114.3 Y117.875 E1.48607
G1 X113.71 Y117.835 E1.49483
G1 X113.131 Y117.716 E1.50359
G1 X112.573 Y117.52 E1.51235
G1 X112.047 Y117.25 E1.52111
G1 X111.562 Y116.912 E1.52986
G1 X111.127 Y116.512 E1.53862
G1 X110.75 Y116.056 E1.54738
G1 X110.437 Y115.554 E1.55615
G1 X110.196 Y115.015 E1.56489
G1 X110.029 Y114.447 E1.57366
G1 X109.94 Y113.863 E1.58241
G1 X109.925 Y113.5 E1.5878
G1 X109.925 Y101.5 E1.76556
G1 X109.965 Y100.91 E1.77432
G1 X110.084 Y100.331 E1.78307
G1 X110.28 Y99.773 E1.79183
G1 X110.55 Y99.247 E1.80059
G1 X110.888 Y98.762 E1.80935
G1 X111.288 Y98.327 E1.8181
M204 S625
M205 X6 Y6
G0 F4285.7 X111.632 Y98.487
M204 S500
M205 X5 Y5
G1 F1200 X112.082 Y98.141 E1.82651
G1 X112.576 Y97.863 E1.83491
G1 X113.104 Y97.657 E1.8433
G1 X113.656 Y97.527 E1.8517
G1 X114.3 Y97.475 E1.86127
G1 X118.7 Y97.475 E1.92645
G1 X119.266 Y97.515 E1.93486
G1 X119.82 Y97.634 E1.94325
G1 X120.352 Y97.83 E1.95165
G1 X120.852 Y98.098 E1.96005
G1 X121.308 Y98.435 E1.96845
G1 X121.713 Y98.832 E1.97685
G1 X122.059 Y99.282 E1.98526
G1 X122.337 Y99.776 E1.99366
G1 X122.543 Y100.304 E2.00206
G1 X122.673 Y100.856 E2.01046
G1 X122.725 Y101.5 E2.02003
G1 X122.725 Y113.5 E2.19779
G1 X122.685 Y114.066 E2.20619
G1 X122.566 Y114.62 E2.21459
G1 X122.37 Y115.152 E2.22298
G1 X122.102 Y115.652 E2.23139
G1 X121.765 Y116.108 E2.23979
G1 X121.368 Y116.513 E2.24819
G1 X120.918 Y116.859 E2.2566
G1 X120.424 Y117.137 E2.26499
G1 X119.896 Y117.343 E2.27339
G1 X119.344 Y117.473 E2.28179
G1 X118.7 Y117.525 E2.29136
G1 X114.3 Y117.525 E2.35654
G1 X113.734 Y117.485 E2.36494
G1 X113.18 Y117.366 E2.37334
G1 X112.648 Y117.17 E2.38174
G1 X112.148 Y116.902 E2.39014
G1 X111.692 Y116.565 E2.39854
G1 X111.287 Y116.168 E2.40694
G1 X110.941 Y115.718 E2.41535
G1 X110.663 Y115.224 E2.42375
G1 X110.457 Y114.696 E2.43214
G1 X110.327 Y114.144 E2.44054
G1 X110.275 Y113.5 E2.45011
G1 X110.275 Y101.5 E2.62787
G1 X110.315 Y100.934 E2.63628
G1 X110.434 Y100.38 E2.64467
G1 X110.63 Y99.848 E2.65307
G1 X110.898 Y99.348 E2.66147
G1 X111.235 Y98.892 E2.66987
G1 X111.632 Y98.487 E2.67827
M204 S625
M205 X6 Y6
G0 F4285.7 X111.974 Y98.655
M204 S500
M205 X5 Y5
G1 F1200 X112.418 Y98.344 E2.6863
G1 X112.902 Y98.101 E2.69433
G1 X113.417 Y97.933 E2.70235
G1 X113.951 Y97.842 E2.71038
G1 X114.3 Y97.825 E2.71555
G1 X118.7 Y97.825 E2.78073
G1 X119.24 Y97.865 E2.78875
G1 X119.769 Y97.984 E2.79678
G1 X120.274 Y98.179 E2.8048
G1 X120.746 Y98.447 E2.81284
G1 X121.172 Y98.781 E2.82086
G1 X121.545 Y99.174 E2.82889
G1 X121.856 Y99.618 E2.83692
G1 X122.099 Y100.102 E2.84494
G1 X122.267 Y100.617 E2.85297
G1 X122.358 Y101.151 E2.86099
G1 X122.375 Y101.5 E2.86617
G1 X122.375 Y113.5 E3.04393
G1 X122.335 Y114.04 E3.05195
G1 X122.216 Y114.569 E3.05998
G1 X122.021 Y115.074 E3.068
G1 X121.753 Y115.546 E3.07604
G1 X121.419 Y115.972 E3.08406
G1 X121.026 Y116.345 E3.09208
G1 X120.582 Y116.656 E3.10011
G1 X120.098 Y116.899 E3.10814
G1 X119.583 Y117.067 E3.11616
G1 X119.049 Y117.158 E3.12418
G1 X118.7 Y117.175 E3.12936
G1 X114.3 Y117.175 E3.19454
G1 X113.76 Y117.135 E3.20256
G1 X113.231 Y117.016 E3.21059
G1 X112.726 Y116.821 E3.21861
G1 X112.254 Y116.553 E3.22665
G1 X111.828 Y116.219 E3.23467
