;START_OF_HEADER
;HEADER_VERSION:0.1
;FLAVOR:Griffin
;GENERATOR.NAME:Cura_SteamEngine
;GENERATOR.VERSION:3.6.0
;GENERATOR.BUILD_DATE:2018-11-12
;TARGET_MACHINE.NAME:Ultimaker 3
;EXTRUDER_TRAIN.0.INITIAL_TEMPERATURE:100
;EXTRUDER_TRAIN.0.MATERIAL.VOLUME_USED:3285
;EXTRUDER_TRAIN.0.MATERIAL.GUID:506c9f0d-e3aa-4bd4-b2d2-23e2425b1aa9
;EXTRUDER_TRAIN.0.NOZZLE.DIAMETER:0.4
;EXTRUDER_TRAIN.0.NOZZLE.NAME:AA 0.4
;EXTRUDER_TRAIN.1.INITIAL_TEMPERATURE:220
;EXTRUDER_TRAIN.1.MATERIAL.VOLUME_USED:0
;EXTRUDER_TRAIN.1.MATERIAL.GUID:86a89ceb-4159-47f6-ab97-e9953803d70f
;EXTRUDER_TRAIN.1.NOZZLE.DIAMETER:0.4
;EXTRUDER_TRAIN.1.NOZZLE.NAME:BB 0.4
;BUILD_PLATE.TYPE:glass
;BUILD_PLATE.INITIAL_TEMPERATURE:50
;PRINT.TIME:1689
;PRINT.SIZE.MIN.X:9
;PRINT.SIZE.MIN.Y:6
;PRINT.SIZE.MIN.Z:0.27
;PRINT.SIZE.MAX.X:213
;PRINT.SIZE.MAX.Y:189
;PRINT.SIZE.MAX.Z:4
;END_OF_HEADER
;Generated with Cura_SteamEngine 3.6.0
T0
M82 ;absolute extrusion mode

T1
G92 E0
M109 S220
G0 F15000 X204 Y6 Z2
G280
G1 F1500 E-4.5
;LAYER_COUNT:8
;LAYER:0
M107
M104 T0 S205
M104 S200
M204 S625
M205 X6 Y6
;MESH:kreuz_flo.STL
G0 F8571.4 X213 Y189 Z0.27
G1 F1200 E-12
G92 E0
T0
G92 E0
M109 S205
M104 T1 S0
G1 F1500 E-6.5
G1 F2400 Z2.27
G0 F4285.7 X9 Y6 Z2.27
G0 F15000 X9 Y6 Z4
G280
G0 F4285.7 X9 Y16 Z2.27
G1 F2400 Z0.27
G0 F4285.7 X104.46 Y62.378
G0 X107.329 Y62.378
M204 S500
M205 X5 Y5
;TYPE:SKIRT
G1 F1500 E0
G1 F1200 X107.432 Y62.301 E0.00229
G1 X107.5 Y62.29 E0.00351
G1 X125.5 Y62.29 E0.32348
G1 X125.622 Y62.329 E0.32575
G1 X125.699 Y62.432 E0.32804
G1 X125.71 Y62.5 E0.32927
G1 X125.71 Y114.79 E1.25877
G1 X148 Y114.79 E1.655
G1 X148.122 Y114.829 E1.65727
G1 X148.199 Y114.932 E1.65956
G1 X148.21 Y115 E1.66078
G1 X148.21 Y133 E1.98075
G1 X148.171 Y133.122 E1.98303
G1 X148.068 Y133.199 E1.98532
G1 X148 Y133.21 E1.98654
G1 X125.71 Y133.21 E2.38277
G1 X125.71 Y152.5 E2.72566
G1 X125.671 Y152.622 E2.72794
G1 X125.568 Y152.699 E2.73023
G1 X125.5 Y152.71 E2.73145
G1 X107.5 Y152.71 E3.05142
G1 X107.378 Y152.671 E3.0537
G1 X107.301 Y152.568 E3.05598
G1 X107.29 Y152.5 E3.05721
G1 X107.29 Y133.21 E3.40011
G1 X85 Y133.21 E3.79633
G1 X84.878 Y133.171 E3.79861
G1 X84.801 Y133.068 E3.80089
G1 X84.79 Y133 E3.80212
G1 X84.79 Y115 E4.12209
G1 X84.829 Y114.878 E4.12436
G1 X84.932 Y114.801 E4.12665
G1 X85 Y114.79 E4.12787
G1 X107.29 Y114.79 E4.5241
G1 X107.29 Y62.5 E5.45361
G1 X107.329 Y62.378 E5.45588
M204 S625
M205 X6 Y6
G1 F1500 E-1.04412
G0 F4285.7 X107.724 Y62.724
G0 X125.22 Y115.28
G0 X125.29 Y115.21
M204 S500
M205 X5 Y5
;TYPE:WALL-OUTER
G1 F1500 E5.45588
G1 F1200 X147.79 Y115.21 E5.85584
G1 X147.79 Y132.79 E6.16834
G1 X125.29 Y132.79 E6.5683
G1 X125.29 Y152.29 E6.91494
G1 X107.71 Y152.29 E7.22744
G1 X107.71 Y132.79 E7.57407
G1 X85.21 Y132.79 E7.97403
G1 X85.21 Y115.21 E8.28653
G1 X107.71 Y115.21 E8.68649
G1 X107.71 Y62.71 E9.61973
G1 X125.29 Y62.71 E9.93223
G1 X125.29 Y115.21 E10.86547
M204 S625
M205 X6 Y6
G0 F4285.7 X125.49 Y115.21
G0 X125.49 Y115.31
G0 X124.88 Y115.62
M204 S500
M205 X5 Y5
;TYPE:SKIN
G1 F1200 X147.38 Y115.62 E11.26543
G1 X147.38 Y132.38 E11.56335
G1 X124.88 Y132.38 E11.96331
G1 X124.88 Y151.88 E12.30994
G1 X108.12 Y151.88 E12.60787
G1 X108.12 Y132.38 E12.9545
G1 X85.62 Y132.38 E13.35446
G1 X85.62 Y115.62 E13.65239
G1 X108.12 Y115.62 E14.05234
G1 X108.12 Y63.12 E14.98558
G1 X124.88 Y63.12 E15.28351
G1 X124.88 Y115.62 E16.21675
M204 S625
M205 X6 Y6
G0 F4285.7 X85.874 Y132.204
M204 S500
M205 X5 Y5
G1 F1200 X85.794 Y132.124 E16.21876
M204 S625
M205 X6 Y6
G0 F4285.7 X85.794 Y131.53
M204 S500
M205 X5 Y5
G1 F1200 X86.468 Y132.204 E16.2357
M204 S625
M205 X6 Y6
G0 F4285.7 X87.062 Y132.204
M204 S500
M205 X5 Y5
G1 F1200 X85.794 Y130.936 E16.26758
M204 S625
M205 X6 Y6
G0 F4285.7 X85.794 Y130.342
M204 S500
M205 X5 Y5
G1 F1200 X87.656 Y132.204 E16.31439
M204 S625
M205 X6 Y6
G0 F4285.7 X88.25 Y132.204
M204 S500
M205 X5 Y5
G1 F1200 X85.794 Y129.748 E16.37613
M204 S625
M205 X6 Y6
G0 F4285.7 X85.794 Y129.154
M204 S500
M205 X5 Y5
G1 F1200 X88.844 Y132.204 E16.4528
M204 S625
M205 X6 Y6
G0 F4285.7 X89.438 Y132.204
M204 S500
M205 X5 Y5
G1 F1200 X85.794 Y128.56 E16.54441
M204 S625
M205 X6 Y6
G0 F4285.7 X85.794 Y127.966
M204 S500
M205 X5 Y5
G1 F1200 X90.032 Y132.204 E16.65095
M204 S625
M205 X6 Y6
G0 F4285.7 X90.626 Y132.204
M204 S500
M205 X5 Y5
G1 F1200 X85.794 Y127.372 E16.77242
M204 S625
M205 X6 Y6
G0 F4285.7 X85.794 Y126.778
M204 S500
M205 X5 Y5
G1 F1200 X91.22 Y132.204 E16.90883
M204 S625
M205 X6 Y6
G0 F4285.7 X91.814 Y132.204
M204 S500
M205 X5 Y5
G1 F1200 X85.794 Y126.184 E17.06016
M204 S625
M205 X6 Y6
G0 F4285.7 X85.794 Y125.59
M204 S500
M205 X5 Y5
G1 F1200 X92.408 Y132.204 E17.22643
M204 S625
M205 X6 Y6
G0 F4285.7 X93.002 Y132.204
M204 S500
M205 X5 Y5
G1 F1200 X85.794 Y124.996 E17.40763
M204 S625
M205 X6 Y6
G0 F4285.7 X85.794 Y124.402
M204 S500
M205 X5 Y5
G1 F1200 X93.596 Y132.204 E17.60377
M204 S625
M205 X6 Y6
G0 F4285.7 X94.19 Y132.204
M204 S500
M205 X5 Y5
G1 F1200 X85.794 Y123.808 E17.81484
M204 S625
M205 X6 Y6
G0 F4285.7 X85.794 Y123.214
M204 S500
M205 X5 Y5
G1 F1200 X94.784 Y132.204 E18.04084
M204 S625
M205 X6 Y6
G0 F4285.7 X95.378 Y132.204
M204 S500
M205 X5 Y5
G1 F1200 X85.794 Y122.62 E18.28177
M204 S625
M205 X6 Y6
G0 F4285.7 X85.794 Y122.026
M204 S500
M205 X5 Y5
G1 F1200 X95.972 Y132.204 E18.53763
M204 S625
M205 X6 Y6
G0 F4285.7 X96.566 Y132.204
M204 S500
M205 X5 Y5
G1 F1200 X85.794 Y121.432 E18.80843
M204 S625
M205 X6 Y6
G0 F4285.7 X85.794 Y120.838
M204 S500
M205 X5 Y5
G1 F1200 X97.16 Y132.204 E19.09416
M204 S625
M205 X6 Y6
G0 F4285.7 X97.753 Y132.204
M204 S500
M205 X5 Y5
G1 F1200 X85.794 Y120.244 E19.39481
M204 S625
M205 X6 Y6
G0 F4285.7 X85.794 Y119.65
M204 S500
M205 X5 Y5
G1 F1200 X98.347 Y132.204 E19.71039
M204 S625
M205 X6 Y6
G0 F4285.7 X98.941 Y132.204
M204 S500
M205 X5 Y5
G1 F1200 X85.794 Y119.056 E20.04091
M204 S625
M205 X6 Y6
G0 F4285.7 X85.794 Y118.463
M204 S500
M205 X5 Y5
G1 F1200 X99.535 Y132.204 E20.38634
M204 S625
M205 X6 Y6
G0 F4285.7 X100.129 Y132.204
M204 S500
M205 X5 Y5
G1 F1200 X85.794 Y117.869 E20.74671
M204 S625
M205 X6 Y6
G0 F4285.7 X85.794 Y117.275
M204 S500
M205 X5 Y5
G1 F1200 X100.723 Y132.204 E21.12201
M204 S625
M205 X6 Y6
G0 F4285.7 X101.317 Y132.204
M204 S500
M205 X5 Y5
G1 F1200 X85.794 Y116.681 E21.51225
M204 S625
M205 X6 Y6
G0 F4285.7 X85.794 Y116.087
M204 S500
M205 X5 Y5
G1 F1200 X101.911 Y132.204 E21.91741
M204 S625
M205 X6 Y6
G0 F4285.7 X102.505 Y132.204
M204 S500
M205 X5 Y5
G1 F1200 X86.095 Y115.794 E22.32994
M204 S625
M205 X6 Y6
G0 F4285.7 X86.689 Y115.794
M204 S500
M205 X5 Y5
G1 F1200 X103.099 Y132.204 E22.74247
M204 S625
M205 X6 Y6
G0 F4285.7 X103.693 Y132.204
M204 S500
M205 X5 Y5
G1 F1200 X87.283 Y115.794 E23.15501
M204 S625
M205 X6 Y6
G0 F4285.7 X87.877 Y115.794
M204 S500
M205 X5 Y5
G1 F1200 X104.287 Y132.204 E23.56754
M204 S625
M205 X6 Y6
G0 F4285.7 X104.881 Y132.204
M204 S500
M205 X5 Y5
G1 F1200 X88.471 Y115.794 E23.98007
M204 S625
M205 X6 Y6
G0 F4285.7 X89.065 Y115.794
M204 S500
M205 X5 Y5
G1 F1200 X105.475 Y132.204 E24.3926
M204 S625
M205 X6 Y6
G0 F4285.7 X106.069 Y132.204
M204 S500
M205 X5 Y5
G1 F1200 X89.659 Y115.794 E24.80513
M204 S625
M205 X6 Y6
G0 F4285.7 X90.253 Y115.794
M204 S500
M205 X5 Y5
G1 F1200 X106.663 Y132.204 E25.21766
M204 S625
M205 X6 Y6
G0 F4285.7 X107.257 Y132.204
M204 S500
M205 X5 Y5
G1 F1200 X90.847 Y115.794 E25.63019
M204 S625
M205 X6 Y6
G0 F4285.7 X91.441 Y115.794
M204 S500
M205 X5 Y5
G1 F1200 X107.851 Y132.204 E26.04273
M204 S625
M205 X6 Y6
G0 F4285.7 X108.294 Y132.647
M204 S500
M205 X5 Y5
G1 F1200 X124.705 Y149.058 E26.45528
M204 S625
M205 X6 Y6
G0 F4285.7 X124.705 Y148.464
M204 S500
M205 X5 Y5
G1 F1200 X92.035 Y115.794 E27.27657
M204 S625
M205 X6 Y6
G0 F4285.7 X92.629 Y115.794
M204 S500
M205 X5 Y5
G1 F1200 X124.705 Y147.87 E28.08293
M204 S625
M205 X6 Y6
G0 F4285.7 X124.705 Y147.276
M204 S500
M205 X5 Y5
G1 F1200 X93.223 Y115.794 E28.87436
M204 S625
M205 X6 Y6
G0 F4285.7 X93.817 Y115.794
M204 S500
M205 X5 Y5
G1 F1200 X124.705 Y146.682 E29.65085
M204 S625
M205 X6 Y6
G0 F4285.7 X124.705 Y146.088
M204 S500
M205 X5 Y5
G1 F1200 X94.411 Y115.794 E30.41242
M204 S625
M205 X6 Y6
G0 F4285.7 X95.005 Y115.794
M204 S500
M205 X5 Y5
G1 F1200 X124.705 Y145.494 E31.15905
M204 S625
M205 X6 Y6
G0 F4285.7 X124.705 Y144.9
M204 S500
M205 X5 Y5
G1 F1200 X95.599 Y115.794 E31.89074
M204 S625
M205 X6 Y6
G0 F4285.7 X96.193 Y115.794
M204 S500
M205 X5 Y5
G1 F1200 X124.705 Y144.306 E32.60751
M204 S625
M205 X6 Y6
G0 F4285.7 X124.705 Y143.712
M204 S500
M205 X5 Y5
G1 F1200 X96.787 Y115.794 E33.30934
M204 S625
M205 X6 Y6
G0 F4285.7 X97.381 Y115.794
M204 S500
M205 X5 Y5
G1 F1200 X124.705 Y143.118 E33.99624
M204 S625
M205 X6 Y6
G0 F4285.7 X124.705 Y142.524
M204 S500
M205 X5 Y5
G1 F1200 X97.975 Y115.794 E34.6682
M204 S625
M205 X6 Y6
G0 F4285.7 X98.569 Y115.794
M204 S500
M205 X5 Y5
G1 F1200 X124.705 Y141.93 E35.32524
M204 S625
M205 X6 Y6
G0 F4285.7 X124.705 Y141.336
M204 S500
M205 X5 Y5
G1 F1200 X99.163 Y115.794 E35.96734
M204 S625
M205 X6 Y6
G0 F4285.7 X99.757 Y115.794
M204 S500
M205 X5 Y5
G1 F1200 X124.705 Y140.742 E36.59451
M204 S625
M205 X6 Y6
G0 F4285.7 X124.705 Y140.148
M204 S500
M205 X5 Y5
G1 F1200 X100.351 Y115.794 E37.20674
M204 S625
M205 X6 Y6
G0 F4285.7 X100.945 Y115.794
M204 S500
M205 X5 Y5
G1 F1200 X124.705 Y139.554 E37.80404
M204 S625
M205 X6 Y6
G0 F4285.7 X124.705 Y138.96
M204 S500
M205 X5 Y5
G1 F1200 X101.539 Y115.794 E38.38642
M204 S625
M205 X6 Y6
G0 F4285.7 X102.133 Y115.794
M204 S500
M205 X5 Y5
G1 F1200 X124.705 Y138.366 E38.95385
M204 S625
M205 X6 Y6
G0 F4285.7 X124.705 Y137.772
M204 S500
M205 X5 Y5
G1 F1200 X102.727 Y115.794 E39.50636
M204 S625
M205 X6 Y6
G0 F4285.7 X103.321 Y115.794
M204 S500
M205 X5 Y5
G1 F1200 X124.705 Y137.178 E40.04393
M204 S625
M205 X6 Y6
G0 F4285.7 X124.705 Y136.584
M204 S500
M205 X5 Y5
G1 F1200 X103.914 Y115.794 E40.56658
M204 S625
M205 X6 Y6
G0 F4285.7 X104.508 Y115.794
M204 S500
M205 X5 Y5
G1 F1200 X124.705 Y135.99 E41.0743
M204 S625
M205 X6 Y6
G0 F4285.7 X124.705 Y135.396
M204 S500
M205 X5 Y5
G1 F1200 X105.102 Y115.794 E41.56709
M204 S625
M205 X6 Y6
G0 F4285.7 X105.696 Y115.794
M204 S500
M205 X5 Y5
G1 F1200 X124.705 Y134.802 E42.04495
M204 S625
M205 X6 Y6
G0 F4285.7 X124.705 Y134.208
M204 S500
M205 X5 Y5
G1 F1200 X106.29 Y115.794 E42.50787
M204 S625
M205 X6 Y6
G0 F4285.7 X106.884 Y115.794
M204 S500
M205 X5 Y5
G1 F1200 X124.705 Y133.614 E42.95586
M204 S625
M205 X6 Y6
G0 F4285.7 X124.705 Y133.02
M204 S500
M205 X5 Y5
G1 F1200 X107.478 Y115.794 E43.38892
M204 S625
M205 X6 Y6
G0 F4285.7 X108.072 Y115.794
M204 S500
M205 X5 Y5
G1 F1200 X124.705 Y132.426 E43.80704
M204 S625
M205 X6 Y6
G0 F4285.7 X125.076 Y132.204
M204 S500
M205 X5 Y5
G1 F1200 X108.294 Y115.421 E44.22894
M204 S625
M205 X6 Y6
G0 F4285.7 X108.294 Y114.827
M204 S500
M205 X5 Y5
G1 F1200 X125.67 Y132.204 E44.66577
M204 S625
M205 X6 Y6
G0 F4285.7 X126.264 Y132.204
M204 S500
M205 X5 Y5
G1 F1200 X108.294 Y114.233 E45.11753
M204 S625
M205 X6 Y6
G0 F4285.7 X108.294 Y113.639
M204 S500
M205 X5 Y5
G1 F1200 X126.858 Y132.204 E45.58422
M204 S625
M205 X6 Y6
G0 F4285.7 X127.452 Y132.204
M204 S500
M205 X5 Y5
G1 F1200 X108.294 Y113.045 E46.06585
M204 S625
M205 X6 Y6
G0 F4285.7 X108.294 Y112.451
M204 S500
M205 X5 Y5
G1 F1200 X128.046 Y132.204 E46.56241
M204 S625
M205 X6 Y6
G0 F4285.7 X128.64 Y132.204
M204 S500
M205 X5 Y5
G1 F1200 X108.294 Y111.857 E47.0739
M204 S625
M205 X6 Y6
G0 F4285.7 X108.294 Y111.263
M204 S500
M205 X5 Y5
G1 F1200 X129.234 Y132.204 E47.60032
M204 S625
M205 X6 Y6
G0 F4285.7 X129.828 Y132.204
M204 S500
M205 X5 Y5
G1 F1200 X108.294 Y110.669 E48.14168
M204 S625
M205 X6 Y6
G0 F4285.7 X108.294 Y110.076
M204 S500
M205 X5 Y5
G1 F1200 X130.422 Y132.204 E48.69795
M204 S625
M205 X6 Y6
G0 F4285.7 X131.016 Y132.204
M204 S500
M205 X5 Y5
G1 F1200 X108.294 Y109.482 E49.26916
M204 S625
M205 X6 Y6
G0 F4285.7 X108.294 Y108.888
M204 S500
M205 X5 Y5
G1 F1200 X131.61 Y132.204 E49.8553
M204 S625
M205 X6 Y6
G0 F4285.7 X132.204 Y132.204
M204 S500
M205 X5 Y5
G1 F1200 X108.294 Y108.294 E50.45638
M204 S625
M205 X6 Y6
G0 F4285.7 X108.294 Y107.7
M204 S500
M205 X5 Y5
G1 F1200 X132.798 Y132.204 E51.07238
M204 S625
M205 X6 Y6
G0 F4285.7 X133.392 Y132.204
M204 S500
M205 X5 Y5
G1 F1200 X108.294 Y107.106 E51.70332
M204 S625
M205 X6 Y6
G0 F4285.7 X108.294 Y106.512
M204 S500
M205 X5 Y5
G1 F1200 X133.986 Y132.204 E52.3492
M204 S625
M205 X6 Y6
G0 F4285.7 X134.58 Y132.204
M204 S500
M205 X5 Y5
G1 F1200 X108.294 Y105.918 E53.01
M204 S625
M205 X6 Y6
G0 F4285.7 X108.294 Y105.324
M204 S500
M205 X5 Y5
G1 F1200 X135.174 Y132.204 E53.68574
M204 S625
M205 X6 Y6
G0 F4285.7 X135.768 Y132.204
M204 S500
M205 X5 Y5
G1 F1200 X108.294 Y104.73 E54.37641
M204 S625
M205 X6 Y6
G0 F4285.7 X108.294 Y104.136
M204 S500
M205 X5 Y5
G1 F1200 X136.362 Y132.204 E55.08201
M204 S625
M205 X6 Y6
G0 F4285.7 X136.955 Y132.204
M204 S500
M205 X5 Y5
G1 F1200 X108.294 Y103.542 E55.80253
M204 S625
M205 X6 Y6
G0 F4285.7 X108.294 Y102.948
M204 S500
M205 X5 Y5
G1 F1200 X137.549 Y132.204 E56.53799
M204 S625
M205 X6 Y6
G0 F4285.7 X138.143 Y132.204
M204 S500
M205 X5 Y5
G1 F1200 X108.294 Y102.354 E57.28837
M204 S625
M205 X6 Y6
G0 F4285.7 X108.294 Y101.76
M204 S500
M205 X5 Y5
G1 F1200 X138.737 Y132.204 E58.05369
M204 S625
M205 X6 Y6
G0 F4285.7 X139.331 Y132.204
M204 S500
M205 X5 Y5
G1 F1200 X108.294 Y101.166 E58.83395
M204 S625
M205 X6 Y6
G0 F4285.7 X108.294 Y100.572
M204 S500
M205 X5 Y5
G1 F1200 X139.925 Y132.204 E59.62913
M204 S625
M205 X6 Y6
G0 F4285.7 X140.519 Y132.204
M204 S500
M205 X5 Y5
G1 F1200 X108.294 Y99.978 E60.43925
M204 S625
M205 X6 Y6
G0 F4285.7 X108.294 Y99.384
M204 S500
M205 X5 Y5
G1 F1200 X141.113 Y132.204 E61.2643
M204 S625
M205 X6 Y6
G0 F4285.7 X141.707 Y132.204
M204 S500
M205 X5 Y5
G1 F1200 X125.298 Y115.795 E61.67681
M204 S625
M205 X6 Y6
G0 F4285.7 X125.892 Y115.795
M204 S500
M205 X5 Y5
G1 F1200 X142.301 Y132.204 E62.08931
M204 S625
M205 X6 Y6
G0 F4285.7 X142.895 Y132.204
M204 S500
M205 X5 Y5
G1 F1200 X126.486 Y115.795 E62.50182
M204 S625
M205 X6 Y6
G0 F4285.7 X127.08 Y115.795
M204 S500
M205 X5 Y5
G1 F1200 X143.489 Y132.204 E62.91432
M204 S625
M205 X6 Y6
G0 F4285.7 X144.083 Y132.204
M204 S500
M205 X5 Y5
G1 F1200 X127.674 Y115.795 E63.32683
M204 S625
M205 X6 Y6
G0 F4285.7 X128.268 Y115.795
M204 S500
M205 X5 Y5
G1 F1200 X144.677 Y132.204 E63.73934
M204 S625
M205 X6 Y6
G0 F4285.7 X145.271 Y132.204
M204 S500
M205 X5 Y5
G1 F1200 X128.862 Y115.795 E64.15184
M204 S625
M205 X6 Y6
G0 F4285.7 X129.456 Y115.795
M204 S500
M205 X5 Y5
G1 F1200 X145.865 Y132.204 E64.56435
M204 S625
M205 X6 Y6
G0 F4285.7 X146.459 Y132.204
M204 S500
M205 X5 Y5
G1 F1200 X130.05 Y115.795 E64.97686
M204 S625
M205 X6 Y6
G0 F4285.7 X130.644 Y115.795
M204 S500
M205 X5 Y5
G1 F1200 X147.053 Y132.204 E65.38936
M204 S625
M205 X6 Y6
G0 F4285.7 X147.204 Y131.761
M204 S500
M205 X5 Y5
G1 F1200 X131.238 Y115.795 E65.79073
M204 S625
M205 X6 Y6
G0 F4285.7 X131.832 Y115.795
M204 S500
M205 X5 Y5
G1 F1200 X147.204 Y131.167 E66.17717
M204 S625
M205 X6 Y6
G0 F4285.7 X147.204 Y130.573
M204 S500
M205 X5 Y5
G1 F1200 X132.426 Y115.795 E66.54867
M204 S625
M205 X6 Y6
G0 F4285.7 X133.02 Y115.795
M204 S500
M205 X5 Y5
G1 F1200 X147.204 Y129.979 E66.90525
M204 S625
M205 X6 Y6
G0 F4285.7 X147.204 Y129.385
M204 S500
M205 X5 Y5
G1 F1200 X133.614 Y115.795 E67.24688
M204 S625
M205 X6 Y6
G0 F4285.7 X134.208 Y115.795
M204 S500
M205 X5 Y5
