;START_OF_HEADER
;HEADER_VERSION:0.1
;FLAVOR:Griffin
;GENERATOR.NAME:Cura_SteamEngine
;GENERATOR.VERSION:2.7.0
;GENERATOR.BUILD_DATE:2017-08-30
;TARGET_MACHINE.NAME:Ultimaker 3
;EXTRUDER_TRAIN.0.INITIAL_TEMPERATURE:100
;EXTRUDER_TRAIN.0.MATERIAL.VOLUME_USED:310
;EXTRUDER_TRAIN.0.MATERIAL.GUID:506c9f0d-e3aa-4bd4-b2d2-23e2425b1aa9
;EXTRUDER_TRAIN.0.NOZZLE.DIAMETER:0.4
;EXTRUDER_TRAIN.0.NOZZLE.NAME:AA 0.4
;EXTRUDER_TRAIN.1.INITIAL_TEMPERATURE:220
;EXTRUDER_TRAIN.1.MATERIAL.VOLUME_USED:433
;EXTRUDER_TRAIN.1.MATERIAL.GUID:86a89ceb-4159-47f6-ab97-e9953803d70f
;EXTRUDER_TRAIN.1.NOZZLE.DIAMETER:0.4
;EXTRUDER_TRAIN.1.NOZZLE.NAME:BB 0.4
;BUILD_PLATE.INITIAL_TEMPERATURE:50
;PRINT.TIME:2515
;PRINT.SIZE.MIN.X:9
;PRINT.SIZE.MIN.Y:6
;PRINT.SIZE.MIN.Z:0.27
;PRINT.SIZE.MAX.X:213
;PRINT.SIZE.MAX.Y:207
;PRINT.SIZE.MAX.Z:17.03
;END_OF_HEADER
;Generated with Cura_SteamEngine 2.7.0

T0
T1
G92 E0

M109 S220
G0 F15000 X204 Y6 Z2
G280
G1 F1500 E-2
;LAYER_COUNT:247
;LAYER:0
M107
M104 T0 S205
M204 S625
M205 X6 Y6
G0 F8571.4 X100.792 Y96.471 Z0.27
G0 X101.585 Y98.697
M204 S500
M205 X5 Y5
;TYPE:SKIRT
G1 F900 E0
G1 F1200 X102.003 Y98.878 E0.00675
G1 X102.412 Y99.143 E0.01397
G1 X102.701 Y99.396 E0.01966
G1 X102.804 Y99.499 E0.02181
G1 X103.119 Y99.871 E0.02904
G1 X103.369 Y100.289 E0.03625
G1 X103.548 Y100.743 E0.04348
G1 X103.65 Y101.219 E0.05069
G1 X103.675 Y101.603 E0.05639
G1 X103.675 Y113.397 E0.2311
G1 X103.635 Y113.883 E0.23832
G1 X103.516 Y114.356 E0.24555
G1 X103.322 Y114.803 E0.25277
G1 X103.057 Y115.212 E0.25998
G1 X102.804 Y115.501 E0.26567
G1 X102.701 Y115.604 E0.26783
G1 X102.329 Y115.919 E0.27505
G1 X101.911 Y116.169 E0.28227
G1 X101.585 Y116.298 E0.28746
G1 X101.591 Y116.341 E0.2881
G1 X101.577 Y116.828 E0.29532
G1 X101.484 Y117.307 E0.30255
G1 X101.313 Y117.763 E0.30976
G1 X101.071 Y118.186 E0.31698
G1 X100.763 Y118.564 E0.32421
G1 X100.397 Y118.886 E0.33143
G1 X99.983 Y119.144 E0.33865
G1 X99.533 Y119.331 E0.34587
G1 X99.059 Y119.442 E0.35308
G1 X98.62 Y119.475 E0.3596
G1 X98.383 Y119.475 E0.36312
G1 X97.897 Y119.435 E0.37034
G1 X97.424 Y119.316 E0.37756
G1 X96.977 Y119.122 E0.38478
G1 X96.568 Y118.857 E0.392
G1 X96.208 Y118.529 E0.39922
G1 X95.905 Y118.147 E0.40644
G1 X95.67 Y117.72 E0.41366
G1 X95.507 Y117.261 E0.42087
G1 X95.421 Y116.781 E0.4281
G1 X95.415 Y116.303 E0.43518
G1 X94.997 Y116.122 E0.44193
G1 X94.588 Y115.857 E0.44915
G1 X94.299 Y115.604 E0.45484
G1 X94.196 Y115.501 E0.45699
G1 X93.881 Y115.129 E0.46421
G1 X93.631 Y114.711 E0.47143
G1 X93.452 Y114.257 E0.47866
G1 X93.35 Y113.781 E0.48587
G1 X93.325 Y113.397 E0.49157
G1 X93.325 Y101.603 E0.66628
G1 X93.365 Y101.117 E0.6735
G1 X93.484 Y100.644 E0.68073
G1 X93.678 Y100.197 E0.68794
G1 X93.943 Y99.788 E0.69516
G1 X94.196 Y99.499 E0.70085
G1 X94.299 Y99.396 E0.70301
G1 X94.671 Y99.081 E0.71023
G1 X95.089 Y98.831 E0.71745
G1 X95.415 Y98.702 E0.72264
G1 X95.409 Y98.659 E0.72328
G1 X95.423 Y98.172 E0.7305
G1 X95.516 Y97.693 E0.73773
G1 X95.687 Y97.237 E0.74494
G1 X95.929 Y96.814 E0.75216
G1 X96.237 Y96.436 E0.75938
G1 X96.603 Y96.114 E0.76661
G1 X97.017 Y95.856 E0.77383
G1 X97.467 Y95.669 E0.78105
G1 X97.941 Y95.558 E0.78826
G1 X98.38 Y95.525 E0.79478
G1 X98.617 Y95.525 E0.79829
G1 X99.103 Y95.565 E0.80552
G1 X99.576 Y95.684 E0.81274
G1 X100.023 Y95.878 E0.81996
G1 X100.432 Y96.143 E0.82718
G1 X100.792 Y96.471 E0.83439
G1 X101.095 Y96.853 E0.84162
G1 X101.33 Y97.28 E0.84884
G1 X101.493 Y97.739 E0.85605
G1 X101.579 Y98.219 E0.86328
G1 X101.585 Y98.697 E0.87036
M204 S625
M205 X6 Y6
G0 F8571.4 X101.202 Y98.955
M204 S500
M205 X5 Y5
G1 F1200 X101.495 Y99.033 E0.87485
G1 X101.91 Y99.227 E0.88164
G1 X102.453 Y99.644 E0.89178
G1 X102.556 Y99.747 E0.89393
G1 X102.85 Y100.098 E0.90072
G1 X103.079 Y100.494 E0.90749
G1 X103.236 Y100.924 E0.91427
G1 X103.325 Y101.603 E0.92442
G1 X103.325 Y113.397 E1.09913
G1 X103.285 Y113.853 E1.10591
G1 X103.167 Y114.295 E1.11268
G1 X102.973 Y114.71 E1.11947
G1 X102.556 Y115.253 E1.12961
G1 X102.453 Y115.356 E1.13177
G1 X102.102 Y115.65 E1.13855
G1 X101.706 Y115.879 E1.14533
G1 X101.276 Y116.036 E1.15211
G1 X101.204 Y116.045 E1.15319
G1 X101.21 Y116.07 E1.15357
G1 X101.245 Y116.527 E1.16036
G1 X101.2 Y116.982 E1.16713
G1 X101.077 Y117.423 E1.17391
G1 X100.88 Y117.836 E1.18069
G1 X100.613 Y118.208 E1.18747
G1 X100.286 Y118.529 E1.19426
G1 X99.908 Y118.787 E1.20104
G1 X99.491 Y118.976 E1.20782
G1 X99.048 Y119.09 E1.2146
G1 X98.62 Y119.125 E1.22096
G1 X98.383 Y119.125 E1.22447
G1 X97.927 Y119.085 E1.23125
G1 X97.485 Y118.967 E1.23803
G1 X97.07 Y118.773 E1.24481
G1 X96.695 Y118.51 E1.2516
G1 X96.371 Y118.186 E1.25839
G1 X96.109 Y117.811 E1.26516
G1 X95.916 Y117.396 E1.27194
G1 X95.798 Y116.954 E1.27872
G1 X95.758 Y116.498 E1.2855
G1 X95.798 Y116.045 E1.29224
G1 X95.505 Y115.967 E1.29673
G1 X95.09 Y115.773 E1.30351
G1 X94.547 Y115.356 E1.31366
G1 X94.444 Y115.253 E1.31581
G1 X94.15 Y114.902 E1.3226
G1 X93.921 Y114.506 E1.32937
G1 X93.764 Y114.076 E1.33615
G1 X93.675 Y113.397 E1.3463
G1 X93.675 Y101.603 E1.52101
G1 X93.715 Y101.147 E1.52779
G1 X93.833 Y100.705 E1.53456
G1 X94.027 Y100.29 E1.54135
G1 X94.444 Y99.747 E1.55149
G1 X94.547 Y99.644 E1.55365
G1 X94.898 Y99.35 E1.56043
G1 X95.294 Y99.121 E1.56721
G1 X95.724 Y98.964 E1.57399
G1 X95.796 Y98.955 E1.57506
G1 X95.79 Y98.93 E1.57544
G1 X95.755 Y98.473 E1.58223
G1 X95.8 Y98.018 E1.58901
G1 X95.923 Y97.577 E1.59579
G1 X96.12 Y97.164 E1.60257
G1 X96.387 Y96.792 E1.60935
G1 X96.714 Y96.471 E1.61614
G1 X97.092 Y96.213 E1.62292
G1 X97.509 Y96.024 E1.6297
G1 X97.952 Y95.91 E1.63647
G1 X98.38 Y95.875 E1.64284
G1 X98.617 Y95.875 E1.64635
G1 X99.073 Y95.915 E1.65313
G1 X99.515 Y96.033 E1.6599
G1 X99.93 Y96.227 E1.66669
G1 X100.305 Y96.49 E1.67348
G1 X100.629 Y96.814 E1.68026
G1 X100.891 Y97.189 E1.68704
G1 X101.084 Y97.604 E1.69382
G1 X101.202 Y98.046 E1.7006
G1 X101.242 Y98.502 E1.70738
G1 X101.202 Y98.955 E1.71411
M204 S625
M205 X6 Y6
G0 F8571.4 X100.763 Y99.241
M204 S500
M205 X5 Y5
G1 F1200 X101.021 Y99.265 E1.71795
G1 X101.431 Y99.383 E1.72427
G1 X101.811 Y99.576 E1.73059
G1 X102.206 Y99.891 E1.73807
G1 X102.309 Y99.994 E1.74023
G1 X102.58 Y100.323 E1.74654
G1 X102.786 Y100.696 E1.75285
G1 X102.919 Y101.101 E1.75917
G1 X102.975 Y101.603 E1.76665
G1 X102.975 Y113.397 E1.94136
G1 X102.935 Y113.821 E1.94767
G1 X102.817 Y114.231 E1.95399
G1 X102.624 Y114.611 E1.9603
G1 X102.309 Y115.006 E1.96778
G1 X102.206 Y115.109 E1.96994
G1 X101.877 Y115.38 E1.97626
G1 X101.504 Y115.586 E1.98257
G1 X101.099 Y115.719 E1.98888
G1 X100.762 Y115.757 E1.99391
G1 X100.802 Y115.855 E1.99547
G1 X100.884 Y116.274 E2.0018
G1 X100.886 Y116.7 E2.00811
G1 X100.809 Y117.119 E2.01442
G1 X100.655 Y117.516 E2.02073
G1 X100.43 Y117.878 E2.02704
G1 X100.141 Y118.191 E2.03335
G1 X99.799 Y118.445 E2.03966
G1 X99.416 Y118.631 E2.04597
G1 X99.004 Y118.742 E2.05229
G1 X98.62 Y118.775 E2.058
G1 X98.383 Y118.775 E2.06151
G1 X97.959 Y118.735 E2.06782
G1 X97.549 Y118.617 E2.07414
G1 X97.169 Y118.424 E2.08045
G1 X96.832 Y118.164 E2.08676
G1 X96.549 Y117.846 E2.09306
G1 X96.33 Y117.48 E2.09938
G1 X96.183 Y117.08 E2.1057
G1 X96.114 Y116.659 E2.11202
G1 X96.124 Y116.233 E2.11833
G1 X96.213 Y115.817 E2.12463
G1 X96.237 Y115.759 E2.12556
G1 X95.979 Y115.735 E2.1294
G1 X95.569 Y115.617 E2.13572
G1 X95.189 Y115.424 E2.14203
G1 X94.794 Y115.109 E2.14951
G1 X94.691 Y115.006 E2.15167
G1 X94.42 Y114.677 E2.15799
G1 X94.214 Y114.304 E2.1643
G1 X94.081 Y113.899 E2.17061
G1 X94.025 Y113.397 E2.1781
G1 X94.025 Y101.603 E2.3528
G1 X94.065 Y101.179 E2.35911
G1 X94.183 Y100.769 E2.36543
G1 X94.376 Y100.389 E2.37175
G1 X94.691 Y99.994 E2.37923
G1 X94.794 Y99.891 E2.38139
G1 X95.123 Y99.62 E2.3877
G1 X95.496 Y99.414 E2.39401
G1 X95.901 Y99.281 E2.40033
G1 X96.238 Y99.243 E2.40535
G1 X96.198 Y99.145 E2.40692
G1 X96.116 Y98.726 E2.41324
G1 X96.114 Y98.3 E2.41956
G1 X96.191 Y97.881 E2.42587
G1 X96.345 Y97.484 E2.43217
G1 X96.57 Y97.122 E2.43849
G1 X96.859 Y96.809 E2.4448
G1 X97.201 Y96.555 E2.45111
G1 X97.584 Y96.369 E2.45742
G1 X97.996 Y96.258 E2.46374
G1 X98.38 Y96.225 E2.46945
G1 X98.617 Y96.225 E2.47296
G1 X99.041 Y96.265 E2.47927
G1 X99.451 Y96.383 E2.48559
G1 X99.831 Y96.576 E2.4919
G1 X100.168 Y96.836 E2.4982
G1 X100.451 Y97.154 E2.50451
G1 X100.67 Y97.52 E2.51083
G1 X100.817 Y97.92 E2.51714
G1 X100.886 Y98.341 E2.52346
G1 X100.876 Y98.767 E2.52977
G1 X100.787 Y99.183 E2.53607
G1 X100.763 Y99.241 E2.537
M204 S625
M205 X6 Y6
G0 F8571.4 X100.191 Y99.594
M204 S500
M205 X5 Y5
G1 F1200 X100.403 Y99.575 E2.54016
G1 X100.597 Y99.575 E2.54303
G1 X100.987 Y99.615 E2.54884
G1 X101.361 Y99.733 E2.55465
G1 X101.703 Y99.924 E2.56045
G1 X101.958 Y100.139 E2.56539
G1 X102.061 Y100.242 E2.56755
G1 X102.309 Y100.546 E2.57336
G1 X102.489 Y100.893 E2.57915
G1 X102.596 Y101.271 E2.58497
G1 X102.625 Y101.603 E2.58991
G1 X102.625 Y113.397 E2.76462
G1 X102.585 Y113.787 E2.77042
G1 X102.467 Y114.161 E2.77623
G1 X102.276 Y114.503 E2.78204
G1 X102.061 Y114.758 E2.78698
G1 X101.958 Y114.861 E2.78913
G1 X101.654 Y115.109 E2.79495
G1 X101.307 Y115.289 E2.80074
G1 X100.929 Y115.396 E2.80656
G1 X100.597 Y115.425 E2.81149
G1 X100.403 Y115.425 E2.81437
G1 X100.198 Y115.404 E2.81742
G1 X100.373 Y115.705 E2.82258
G1 X100.498 Y116.076 E2.82838
G1 X100.545 Y116.466 E2.8342
G1 X100.512 Y116.856 E2.83999
G1 X100.4 Y117.232 E2.8458
G1 X100.215 Y117.577 E2.8516
G1 X99.964 Y117.878 E2.85741
G1 X99.657 Y118.122 E2.86322
G1 X99.307 Y118.298 E2.86902
G1 X98.929 Y118.4 E2.87482
G1 X98.62 Y118.425 E2.87941
G1 X98.383 Y118.425 E2.88292
G1 X97.993 Y118.385 E2.88873
G1 X97.619 Y118.267 E2.89454
G1 X97.277 Y118.076 E2.90034
G1 X96.981 Y117.819 E2.90615
G1 X96.743 Y117.508 E2.91195
G1 X96.573 Y117.155 E2.91776
G1 X96.478 Y116.775 E2.92356
G1 X96.462 Y116.383 E2.92937
G1 X96.525 Y115.996 E2.93518
G1 X96.666 Y115.63 E2.94099
G1 X96.809 Y115.406 E2.94492
G1 X96.597 Y115.425 E2.94808
G1 X96.403 Y115.425 E2.95095
G1 X96.013 Y115.385 E2.95676
G1 X95.639 Y115.267 E2.96257
G1 X95.297 Y115.076 E2.96837
G1 X95.042 Y114.861 E2.97331
G1 X94.939 Y114.758 E2.97547
G1 X94.691 Y114.454 E2.98128
G1 X94.511 Y114.107 E2.98707
G1 X94.404 Y113.729 E2.99289
G1 X94.375 Y113.397 E2.99783
G1 X94.375 Y101.603 E3.17254
G1 X94.415 Y101.213 E3.17834
G1 X94.533 Y100.839 E3.18415
G1 X94.724 Y100.497 E3.18996
G1 X94.939 Y100.242 E3.1949
G1 X95.042 Y100.139 E3.19705
G1 X95.346 Y99.891 E3.20287
G1 X95.693 Y99.711 E3.20866
G1 X96.071 Y99.604 E3.21448
G1 X96.403 Y99.575 E3.21941
G1 X96.597 Y99.575 E3.22229
G1 X96.802 Y99.596 E3.22534
G1 X96.627 Y99.295 E3.2305
G1 X96.502 Y98.924 E3.2363
G1 X96.455 Y98.534 E3.24212
G1 X96.488 Y98.144 E3.24791
G1 X96.6 Y97.768 E3.25372
G1 X96.785 Y97.423 E3.25952
G1 X97.036 Y97.122 E3.26533
G1 X97.343 Y96.878 E3.27114
G1 X97.693 Y96.702 E3.27694
G1 X98.071 Y96.6 E3.28274
G1 X98.38 Y96.575 E3.28733
G1 X98.617 Y96.575 E3.29084
G1 X99.007 Y96.615 E3.29665
G1 X99.381 Y96.733 E3.30246
G1 X99.723 Y96.924 E3.30826
G1 X100.019 Y97.181 E3.31407
G1 X100.257 Y97.492 E3.31987
G1 X100.427 Y97.845 E3.32568
G1 X100.522 Y98.225 E3.33148
G1 X100.538 Y98.617 E3.33729
G1 X100.475 Y99.004 E3.3431
G1 X100.334 Y99.37 E3.34891
G1 X100.191 Y99.594 E3.35285
M204 S625
M205 X6 Y6
G0 F8571.4 X99.338 Y99.907
M204 S500
M205 X5 Y5
G1 F1200 X99.018 Y100.06 E3.3581
G1 X98.672 Y100.138 E3.36335
G1 X98.318 Y100.136 E3.3686
G1 X97.973 Y100.055 E3.37385
G1 X97.702 Y99.928 E3.37828
G1 X97.58 Y99.856 E3.38038
G1 X97.296 Y99.643 E3.38564
G1 X97.068 Y99.372 E3.39088
G1 X96.907 Y99.057 E3.39612
G1 X96.819 Y98.713 E3.40138
G1 X96.811 Y98.359 E3.40663
G1 X96.883 Y98.012 E3.41188
G1 X97.03 Y97.689 E3.41714
G1 X97.245 Y97.408 E3.42238
G1 X97.518 Y97.182 E3.42763
G1 X97.835 Y97.022 E3.43289
G1 X98.179 Y96.938 E3.43813
G1 X98.38 Y96.925 E3.44112
G1 X98.617 Y96.925 E3.44463
G1 X98.969 Y96.965 E3.44987
G1 X99.303 Y97.082 E3.45512
G1 X99.603 Y97.272 E3.46038
G1 X99.853 Y97.523 E3.46563
G1 X100.04 Y97.824 E3.47087
G1 X100.155 Y98.16 E3.47614
G1 X100.192 Y98.512 E3.48138
G1 X100.149 Y98.864 E3.48663
G1 X100.029 Y99.197 E3.49187
G1 X99.838 Y99.495 E3.49712
G1 X99.453 Y99.835 E3.50473
G1 X99.338 Y99.907 E3.50674
M204 S625
M205 X6 Y6
G0 F8571.4 X99.152 Y99.61
M204 S500
M205 X5 Y5
G1 F1200 X98.868 Y99.741 E3.51137
G1 X98.561 Y99.796 E3.51599
G1 X98.249 Y99.771 E3.52063
G1 X97.879 Y99.627 E3.52651
G1 X97.757 Y99.555 E3.52861
G1 X97.511 Y99.363 E3.53323
G1 X97.321 Y99.115 E3.53786
G1 X97.2 Y98.827 E3.54248
G1 X97.155 Y98.518 E3.54711
G1 X97.19 Y98.208 E3.55173
G1 X97.303 Y97.916 E3.55637
G1 X97.486 Y97.663 E3.56099
G1 X97.727 Y97.464 E3.56562
G1 X98.01 Y97.332 E3.57025
G1 X98.38 Y97.275 E3.5758
G1 X98.617 Y97.275 E3.57931
G1 X98.927 Y97.315 E3.58394
G1 X99.217 Y97.432 E3.58857
G1 X99.467 Y97.618 E3.59318
G1 X99.663 Y97.862 E3.59782
G1 X99.79 Y98.147 E3.60244
G1 X99.841 Y98.455 E3.60707
G1 X99.813 Y98.766 E3.61169
G1 X99.706 Y99.06 E3.61633
G1 X99.529 Y99.318 E3.62096
G1 X99.267 Y99.538 E3.62603
G1 X99.152 Y99.61 E3.62804
M204 S625
M205 X6 Y6
G0 F8571.4 X99.081 Y99.242
M204 S500
M205 X5 Y5
G1 F1200 X98.966 Y99.314 E3.63005
G1 X98.724 Y99.418 E3.63395
G1 X98.462 Y99.446 E3.63785
G1 X98.203 Y99.394 E3.64177
G1 X98.057 Y99.326 E3.64415
G1 X97.935 Y99.254 E3.64625
G1 X97.731 Y99.087 E3.65016
G1 X97.586 Y98.867 E3.65406
G1 X97.512 Y98.613 E3.65798
G1 X97.518 Y98.349 E3.66189
G1 X97.602 Y98.099 E3.6658
G1 X97.757 Y97.886 E3.6697
G1 X97.968 Y97.728 E3.67361
G1 X98.217 Y97.64 E3.67752
G1 X98.38 Y97.625 E3.67994
G1 X98.617 Y97.625 E3.68345
G1 X98.878 Y97.665 E3.68736
G1 X99.115 Y97.78 E3.69127
G1 X99.307 Y97.962 E3.69519
G1 X99.436 Y98.192 E3.69909
G1 X99.491 Y98.45 E3.703
G1 X99.466 Y98.712 E3.7069
G1 X99.364 Y98.956 E3.71082
G1 X99.194 Y99.158 E3.71473
G1 X99.081 Y99.242 E3.71681
M204 S625
M205 X6 Y6
G0 F8571.4 X98.896 Y98.945
M204 S500
M205 X5 Y5
G1 F1200 X98.781 Y99.017 E3.71882
G1 X98.59 Y99.09 E3.72185
G1 X98.386 Y99.084 E3.72487
G1 X98.235 Y99.024 E3.72728
G1 X98.113 Y98.952 E3.72938
G1 X97.961 Y98.816 E3.7324
G1 X97.872 Y98.633 E3.73542
G1 X97.86 Y98.429 E3.73844
G1 X97.926 Y98.236 E3.74146
G1 X98.061 Y98.083 E3.74449
G1 X98.244 Y97.993 E3.74751
G1 X98.38 Y97.975 E3.74954
G1 X98.617 Y97.975 E3.75305
G1 X98.817 Y98.015 E3.75607
G1 X98.987 Y98.127 E3.75909
G1 X99.101 Y98.297 E3.76212
G1 X99.142 Y98.496 E3.76513
G1 X99.104 Y98.697 E3.76816
G1 X98.992 Y98.867 E3.77118
G1 X98.896 Y98.945 E3.77301
M204 S625
M205 X6 Y6
G0 F8571.4 X98.413 Y98.723
M204 S500
M205 X5 Y5
G1 F1200 X98.291 Y98.651 E3.77511
G1 X98.216 Y98.561 E3.77684
G1 X98.214 Y98.445 E3.77856
G1 X98.286 Y98.353 E3.78029
G1 X98.38 Y98.325 E3.78174
G1 X98.617 Y98.325 E3.78525
G1 X98.727 Y98.364 E3.78698
G1 X98.788 Y98.463 E3.78871
G1 X98.773 Y98.579 E3.79044
G1 X98.71 Y98.648 E3.79182
G1 X98.595 Y98.72 E3.79383
G1 X98.481 Y98.746 E3.79556
G1 X98.413 Y98.723 E3.79663
M204 S625
M205 X6 Y6
G0 F8571.4 X97.814 Y100.489
M204 S500
M205 X5 Y5
G1 F1200 X98.035 Y100.767 E3.80189
G1 X98.188 Y101.086 E3.80713
G1 X98.275 Y101.603 E3.8149
G1 X98.275 Y104.925 E3.86411
G1 X98.725 Y104.925 E3.87077
G1 X98.725 Y101.603 E3.91998
G1 X98.765 Y101.251 E3.92523
G1 X98.882 Y100.917 E3.93047
G1 X99.186 Y100.489 E3.93825
G1 X99.289 Y100.386 E3.94041
G1 X99.567 Y100.165 E3.94567
G1 X99.886 Y100.012 E3.95091
G1 X100.403 Y99.925 E3.95867
G1 X100.597 Y99.925 E3.96155
G1 X100.949 Y99.965 E3.9668
G1 X101.283 Y100.082 E3.97204
G1 X101.711 Y100.386 E3.97981
G1 X101.814 Y100.489 E3.98197
G1 X102.035 Y100.767 E3.98723
G1 X102.188 Y101.086 E3.99247
G1 X102.275 Y101.603 E4.00024
G1 X102.275 Y113.397 E4.17495
G1 X102.235 Y113.749 E4.1802
G1 X102.118 Y114.083 E4.18544
