;START_OF_HEADER
;HEADER_VERSION:0.1
;FLAVOR:Griffin
;GENERATOR.NAME:Cura_SteamEngine
;GENERATOR.VERSION:3.6.0
;GENERATOR.BUILD_DATE:2018-11-12
;TARGET_MACHINE.NAME:Ultimaker 3
;EXTRUDER_TRAIN.0.INITIAL_TEMPERATURE:100
;EXTRUDER_TRAIN.0.MATERIAL.VOLUME_USED:3709
;EXTRUDER_TRAIN.0.MATERIAL.GUID:506c9f0d-e3aa-4bd4-b2d2-23e2425b1aa9
;EXTRUDER_TRAIN.0.NOZZLE.DIAMETER:0.4
;EXTRUDER_TRAIN.0.NOZZLE.NAME:AA 0.4
;EXTRUDER_TRAIN.1.INITIAL_TEMPERATURE:220
;EXTRUDER_TRAIN.1.MATERIAL.VOLUME_USED:0
;EXTRUDER_TRAIN.1.MATERIAL.GUID:86a89ceb-4159-47f6-ab97-e9953803d70f
;EXTRUDER_TRAIN.1.NOZZLE.DIAMETER:0.4
;EXTRUDER_TRAIN.1.NOZZLE.NAME:BB 0.4
;BUILD_PLATE.TYPE:glass
;BUILD_PLATE.INITIAL_TEMPERATURE:50
;PRINT.TIME:1993
;PRINT.SIZE.MIN.X:9
;PRINT.SIZE.MIN.Y:6
;PRINT.SIZE.MIN.Z:0.27
;PRINT.SIZE.MAX.X:213
;PRINT.SIZE.MAX.Y:189
;PRINT.SIZE.MAX.Z:4
;END_OF_HEADER
;Generated with Cura_SteamEngine 3.6.0
T0
M82 ;absolute extrusion mode

T1
G92 E0
M109 S220
G0 F15000 X204 Y6 Z2
G280
G1 F1500 E-4.5
;LAYER_COUNT:5
;LAYER:0
M107
M104 T0 S205
M104 S200
M204 S625
M205 X6 Y6
;MESH:kreuz_flo.STL
G0 F8571.4 X213 Y189 Z0.27
G1 F1200 E-12
G92 E0
T0
G92 E0
M109 S205
M104 T1 S0
G1 F1500 E-6.5
G1 F2400 Z2.27
G0 F4285.7 X9 Y6 Z2.27
G0 F15000 X9 Y6 Z4
G280
G0 F4285.7 X9 Y16 Z2.27
G1 F2400 Z0.27
G0 F4285.7 X145.286 Y72.378
G0 X148.155 Y72.378
M204 S500
M205 X5 Y5
;TYPE:SKIRT
G1 F1500 E0
G1 F1200 X148.258 Y72.301 E0.00229
G1 X148.326 Y72.29 E0.00351
G1 X162.326 Y72.29 E0.25237
G1 X162.448 Y72.329 E0.25465
G1 X162.525 Y72.432 E0.25694
G1 X162.536 Y72.5 E0.25816
G1 X162.536 Y113.123 E0.98027
G1 X179.826 Y113.123 E1.28762
G1 X179.948 Y113.162 E1.2899
G1 X180.025 Y113.265 E1.29218
G1 X180.036 Y113.333 E1.29341
G1 X180.036 Y127.333 E1.54227
G1 X179.997 Y127.455 E1.54455
G1 X179.894 Y127.532 E1.54684
G1 X179.826 Y127.543 E1.54806
G1 X162.536 Y127.543 E1.85541
G1 X162.536 Y142.5 E2.12128
G1 X162.497 Y142.622 E2.12356
G1 X162.394 Y142.699 E2.12584
G1 X162.326 Y142.71 E2.12707
G1 X148.326 Y142.71 E2.37593
G1 X148.204 Y142.671 E2.37821
G1 X148.127 Y142.568 E2.3805
G1 X148.116 Y142.5 E2.38172
G1 X148.116 Y127.543 E2.64759
G1 X130.826 Y127.543 E2.95494
G1 X130.704 Y127.504 E2.95722
G1 X130.627 Y127.401 E2.9595
G1 X130.616 Y127.333 E2.96073
G1 X130.616 Y113.333 E3.20959
G1 X130.655 Y113.211 E3.21187
G1 X130.758 Y113.134 E3.21416
G1 X130.826 Y113.123 E3.21538
G1 X148.116 Y113.123 E3.52273
G1 X148.116 Y72.5 E4.24484
G1 X148.155 Y72.378 E4.24712
M204 S625
M205 X6 Y6
G1 F1500 E-2.25288
G0 F4285.7 X145.286 Y72.378
G0 X101.425 Y67.5
G0 X98.595 Y67.5
M204 S500
M205 X5 Y5
G1 F1500 E4.24712
G1 F1200 X98.595 Y113.957 E5.07294
G1 X118.385 Y113.957 E5.42472
G1 X118.507 Y113.996 E5.427
G1 X118.584 Y114.099 E5.42928
G1 X118.595 Y114.167 E5.43051
G1 X118.595 Y130.167 E5.71492
G1 X118.556 Y130.289 E5.7172
G1 X118.453 Y130.366 E5.71949
G1 X118.385 Y130.377 E5.72071
G1 X98.595 Y130.377 E6.0725
G1 X98.595 Y147.5 E6.37688
G1 X98.556 Y147.622 E6.37915
G1 X98.453 Y147.699 E6.38144
G1 X98.385 Y147.71 E6.38266
G1 X82.385 Y147.71 E6.66708
G1 X82.263 Y147.671 E6.66936
G1 X82.186 Y147.568 E6.67164
G1 X82.175 Y147.5 E6.67287
G1 X82.175 Y130.377 E6.97724
G1 X62.385 Y130.377 E7.32903
G1 X62.263 Y130.338 E7.33131
G1 X62.186 Y130.235 E7.33359
G1 X62.175 Y130.167 E7.33482
G1 X62.175 Y114.167 E7.61923
G1 X62.214 Y114.045 E7.62151
G1 X62.317 Y113.968 E7.6238
G1 X62.385 Y113.957 E7.62502
G1 X82.175 Y113.957 E7.97681
G1 X82.175 Y67.5 E8.80263
G1 X82.214 Y67.378 E8.8049
G1 X82.317 Y67.301 E8.80719
G1 X82.385 Y67.29 E8.80841
G1 X98.385 Y67.29 E9.09283
G1 X98.507 Y67.329 E9.09511
G1 X98.584 Y67.432 E9.09739
G1 X98.595 Y67.5 E9.09862
M204 S625
M205 X6 Y6
G1 F1500 E2.59862
G0 F4285.7 X101.425 Y67.5
G0 X145.286 Y72.724
G0 X148.55 Y72.724
G0 X162.046 Y113.613
G0 X162.116 Y113.543
M204 S500
M205 X5 Y5
;TYPE:WALL-OUTER
G1 F1500 E9.09862
G1 F1200 X179.616 Y113.543 E9.4097
G1 X179.616 Y127.123 E9.65109
G1 X162.116 Y127.123 E9.96217
G1 X162.116 Y142.29 E10.23178
G1 X148.536 Y142.29 E10.47318
G1 X148.536 Y127.123 E10.74279
G1 X131.036 Y127.123 E11.05387
G1 X131.036 Y113.543 E11.29526
G1 X148.536 Y113.543 E11.60634
G1 X148.536 Y72.71 E12.33219
G1 X162.116 Y72.71 E12.57359
G1 X162.116 Y113.543 E13.29944
M204 S625
M205 X6 Y6
G0 F4285.7 X162.316 Y113.543
G0 X162.316 Y113.643
G0 X161.706 Y113.953
M204 S500
M205 X5 Y5
;TYPE:SKIN
G1 F1200 X179.206 Y113.953 E13.61051
G1 X179.206 Y126.713 E13.83734
G1 X161.706 Y126.713 E14.14842
G1 X161.706 Y141.88 E14.41802
G1 X148.946 Y141.88 E14.64485
G1 X148.946 Y126.713 E14.91445
G1 X131.446 Y126.713 E15.22553
G1 X131.446 Y113.953 E15.45235
G1 X148.946 Y113.953 E15.76343
G1 X148.946 Y73.12 E16.48928
G1 X161.706 Y73.12 E16.7161
G1 X161.706 Y113.953 E17.44195
M204 S625
M205 X6 Y6
G0 F4285.7 X131.883 Y126.537
M204 S500
M205 X5 Y5
G1 F1200 X131.62 Y126.274 E17.44856
M204 S625
M205 X6 Y6
G0 F4285.7 X131.62 Y125.68
M204 S500
M205 X5 Y5
G1 F1200 X132.477 Y126.537 E17.4701
M204 S625
M205 X6 Y6
G0 F4285.7 X133.071 Y126.537
M204 S500
M205 X5 Y5
G1 F1200 X131.62 Y125.086 E17.50658
M204 S625
M205 X6 Y6
G0 F4285.7 X131.62 Y124.492
M204 S500
M205 X5 Y5
G1 F1200 X133.665 Y126.537 E17.55799
M204 S625
M205 X6 Y6
G0 F4285.7 X134.259 Y126.537
M204 S500
M205 X5 Y5
G1 F1200 X131.62 Y123.898 E17.62433
M204 S625
M205 X6 Y6
G0 F4285.7 X131.62 Y123.304
M204 S500
M205 X5 Y5
G1 F1200 X134.853 Y126.537 E17.70561
M204 S625
M205 X6 Y6
G0 F4285.7 X135.447 Y126.537
M204 S500
M205 X5 Y5
G1 F1200 X131.62 Y122.71 E17.80181
M204 S625
M205 X6 Y6
G0 F4285.7 X131.62 Y122.116
M204 S500
M205 X5 Y5
G1 F1200 X136.04 Y126.537 E17.91294
M204 S625
M205 X6 Y6
G0 F4285.7 X136.634 Y126.537
M204 S500
M205 X5 Y5
G1 F1200 X131.62 Y121.522 E18.039
M204 S625
M205 X6 Y6
G0 F4285.7 X131.62 Y120.928
M204 S500
M205 X5 Y5
G1 F1200 X137.228 Y126.537 E18.17999
M204 S625
M205 X6 Y6
G0 F4285.7 X137.822 Y126.537
M204 S500
M205 X5 Y5
G1 F1200 X131.62 Y120.334 E18.33592
M204 S625
M205 X6 Y6
G0 F4285.7 X131.62 Y119.74
M204 S500
M205 X5 Y5
G1 F1200 X138.416 Y126.537 E18.50677
M204 S625
M205 X6 Y6
G0 F4285.7 X139.01 Y126.537
M204 S500
M205 X5 Y5
G1 F1200 X131.62 Y119.146 E18.69256
M204 S625
M205 X6 Y6
G0 F4285.7 X131.62 Y118.552
M204 S500
M205 X5 Y5
G1 F1200 X139.604 Y126.537 E18.89329
M204 S625
M205 X6 Y6
G0 F4285.7 X140.198 Y126.537
M204 S500
M205 X5 Y5
G1 F1200 X131.62 Y117.958 E19.10894
M204 S625
M205 X6 Y6
G0 F4285.7 X131.62 Y117.364
M204 S500
M205 X5 Y5
G1 F1200 X140.792 Y126.537 E19.33953
M204 S625
M205 X6 Y6
G0 F4285.7 X141.386 Y126.537
M204 S500
M205 X5 Y5
G1 F1200 X131.62 Y116.77 E19.58505
M204 S625
M205 X6 Y6
G0 F4285.7 X131.62 Y116.176
M204 S500
M205 X5 Y5
G1 F1200 X141.98 Y126.537 E19.8455
M204 S625
M205 X6 Y6
G0 F4285.7 X142.574 Y126.537
M204 S500
M205 X5 Y5
G1 F1200 X131.62 Y115.582 E20.12089
M204 S625
M205 X6 Y6
G0 F4285.7 X131.62 Y114.988
M204 S500
M205 X5 Y5
G1 F1200 X143.168 Y126.537 E20.41121
M204 S625
M205 X6 Y6
G0 F4285.7 X143.762 Y126.537
M204 S500
M205 X5 Y5
G1 F1200 X131.62 Y114.395 E20.71645
M204 S625
M205 X6 Y6
G0 F4285.7 X131.947 Y114.128
M204 S500
M205 X5 Y5
G1 F1200 X144.356 Y126.537 E21.0284
M204 S625
M205 X6 Y6
G0 F4285.7 X144.95 Y126.537
M204 S500
M205 X5 Y5
G1 F1200 X132.541 Y114.128 E21.34035
M204 S625
M205 X6 Y6
G0 F4285.7 X133.135 Y114.128
M204 S500
M205 X5 Y5
G1 F1200 X145.544 Y126.537 E21.6523
M204 S625
M205 X6 Y6
G0 F4285.7 X146.138 Y126.537
M204 S500
M205 X5 Y5
G1 F1200 X133.729 Y114.128 E21.96425
M204 S625
M205 X6 Y6
G0 F4285.7 X134.323 Y114.128
M204 S500
M205 X5 Y5
G1 F1200 X146.732 Y126.537 E22.2762
M204 S625
M205 X6 Y6
G0 F4285.7 X147.326 Y126.537
M204 S500
M205 X5 Y5
G1 F1200 X134.917 Y114.128 E22.58815
M204 S625
M205 X6 Y6
G0 F4285.7 X135.511 Y114.128
M204 S500
M205 X5 Y5
G1 F1200 X147.92 Y126.537 E22.9001
M204 S625
M205 X6 Y6
G0 F4285.7 X148.514 Y126.537
M204 S500
M205 X5 Y5
G1 F1200 X136.105 Y114.128 E23.21205
M204 S625
M205 X6 Y6
G0 F4285.7 X136.699 Y114.128
M204 S500
M205 X5 Y5
G1 F1200 X149.108 Y126.537 E23.524
M204 S625
M205 X6 Y6
G0 F4285.7 X149.12 Y126.549
M204 S500
M205 X5 Y5
G1 F1200 X161.53 Y138.959 E23.83597
M204 S625
M205 X6 Y6
G0 F4285.7 X161.53 Y138.365
M204 S500
M205 X5 Y5
G1 F1200 X137.293 Y114.128 E24.44527
M204 S625
M205 X6 Y6
G0 F4285.7 X137.887 Y114.128
M204 S500
M205 X5 Y5
G1 F1200 X161.53 Y137.771 E25.03963
M204 S625
M205 X6 Y6
G0 F4285.7 X161.53 Y137.178
M204 S500
M205 X5 Y5
G1 F1200 X138.481 Y114.128 E25.61907
M204 S625
M205 X6 Y6
G0 F4285.7 X139.075 Y114.128
M204 S500
M205 X5 Y5
G1 F1200 X161.53 Y136.584 E26.18358
M204 S625
M205 X6 Y6
G0 F4285.7 X161.53 Y135.99
M204 S500
M205 X5 Y5
G1 F1200 X139.669 Y114.128 E26.73316
M204 S625
M205 X6 Y6
G0 F4285.7 X140.263 Y114.128
M204 S500
M205 X5 Y5
G1 F1200 X161.53 Y135.396 E27.2678
M204 S625
M205 X6 Y6
G0 F4285.7 X161.53 Y134.802
M204 S500
M205 X5 Y5
G1 F1200 X140.857 Y114.128 E27.78751
M204 S625
M205 X6 Y6
G0 F4285.7 X141.451 Y114.128
M204 S500
M205 X5 Y5
G1 F1200 X161.53 Y134.208 E28.29229
M204 S625
M205 X6 Y6
G0 F4285.7 X161.53 Y133.614
M204 S500
M205 X5 Y5
G1 F1200 X142.045 Y114.128 E28.78214
M204 S625
M205 X6 Y6
G0 F4285.7 X142.638 Y114.128
M204 S500
M205 X5 Y5
G1 F1200 X161.53 Y133.02 E29.25706
M204 S625
M205 X6 Y6
G0 F4285.7 X161.53 Y132.426
M204 S500
M205 X5 Y5
G1 F1200 X143.232 Y114.128 E29.71706
M204 S625
M205 X6 Y6
G0 F4285.7 X143.826 Y114.128
M204 S500
M205 X5 Y5
G1 F1200 X161.53 Y131.832 E30.16212
M204 S625
M205 X6 Y6
G0 F4285.7 X161.53 Y131.238
M204 S500
M205 X5 Y5
G1 F1200 X144.42 Y114.128 E30.59225
M204 S625
M205 X6 Y6
G0 F4285.7 X145.014 Y114.128
M204 S500
M205 X5 Y5
G1 F1200 X161.53 Y130.644 E31.00744
M204 S625
M205 X6 Y6
G0 F4285.7 X161.53 Y130.05
M204 S500
M205 X5 Y5
G1 F1200 X145.608 Y114.128 E31.40771
M204 S625
M205 X6 Y6
G0 F4285.7 X146.202 Y114.128
M204 S500
M205 X5 Y5
G1 F1200 X161.53 Y129.456 E31.79304
M204 S625
M205 X6 Y6
G0 F4285.7 X161.53 Y128.862
M204 S500
M205 X5 Y5
G1 F1200 X146.796 Y114.128 E32.16344
M204 S625
M205 X6 Y6
G0 F4285.7 X147.39 Y114.128
M204 S500
M205 X5 Y5
G1 F1200 X161.53 Y128.268 E32.5189
M204 S625
M205 X6 Y6
G0 F4285.7 X161.53 Y127.674
M204 S500
M205 X5 Y5
G1 F1200 X147.984 Y114.128 E32.85944
M204 S625
M205 X6 Y6
G0 F4285.7 X148.578 Y114.128
M204 S500
M205 X5 Y5
G1 F1200 X161.53 Y127.08 E33.18504
M204 S625
M205 X6 Y6
G0 F4285.7 X161.581 Y126.537
M204 S500
M205 X5 Y5
G1 F1200 X149.12 Y114.076 E33.49829
M204 S625
M205 X6 Y6
G0 F4285.7 X149.12 Y113.482
M204 S500
M205 X5 Y5
G1 F1200 X162.175 Y126.537 E33.82648
M204 S625
M205 X6 Y6
G0 F4285.7 X162.769 Y126.537
M204 S500
M205 X5 Y5
G1 F1200 X149.12 Y112.888 E34.16961
M204 S625
M205 X6 Y6
G0 F4285.7 X149.12 Y112.294
M204 S500
M205 X5 Y5
G1 F1200 X163.363 Y126.537 E34.52766
M204 S625
M205 X6 Y6
G0 F4285.7 X163.957 Y126.537
M204 S500
M205 X5 Y5
G1 F1200 X149.12 Y111.7 E34.90065
M204 S625
M205 X6 Y6
G0 F4285.7 X149.12 Y111.106
M204 S500
M205 X5 Y5
G1 F1200 X164.551 Y126.537 E35.28857
M204 S625
M205 X6 Y6
G0 F4285.7 X165.145 Y126.537
M204 S500
M205 X5 Y5
G1 F1200 X149.12 Y110.512 E35.69142
M204 S625
M205 X6 Y6
G0 F4285.7 X149.12 Y109.918
M204 S500
M205 X5 Y5
G1 F1200 X165.739 Y126.537 E36.10921
M204 S625
M205 X6 Y6
G0 F4285.7 X166.333 Y126.537
M204 S500
M205 X5 Y5
G1 F1200 X149.12 Y109.324 E36.54193
M204 S625
M205 X6 Y6
G0 F4285.7 X149.12 Y108.73
M204 S500
M205 X5 Y5
G1 F1200 X166.927 Y126.537 E36.98958
M204 S625
M205 X6 Y6
G0 F4285.7 X167.521 Y126.537
M204 S500
M205 X5 Y5
G1 F1200 X149.12 Y108.136 E37.45216
M204 S625
M205 X6 Y6
G0 F4285.7 X149.12 Y107.542
M204 S500
M205 X5 Y5
G1 F1200 X168.115 Y126.537 E37.92968
M204 S625
M205 X6 Y6
G0 F4285.7 X168.709 Y126.537
M204 S500
M205 X5 Y5
G1 F1200 X149.12 Y106.948 E38.42213
M204 S625
M205 X6 Y6
G0 F4285.7 X149.12 Y106.354
M204 S500
M205 X5 Y5
G1 F1200 X169.303 Y126.537 E38.92951
M204 S625
M205 X6 Y6
G0 F4285.7 X169.897 Y126.537
M204 S500
M205 X5 Y5
G1 F1200 X149.12 Y105.76 E39.45182
M204 S625
M205 X6 Y6
G0 F4285.7 X149.12 Y105.166
M204 S500
M205 X5 Y5
G1 F1200 X170.491 Y126.537 E39.98907
M204 S625
M205 X6 Y6
G0 F4285.7 X171.085 Y126.537
M204 S500
M205 X5 Y5
G1 F1200 X149.12 Y104.572 E40.54124
M204 S625
M205 X6 Y6
G0 F4285.7 X149.12 Y103.978
M204 S500
M205 X5 Y5
G1 F1200 X171.679 Y126.537 E41.10836
M204 S625
M205 X6 Y6
G0 F4285.7 X172.273 Y126.537
M204 S500
M205 X5 Y5
G1 F1200 X149.12 Y103.384 E41.6904
M204 S625
M205 X6 Y6
G0 F4285.7 X149.12 Y102.79
M204 S500
M205 X5 Y5
G1 F1200 X172.867 Y126.537 E42.28738
M204 S625
M205 X6 Y6
G0 F4285.7 X173.461 Y126.537
M204 S500
M205 X5 Y5
G1 F1200 X149.12 Y102.196 E42.89929
M204 S625
M205 X6 Y6
G0 F4285.7 X149.12 Y101.602
M204 S500
M205 X5 Y5
G1 F1200 X161.53 Y114.013 E43.21127
M204 S625
M205 X6 Y6
G0 F4285.7 X161.646 Y114.128
M204 S500
M205 X5 Y5
G1 F1200 X174.055 Y126.537 E43.52322
M204 S625
M205 X6 Y6
G0 F4285.7 X174.649 Y126.537
M204 S500
M205 X5 Y5
G1 F1200 X162.239 Y114.128 E43.83519
M204 S625
M205 X6 Y6
G0 F4285.7 X162.833 Y114.128
M204 S500
M205 X5 Y5
G1 F1200 X175.242 Y126.537 E44.14714
M204 S625
M205 X6 Y6
G0 F4285.7 X175.836 Y126.537
M204 S500
M205 X5 Y5
G1 F1200 X163.427 Y114.128 E44.45909
M204 S625
M205 X6 Y6
G0 F4285.7 X164.021 Y114.128
M204 S500
M205 X5 Y5
G1 F1200 X176.43 Y126.537 E44.77104
M204 S625
M205 X6 Y6
G0 F4285.7 X177.024 Y126.537
M204 S500
M205 X5 Y5
G1 F1200 X164.615 Y114.128 E45.08299
M204 S625
M205 X6 Y6
G0 F4285.7 X165.209 Y114.128
M204 S500
M205 X5 Y5
G1 F1200 X177.618 Y126.537 E45.39494
M204 S625
M205 X6 Y6
G0 F4285.7 X178.212 Y126.537
M204 S500
M205 X5 Y5
G1 F1200 X165.803 Y114.128 E45.70689
M204 S625
M205 X6 Y6
G0 F4285.7 X166.397 Y114.128
M204 S500
M205 X5 Y5
G1 F1200 X178.806 Y126.537 E46.01884
M204 S625
M205 X6 Y6
G0 F4285.7 X179.03 Y126.166
M204 S500
M205 X5 Y5
G1 F1200 X166.991 Y114.128 E46.32147
M204 S625
M205 X6 Y6
G0 F4285.7 X167.585 Y114.128
M204 S500
M205 X5 Y5
G1 F1200 X179.03 Y125.572 E46.60918
M204 S625
M205 X6 Y6
G0 F4285.7 X179.03 Y124.979
M204 S500
M205 X5 Y5
G1 F1200 X168.179 Y114.128 E46.88196
M204 S625
M205 X6 Y6
G0 F4285.7 X168.773 Y114.128
M204 S500
M205 X5 Y5
G1 F1200 X179.03 Y124.385 E47.13981
M204 S625
M205 X6 Y6
G0 F4285.7 X179.03 Y123.791
M204 S500
M205 X5 Y5
G1 F1200 X169.367 Y114.128 E47.38273
M204 S625
M205 X6 Y6
G0 F4285.7 X169.961 Y114.128
M204 S500
M205 X5 Y5
G1 F1200 X179.03 Y123.197 E47.61072
M204 S625
M205 X6 Y6
G0 F4285.7 X179.03 Y122.603
M204 S500
M205 X5 Y5
G1 F1200 X170.555 Y114.128 E47.82377
M204 S625
M205 X6 Y6
G0 F4285.7 X171.149 Y114.128
M204 S500
M205 X5 Y5
G1 F1200 X179.03 Y122.009 E48.02189
M204 S625
M205 X6 Y6
G0 F4285.7 X179.03 Y121.415
M204 S500
M205 X5 Y5
G1 F1200 X171.743 Y114.128 E48.20508
M204 S625
M205 X6 Y6
G0 F4285.7 X172.337 Y114.128
M204 S500
M205 X5 Y5
G1 F1200 X179.03 Y120.821 E48.37333
M204 S625
M205 X6 Y6
G0 F4285.7 X179.03 Y120.227
M204 S500
M205 X5 Y5
G1 F1200 X172.931 Y114.128 E48.52666
M204 S625
M205 X6 Y6
G0 F4285.7 X173.525 Y114.128
M204 S500
M205 X5 Y5
G1 F1200 X179.03 Y119.633 E48.66505
M204 S625
M205 X6 Y6
G0 F4285.7 X179.03 Y119.039
M204 S500
M205 X5 Y5
G1 F1200 X174.119 Y114.128 E48.7885
M204 S625
M205 X6 Y6
G0 F4285.7 X174.713 Y114.128
M204 S500
M205 X5 Y5
G1 F1200 X179.03 Y118.445 E48.89703
M204 S625
M205 X6 Y6
G0 F4285.7 X179.03 Y117.851
M204 S500
M205 X5 Y5
G1 F1200 X175.307 Y114.128 E48.99062
M204 S625
M205 X6 Y6
G0 F4285.7 X175.901 Y114.128
M204 S500
M205 X5 Y5
G1 F1200 X179.03 Y117.257 E49.06928
M204 S625
M205 X6 Y6
G0 F4285.7 X179.03 Y116.663
M204 S500
M205 X5 Y5
