;START_OF_HEADER
;HEADER_VERSION:0.1
;FLAVOR:Griffin
;GENERATOR.NAME:Cura_SteamEngine
;GENERATOR.VERSION:2.7.0
;GENERATOR.BUILD_DATE:2017-08-30
;TARGET_MACHINE.NAME:Ultimaker 3
;EXTRUDER_TRAIN.0.INITIAL_TEMPERATURE:100
;EXTRUDER_TRAIN.0.MATERIAL.VOLUME_USED:1768
;EXTRUDER_TRAIN.0.MATERIAL.GUID:506c9f0d-e3aa-4bd4-b2d2-23e2425b1aa9
;EXTRUDER_TRAIN.0.NOZZLE.DIAMETER:0.4
;EXTRUDER_TRAIN.0.NOZZLE.NAME:AA 0.4
;EXTRUDER_TRAIN.1.INITIAL_TEMPERATURE:220
;EXTRUDER_TRAIN.1.MATERIAL.VOLUME_USED:1181
;EXTRUDER_TRAIN.1.MATERIAL.GUID:86a89ceb-4159-47f6-ab97-e9953803d70f
;EXTRUDER_TRAIN.1.NOZZLE.DIAMETER:0.4
;EXTRUDER_TRAIN.1.NOZZLE.NAME:BB 0.4
;BUILD_PLATE.INITIAL_TEMPERATURE:50
;PRINT.TIME:4017
;PRINT.SIZE.MIN.X:9
;PRINT.SIZE.MIN.Y:6
;PRINT.SIZE.MIN.Z:0.27
;PRINT.SIZE.MAX.X:213
;PRINT.SIZE.MAX.Y:207
;PRINT.SIZE.MAX.Z:21.47
;END_OF_HEADER
;Generated with Cura_SteamEngine 2.7.0

T0
T1
G92 E0

M109 S220
G0 F15000 X204 Y6 Z2
G280
G1 F1500 E-2
;LAYER_COUNT:213
;LAYER:0
M107
M204 S625
M205 X6 Y6
G0 F8571.4 X115.228 Y64.58 Z0.27
G0 X114.911 Y64.209
M204 S500
M205 X5 Y5
;TYPE:SKIRT
G1 F900 E0
G1 F1200 X115.228 Y64.58 E0.00723
G1 X115.48 Y64.997 E0.01445
G1 X115.661 Y65.449 E0.02166
G1 X115.766 Y65.925 E0.02888
G1 X115.793 Y66.32 E0.03474
G1 X115.798 Y69.626 E0.08372
G1 X115.759 Y70.111 E0.09092
G1 X115.641 Y70.584 E0.09815
G1 X115.447 Y71.032 E0.10538
G1 X115.183 Y71.441 E0.11259
G1 X114.936 Y71.724 E0.11815
G1 X113.083 Y73.594 E0.15715
G1 X112.713 Y73.911 E0.16437
G1 X112.296 Y74.163 E0.17159
G1 X111.843 Y74.344 E0.17881
G1 X111.367 Y74.448 E0.18603
G1 X110.97 Y74.475 E0.19192
G1 X106.031 Y74.475 E0.26509
G1 X104.881 Y74.948 E0.28351
G1 X104.417 Y75.096 E0.29072
G1 X103.935 Y75.166 E0.29794
G1 X103.447 Y75.157 E0.30517
G1 X103.225 Y75.115 E0.30851
G1 X103.225 Y138.215 E1.24323
G1 X103.491 Y138.215 E1.24717
G1 X103.972 Y138.294 E1.25439
G1 X104.434 Y138.451 E1.26162
G1 X104.864 Y138.681 E1.26885
G1 X105.25 Y138.978 E1.27606
G1 X105.583 Y139.334 E1.28328
G1 X105.853 Y139.74 E1.2905
G1 X106.053 Y140.184 E1.29772
G1 X106.178 Y140.655 E1.30494
G1 X106.225 Y141.18 E1.31274
G1 X106.225 Y146.699 E1.3945
G1 X106.185 Y147.185 E1.40172
G1 X106.066 Y147.658 E1.40895
G1 X105.872 Y148.105 E1.41617
G1 X105.607 Y148.514 E1.42339
G1 X105.354 Y148.803 E1.42908
G1 X103.532 Y150.625 E1.46724
G1 X103.16 Y150.94 E1.47447
G1 X102.742 Y151.19 E1.48168
G1 X102.288 Y151.369 E1.48891
G1 X101.812 Y151.471 E1.49612
G1 X101.428 Y151.496 E1.50182
G1 X98.072 Y151.496 E1.55153
G1 X97.586 Y151.456 E1.55876
G1 X97.113 Y151.337 E1.56598
G1 X96.666 Y151.143 E1.5732
G1 X96.257 Y150.878 E1.58042
G1 X95.968 Y150.625 E1.58611
G1 X94.146 Y148.803 E1.62428
G1 X93.831 Y148.431 E1.6315
G1 X93.581 Y148.013 E1.63872
G1 X93.402 Y147.559 E1.64594
G1 X93.3 Y147.083 E1.65316
G1 X93.275 Y146.699 E1.65886
G1 X93.275 Y141.183 E1.74057
G1 X93.315 Y140.697 E1.74779
G1 X93.434 Y140.224 E1.75502
G1 X93.628 Y139.777 E1.76223
G1 X93.893 Y139.368 E1.76945
G1 X94.221 Y139.008 E1.77667
G1 X94.603 Y138.705 E1.78389
G1 X95.03 Y138.47 E1.79111
G1 X95.489 Y138.307 E1.79832
G1 X95.969 Y138.221 E1.80555
G1 X96.275 Y138.217 E1.81008
G1 X96.275 Y134.734 E1.86168
G1 X96.016 Y134.475 E1.8671
G1 X90.248 Y134.474 E1.95255
G1 X89.854 Y134.448 E1.95839
G1 X88.551 Y134.274 E1.97787
G1 X88.075 Y134.17 E1.98509
G1 X87.8 Y134.071 E1.98941
G1 X86.596 Y133.569 E2.00874
G1 X86.163 Y133.345 E2.01596
G1 X85.926 Y133.18 E2.02024
G1 X84.891 Y132.383 E2.03959
G1 X84.53 Y132.055 E2.04681
G1 X84.34 Y131.83 E2.05118
G1 X83.55 Y130.794 E2.07048
G1 X83.288 Y130.383 E2.0777
G1 X83.165 Y130.124 E2.08194
G1 X82.668 Y128.918 E2.10127
G1 X82.52 Y128.453 E2.10849
G1 X82.469 Y128.165 E2.11283
G1 X82.302 Y126.872 E2.13214
G1 X82.279 Y126.385 E2.13936
G1 X82.303 Y126.099 E2.14361
G1 X82.475 Y124.805 E2.16295
G1 X82.579 Y124.329 E2.17017
G1 X82.678 Y124.052 E2.17452
G1 X83.181 Y122.846 E2.19388
G1 X83.405 Y122.413 E2.2011
G1 X83.569 Y122.177 E2.20536
G1 X84.364 Y121.144 E2.22467
G1 X84.692 Y120.783 E2.23189
G1 X84.917 Y120.593 E2.23626
G1 X85.953 Y119.802 E2.25557
G1 X86.363 Y119.539 E2.26278
G1 X86.624 Y119.417 E2.26705
G1 X87.832 Y118.919 E2.2864
G1 X88.296 Y118.77 E2.29362
G1 X88.581 Y118.719 E2.29791
G1 X89.875 Y118.55 E2.31724
G1 X90.26 Y118.525 E2.32296
G1 X94.275 Y118.525 E2.38243
G1 X94.275 Y94.475 E2.73869
G1 X90.248 Y94.474 E2.79835
G1 X89.854 Y94.448 E2.8042
G1 X88.551 Y94.274 E2.82367
G1 X88.075 Y94.17 E2.83089
G1 X87.8 Y94.071 E2.83522
G1 X86.596 Y93.569 E2.85454
G1 X86.163 Y93.345 E2.86176
G1 X85.926 Y93.18 E2.86604
G1 X84.891 Y92.383 E2.88539
G1 X84.53 Y92.055 E2.89262
G1 X84.34 Y91.83 E2.89698
G1 X83.55 Y90.794 E2.91628
G1 X83.288 Y90.383 E2.9235
G1 X83.165 Y90.124 E2.92774
G1 X82.668 Y88.918 E2.94707
G1 X82.52 Y88.453 E2.9543
G1 X82.469 Y88.165 E2.95863
G1 X82.302 Y86.872 E2.97794
G1 X82.279 Y86.385 E2.98516
G1 X82.303 Y86.099 E2.98941
G1 X82.475 Y84.805 E3.00875
G1 X82.579 Y84.329 E3.01597
G1 X82.678 Y84.052 E3.02033
G1 X83.181 Y82.846 E3.03968
G1 X83.405 Y82.413 E3.0469
G1 X83.569 Y82.177 E3.05116
G1 X84.364 Y81.144 E3.07047
G1 X84.692 Y80.783 E3.0777
G1 X84.917 Y80.593 E3.08206
G1 X85.953 Y79.802 E3.10137
G1 X86.363 Y79.539 E3.10858
G1 X86.624 Y79.417 E3.11285
G1 X87.832 Y78.919 E3.13221
G1 X88.296 Y78.77 E3.13942
G1 X88.581 Y78.719 E3.14371
G1 X89.875 Y78.55 E3.16305
G1 X90.26 Y78.525 E3.16876
G1 X94.284 Y78.525 E3.22837
G1 X94.302 Y72.215 E3.32184
G1 X94.343 Y71.73 E3.32905
G1 X94.463 Y71.257 E3.33628
G1 X94.659 Y70.811 E3.3435
G1 X94.661 Y70.807 E3.34356
G1 X94.357 Y70.596 E3.34904
G1 X94.007 Y70.256 E3.35627
G1 X93.718 Y69.863 E3.3635
G1 X93.497 Y69.429 E3.37071
G1 X93.35 Y68.964 E3.37794
G1 X93.275 Y68.301 E3.38782
G1 X93.275 Y66.334 E3.41696
G1 X93.315 Y65.848 E3.42418
G1 X93.434 Y65.375 E3.43141
G1 X93.628 Y64.928 E3.43863
G1 X93.893 Y64.519 E3.44585
G1 X94.146 Y64.23 E3.45154
G1 X95.98 Y62.396 E3.48996
G1 X96.352 Y62.081 E3.49718
G1 X96.77 Y61.831 E3.50439
G1 X97.224 Y61.652 E3.51162
G1 X97.7 Y61.55 E3.51883
G1 X98.084 Y61.525 E3.52453
G1 X110.975 Y61.525 E3.71549
G1 X111.461 Y61.565 E3.72271
G1 X111.934 Y61.684 E3.72994
G1 X112.381 Y61.878 E3.73716
G1 X112.79 Y62.143 E3.74438
G1 X113.068 Y62.385 E3.74984
G1 X114.911 Y64.209 E3.78825
M204 S625
M205 X6 Y6
G0 F8571.4 X114.665 Y64.458
M204 S500
M205 X5 Y5
G1 F1200 X114.961 Y64.807 E3.79503
G1 X115.191 Y65.203 E3.80181
G1 X115.35 Y65.632 E3.80859
G1 X115.432 Y66.083 E3.81538
G1 X115.443 Y66.32 E3.81889
G1 X115.448 Y69.626 E3.86787
G1 X115.409 Y70.082 E3.87464
G1 X115.291 Y70.525 E3.88144
G1 X115.098 Y70.94 E3.88822
G1 X114.688 Y71.478 E3.89824
G1 X112.835 Y73.348 E3.93723
G1 X112.485 Y73.644 E3.94402
G1 X112.09 Y73.874 E3.95079
G1 X111.66 Y74.033 E3.95759
G1 X111.21 Y74.114 E3.96436
G1 X110.97 Y74.125 E3.96792
G1 X105.964 Y74.125 E4.04207
G1 X104.748 Y74.625 E4.06155
G1 X104.311 Y74.761 E4.06833
G1 X103.857 Y74.82 E4.07511
G1 X103.4 Y74.799 E4.08189
G1 X102.953 Y74.698 E4.08868
G1 X102.875 Y74.665 E4.08993
G1 X102.875 Y138.591 E5.03689
G1 X103.172 Y138.556 E5.04132
G1 X103.629 Y138.582 E5.0481
G1 X104.074 Y138.688 E5.05487
G1 X104.495 Y138.869 E5.06166
G1 X104.877 Y139.12 E5.06843
G1 X105.21 Y139.434 E5.07521
G1 X105.484 Y139.802 E5.08201
G1 X105.689 Y140.211 E5.08879
G1 X105.821 Y140.649 E5.09556
G1 X105.875 Y141.18 E5.10347
G1 X105.875 Y146.699 E5.18522
G1 X105.835 Y147.155 E5.192
G1 X105.717 Y147.597 E5.19878
G1 X105.523 Y148.012 E5.20557
G1 X105.106 Y148.555 E5.21571
G1 X103.284 Y150.377 E5.25388
G1 X102.933 Y150.671 E5.26066
G1 X102.537 Y150.9 E5.26744
G1 X102.107 Y151.057 E5.27422
G1 X101.428 Y151.146 E5.28436
G1 X98.072 Y151.146 E5.33408
G1 X97.616 Y151.106 E5.34086
G1 X97.174 Y150.988 E5.34763
G1 X96.759 Y150.794 E5.35442
G1 X96.216 Y150.377 E5.36456
G1 X94.394 Y148.555 E5.40273
G1 X94.1 Y148.204 E5.40951
G1 X93.871 Y147.808 E5.41629
G1 X93.714 Y147.378 E5.42307
G1 X93.625 Y146.699 E5.43322
G1 X93.625 Y141.183 E5.51493
G1 X93.665 Y140.727 E5.52171
G1 X93.783 Y140.285 E5.52848
G1 X93.977 Y139.87 E5.53527
G1 X94.24 Y139.495 E5.54205
G1 X94.564 Y139.171 E5.54884
G1 X94.939 Y138.909 E5.55562
G1 X95.354 Y138.716 E5.5624
G1 X95.796 Y138.598 E5.56917
G1 X96.252 Y138.558 E5.57596
G1 X96.625 Y138.591 E5.5815
G1 X96.625 Y134.588 E5.6408
G1 X96.162 Y134.125 E5.6505
G1 X90.248 Y134.124 E5.73811
G1 X89.901 Y134.101 E5.74326
G1 X88.598 Y133.927 E5.76273
G1 X88.151 Y133.827 E5.76952
G1 X87.935 Y133.748 E5.77292
G1 X86.731 Y133.246 E5.79225
G1 X86.139 Y132.903 E5.80238
G1 X85.104 Y132.106 E5.82173
G1 X84.767 Y131.796 E5.82851
G1 X84.619 Y131.618 E5.83194
G1 X83.829 Y130.582 E5.85124
G1 X83.489 Y129.99 E5.86136
G1 X82.992 Y128.784 E5.88068
G1 X82.855 Y128.347 E5.88746
G1 X82.816 Y128.12 E5.89087
G1 X82.649 Y126.827 E5.91019
G1 X82.65 Y126.145 E5.92029
G1 X82.822 Y124.851 E5.93963
G1 X82.922 Y124.404 E5.94641
G1 X83.001 Y124.187 E5.94983
G1 X83.504 Y122.981 E5.96919
G1 X83.847 Y122.39 E5.97931
G1 X84.642 Y121.357 E5.99862
G1 X84.952 Y121.02 E6.0054
G1 X85.129 Y120.872 E6.00882
G1 X86.165 Y120.081 E6.02813
G1 X86.758 Y119.74 E6.03826
G1 X87.966 Y119.242 E6.05762
G1 X88.626 Y119.066 E6.06774
G1 X89.92 Y118.897 E6.08707
G1 X90.26 Y118.875 E6.09212
G1 X94.625 Y118.875 E6.15678
G1 X94.625 Y94.125 E6.5234
G1 X90.248 Y94.124 E6.58824
G1 X89.901 Y94.101 E6.59339
G1 X88.598 Y93.927 E6.61287
G1 X88.151 Y93.827 E6.61965
G1 X87.935 Y93.748 E6.62306
G1 X86.731 Y93.246 E6.64238
G1 X86.139 Y92.903 E6.65252
G1 X85.104 Y92.106 E6.67187
G1 X84.767 Y91.796 E6.67865
G1 X84.619 Y91.618 E6.68208
G1 X83.829 Y90.582 E6.70138
G1 X83.489 Y89.99 E6.71149
G1 X82.992 Y88.784 E6.73082
G1 X82.855 Y88.347 E6.7376
G1 X82.816 Y88.12 E6.74101
G1 X82.649 Y86.827 E6.76032
G1 X82.65 Y86.145 E6.77043
G1 X82.822 Y84.851 E6.78976
G1 X82.922 Y84.404 E6.79655
G1 X83.001 Y84.187 E6.79997
G1 X83.504 Y82.981 E6.81933
G1 X83.847 Y82.39 E6.82945
G1 X84.642 Y81.357 E6.84876
G1 X84.952 Y81.02 E6.85554
G1 X85.129 Y80.872 E6.85896
G1 X86.165 Y80.081 E6.87827
G1 X86.758 Y79.74 E6.8884
G1 X87.966 Y79.242 E6.90776
G1 X88.626 Y79.066 E6.91787
G1 X89.92 Y78.897 E6.93721
G1 X90.26 Y78.875 E6.94225
G1 X94.633 Y78.875 E7.00703
G1 X94.652 Y72.216 E7.10567
G1 X94.693 Y71.76 E7.11246
G1 X94.813 Y71.319 E7.11923
G1 X95.008 Y70.904 E7.12602
G1 X95.161 Y70.687 E7.12995
G1 X95.141 Y70.68 E7.13026
G1 X94.745 Y70.452 E7.13703
G1 X94.394 Y70.157 E7.14383
G1 X94.1 Y69.807 E7.1506
G1 X93.871 Y69.41 E7.15739
G1 X93.714 Y68.98 E7.16417
G1 X93.625 Y68.301 E7.17431
G1 X93.625 Y66.334 E7.20345
G1 X93.665 Y65.878 E7.21023
G1 X93.783 Y65.436 E7.21701
G1 X93.977 Y65.021 E7.22379
G1 X94.394 Y64.478 E7.23393
G1 X96.228 Y62.644 E7.27236
G1 X96.579 Y62.35 E7.27914
G1 X96.975 Y62.121 E7.28591
G1 X97.405 Y61.964 E7.29269
G1 X98.084 Y61.875 E7.30284
G1 X110.975 Y61.875 E7.4938
G1 X111.431 Y61.915 E7.50058
G1 X111.873 Y62.033 E7.50736
G1 X112.288 Y62.227 E7.51414
G1 X112.822 Y62.634 E7.52409
G1 X114.665 Y64.458 E7.5625
M204 S625
M205 X6 Y6
G0 F8571.4 X114.418 Y64.707
M204 S500
M205 X5 Y5
G1 F1200 X114.692 Y65.034 E7.56882
G1 X114.9 Y65.406 E7.57513
G1 X115.034 Y65.81 E7.58144
G1 X115.093 Y66.321 E7.58906
G1 X115.098 Y69.627 E7.63803
G1 X115.059 Y70.051 E7.64434
G1 X114.941 Y70.46 E7.65064
G1 X114.749 Y70.841 E7.65696
G1 X114.439 Y71.231 E7.66434
G1 X112.586 Y73.101 E7.70334
G1 X112.259 Y73.375 E7.70966
G1 X111.887 Y73.582 E7.71597
G1 X111.482 Y73.717 E7.72229
G1 X110.97 Y73.775 E7.72992
G1 X105.894 Y73.775 E7.80511
G1 X104.615 Y74.301 E7.8256
G1 X104.208 Y74.425 E7.8319
G1 X103.784 Y74.472 E7.83822
G1 X103.359 Y74.438 E7.84454
G1 X102.948 Y74.326 E7.85085
G1 X102.565 Y74.139 E7.85716
G1 X102.525 Y74.109 E7.8579
G1 X102.525 Y139.026 E8.81954
G1 X102.904 Y138.931 E8.82533
G1 X103.33 Y138.906 E8.83165
G1 X103.752 Y138.961 E8.83795
G1 X104.157 Y139.094 E8.84427
G1 X104.53 Y139.299 E8.85057
G1 X104.859 Y139.571 E8.8569
G1 X105.13 Y139.899 E8.8632
G1 X105.336 Y140.273 E8.86952
G1 X105.469 Y140.678 E8.87584
G1 X105.525 Y141.18 E8.88332
G1 X105.525 Y146.699 E8.96507
G1 X105.485 Y147.123 E8.97138
G1 X105.367 Y147.533 E8.9777
G1 X105.174 Y147.913 E8.98402
G1 X104.859 Y148.308 E8.9915
G1 X103.037 Y150.13 E9.02967
G1 X102.708 Y150.401 E9.03598
G1 X102.335 Y150.607 E9.0423
G1 X101.93 Y150.74 E9.04861
G1 X101.428 Y150.796 E9.05609
G1 X98.072 Y150.796 E9.10581
G1 X97.648 Y150.756 E9.11212
G1 X97.238 Y150.638 E9.11844
G1 X96.858 Y150.445 E9.12475
G1 X96.463 Y150.13 E9.13223
G1 X94.641 Y148.308 E9.1704
G1 X94.37 Y147.979 E9.17672
G1 X94.164 Y147.606 E9.18303
G1 X94.031 Y147.201 E9.18934
G1 X93.975 Y146.699 E9.19683
G1 X93.975 Y141.183 E9.27854
G1 X94.015 Y140.759 E9.28484
G1 X94.133 Y140.349 E9.29116
G1 X94.326 Y139.969 E9.29748
G1 X94.586 Y139.632 E9.30378
G1 X94.904 Y139.349 E9.31009
G1 X95.27 Y139.13 E9.31641
G1 X95.67 Y138.983 E9.32272
G1 X96.091 Y138.914 E9.32904
G1 X96.517 Y138.924 E9.33535
G1 X96.933 Y139.013 E9.34165
G1 X96.975 Y139.031 E9.34233
G1 X96.975 Y134.444 E9.41028
G1 X96.306 Y133.775 E9.42429
G1 X90.248 Y133.774 E9.51403
G1 X89.947 Y133.754 E9.5185
G1 X88.644 Y133.58 E9.53797
G1 X88.07 Y133.425 E9.54678
G1 X86.866 Y132.923 E9.56611
G1 X86.353 Y132.626 E9.57489
G1 X85.318 Y131.829 E9.59424
G1 X84.897 Y131.405 E9.60309
G1 X84.107 Y130.369 E9.62239
G1 X83.813 Y129.857 E9.63113
G1 X83.316 Y128.651 E9.65046
G1 X83.163 Y128.075 E9.65928
G1 X82.996 Y126.782 E9.6786
G1 X82.997 Y126.191 E9.68735
G1 X83.169 Y124.897 E9.70669
G1 X83.324 Y124.321 E9.71552
G1 X83.827 Y123.115 E9.73488
G1 X84.124 Y122.603 E9.74365
G1 X84.919 Y121.57 E9.76296
G1 X85.341 Y121.15 E9.77178
G1 X86.377 Y120.359 E9.79109
G1 X86.891 Y120.064 E9.79987
G1 X88.099 Y119.566 E9.81922
G1 X88.671 Y119.413 E9.82799
G1 X89.965 Y119.244 E9.84732
G1 X90.26 Y119.225 E9.8517
G1 X94.975 Y119.225 E9.92155
G1 X94.975 Y93.775 E10.29855
G1 X90.248 Y93.774 E10.36857
G1 X89.947 Y93.754 E10.37304
G1 X88.644 Y93.58 E10.39251
G1 X88.07 Y93.425 E10.40132
G1 X86.866 Y92.923 E10.42064
G1 X86.353 Y92.626 E10.42942
G1 X85.318 Y91.829 E10.44877
G1 X84.897 Y91.405 E10.45762
G1 X84.107 Y90.369 E10.47692
G1 X83.813 Y89.857 E10.48567
G1 X83.316 Y88.651 E10.50499
G1 X83.163 Y88.075 E10.51382
G1 X82.996 Y86.782 E10.53313
G1 X82.997 Y86.191 E10.54189
G1 X83.169 Y84.897 E10.56122
G1 X83.324 Y84.321 E10.57006
G1 X83.827 Y83.115 E10.58942
G1 X84.124 Y82.603 E10.59818
G1 X84.919 Y81.57 E10.61749
G1 X85.341 Y81.15 E10.62631
G1 X86.377 Y80.359 E10.64562
G1 X86.891 Y80.064 E10.6544
G1 X88.099 Y79.566 E10.67376
G1 X88.671 Y79.413 E10.68253
G1 X89.965 Y79.244 E10.70186
G1 X90.26 Y79.225 E10.70624
G1 X94.982 Y79.225 E10.77619
G1 X95.002 Y72.217 E10.88
G1 X95.043 Y71.793 E10.88631
G1 X95.163 Y71.384 E10.89262
G1 X95.356 Y71.005 E10.89892
G1 X95.683 Y70.601 E10.90662
G1 X95.77 Y70.516 E10.90842
G1 X95.493 Y70.446 E10.91266
G1 X95.106 Y70.268 E10.91897
G1 X94.76 Y70.02 E10.92527
G1 X94.465 Y69.712 E10.93159
G1 X94.233 Y69.354 E10.93791
G1 X94.072 Y68.96 E10.94421
G1 X93.988 Y68.542 E10.95053
G1 X93.975 Y68.301 E10.9541
G1 X93.975 Y66.334 E10.98324
G1 X94.015 Y65.91 E10.98955
G1 X94.133 Y65.5 E10.99587
G1 X94.326 Y65.12 E11.00218
G1 X94.641 Y64.725 E11.00967
G1 X96.475 Y62.891 E11.04809
G1 X96.804 Y62.62 E11.0544
G1 X97.177 Y62.414 E11.06072
G1 X97.582 Y62.281 E11.06703
G1 X98.084 Y62.225 E11.07451
G1 X110.975 Y62.225 E11.26547
G1 X111.399 Y62.265 E11.27178
G1 X111.809 Y62.383 E11.2781
G1 X112.189 Y62.576 E11.28441
G1 X112.575 Y62.883 E11.29172
G1 X114.418 Y64.707 E11.33013
M204 S625
M205 X6 Y6
G0 F8571.4 X114.172 Y64.956
M204 S500
M205 X5 Y5
G1 F1200 X114.421 Y65.258 E11.33593
G1 X114.604 Y65.605 E11.34174
G1 X114.712 Y65.982 E11.34755
G1 X114.743 Y66.321 E11.35259
