;START_OF_HEADER
;HEADER_VERSION:0.1
;FLAVOR:Griffin
;GENERATOR.NAME:Cura_SteamEngine
;GENERATOR.VERSION:2.7.0
;GENERATOR.BUILD_DATE:2017-08-30
;TARGET_MACHINE.NAME:Ultimaker 3
;EXTRUDER_TRAIN.0.INITIAL_TEMPERATURE:205
;EXTRUDER_TRAIN.0.MATERIAL.VOLUME_USED:15050
;EXTRUDER_TRAIN.0.MATERIAL.GUID:506c9f0d-e3aa-4bd4-b2d2-23e2425b1aa9
;EXTRUDER_TRAIN.0.NOZZLE.DIAMETER:0.4
;EXTRUDER_TRAIN.0.NOZZLE.NAME:AA 0.4
;BUILD_PLATE.INITIAL_TEMPERATURE:50
;PRINT.TIME:17050
;PRINT.SIZE.MIN.X:9
;PRINT.SIZE.MIN.Y:6
;PRINT.SIZE.MIN.Z:0.27
;PRINT.SIZE.MAX.X:204.325
;PRINT.SIZE.MAX.Y:195.325
;PRINT.SIZE.MAX.Z:2
;END_OF_HEADER
;Generated with Cura_SteamEngine 2.7.0

T0
G92 E0

M109 S205
G0 F15000 X9 Y6 Z2
G280
G1 F1500 E-6.5
;LAYER_COUNT:5
;LAYER:0
M107
M204 S625
M205 X6 Y6
G0 F4285.7 X203.7 Y194.7 Z0.27
M204 S500
M205 X5 Y5
;TYPE:WALL-INNER
G1 F1500 E0
G1 F1200 X29.3 Y194.7 E2.21438
G1 X29.3 Y20.3 E4.42876
G1 X203.7 Y20.3 E6.64314
G1 X203.7 Y194.7 E8.85751
M204 S625
M205 X6 Y6
G0 F4285.7 X142.897 Y140.517
M204 S500
M205 X5 Y5
G1 F1200 X143.006 Y140.335 E8.86021
G1 X143.084 Y140.142 E8.86285
G1 X143.155 Y139.826 E8.86696
G1 X143.189 Y139.209 E8.87481
G1 X143.161 Y138.597 E8.88259
G1 X143.077 Y138.226 E8.88742
G1 X142.931 Y137.946 E8.89143
G1 X142.702 Y137.723 E8.89549
G1 X142.415 Y137.588 E8.89951
G1 X142.054 Y137.537 E8.90414
G1 X141.692 Y137.626 E8.90888
G1 X141.275 Y137.807 E8.91465
G1 X140.515 Y138.05 E8.92478
G1 X140.07 Y138.117 E8.93049
G1 X139.862 Y138.125 E8.93314
G1 X139.682 Y138.117 E8.93542
G1 X139.545 Y138.089 E8.9372
G1 X139.528 Y138.086 E8.93742
G1 X139.446 Y138.058 E8.93852
G1 X139.395 Y138.024 E8.9393
G1 X139.37 Y137.979 E8.93995
G1 X139.359 Y137.885 E8.94115
G1 X139.45 Y137.81 E8.94235
G1 X139.465 Y137.802 E8.94257
G1 X139.687 Y137.674 E8.94582
G1 X140.723 Y137.26 E8.95999
G1 X141.655 Y136.854 E8.9729
G1 X142.193 Y136.551 E8.98074
G1 X142.643 Y136.21 E8.98791
G1 X143.052 Y135.776 E8.99548
G1 X143.338 Y135.35 E9.00199
G1 X143.552 Y134.89 E9.00843
G1 X143.69 Y134.417 E9.01469
G1 X143.76 Y133.851 E9.02193
G1 X143.765 Y133.593 E9.02521
G1 X143.72 Y132.951 E9.03338
G1 X143.587 Y132.385 E9.04076
G1 X143.36 Y131.836 E9.0483
G1 X143.082 Y131.385 E9.05503
G1 X142.724 Y130.965 E9.06204
G1 X142.28 Y130.593 E9.06939
G1 X141.947 Y130.379 E9.07442
G1 X141.317 Y130.074 E9.08331
G1 X140.453 Y129.823 E9.09473
G1 X139.362 Y129.694 E9.10868
G1 X139.027 Y129.689 E9.11293
G1 X137.841 Y129.785 E9.12804
G1 X136.873 Y130.01 E9.14066
G1 X136.578 Y130.114 E9.14463
G1 X136.341 Y130.211 E9.14788
G1 X136.026 Y130.372 E9.15238
G1 X135.876 Y130.467 E9.15463
G1 X135.722 Y130.592 E9.15715
G1 X135.588 Y130.754 E9.15982
G1 X135.502 Y130.894 E9.1619
G1 X135.402 Y131.106 E9.16488
G1 X135.319 Y131.405 E9.16882
G1 X135.267 Y131.886 E9.17496
G1 X135.262 Y132.215 E9.17914
G1 X135.298 Y132.874 E9.18752
G1 X135.386 Y133.271 E9.19268
G1 X135.552 Y133.578 E9.19712
G1 X135.783 Y133.802 E9.2012
G1 X136.069 Y133.937 E9.20522
G1 X136.418 Y133.984 E9.20969
G1 X136.744 Y133.92 E9.21391
G1 X136.944 Y133.842 E9.21663
G1 X137.296 Y133.662 E9.22165
G1 X137.974 Y133.383 E9.23096
G1 X138.498 Y133.245 E9.23784
G1 X139.003 Y133.208 E9.24427
G1 X139.262 Y133.225 E9.24757
G1 X139.415 Y133.254 E9.24954
G1 X139.445 Y133.259 E9.24993
G1 X139.575 Y133.305 E9.25168
G1 X139.633 Y133.335 E9.25251
G1 X139.661 Y133.359 E9.25298
G1 X139.667 Y133.411 E9.25364
G1 X139.63 Y133.449 E9.25393
G1 X139.605 Y133.468 E9.25402
G1 X139.531 Y133.524 E9.25434
G1 X139.504 Y133.538 E9.25473
G1 X139.261 Y133.669 E9.25823
G1 X138.315 Y134.04 E9.27113
G1 X137.37 Y134.453 E9.28423
G1 X136.833 Y134.762 E9.2921
G1 X136.37 Y135.115 E9.29949
G1 X136.006 Y135.495 E9.30617
G1 X135.716 Y135.91 E9.3126
G1 X135.591 Y136.177 E9.31634
G1 X135.473 Y136.432 E9.31991
G1 X135.46 Y136.459 E9.32029
G1 X135.328 Y136.947 E9.32671
G1 X135.264 Y137.568 E9.33464
G1 X135.262 Y137.756 E9.33702
G1 X135.287 Y138.077 E9.34111
G1 X135.31 Y138.362 E9.34474
G1 X135.444 Y138.901 E9.35179
G1 X135.65 Y139.385 E9.35847
G1 X135.94 Y139.851 E9.36544
G1 X136.324 Y140.279 E9.37274
G1 X136.758 Y140.631 E9.37984
G1 X137.389 Y140.99 E9.38905
G1 X138.166 Y141.265 E9.39952
G1 X139.106 Y141.427 E9.41163
G1 X139.749 Y141.454 E9.4198
G1 X140.916 Y141.356 E9.43467
G1 X141.716 Y141.183 E9.44507
G1 X141.999 Y141.088 E9.44886
G1 X142.291 Y140.969 E9.45286
G1 X142.457 Y140.887 E9.45521
G1 X142.615 Y140.79 E9.45756
G1 X142.76 Y140.669 E9.45996
G1 X142.897 Y140.517 E9.46256
M204 S625
M205 X6 Y6
G0 F4285.7 X141.647 Y140.931
G0 X140.877 Y141.098
G0 X139.743 Y141.192
G0 X139.134 Y141.167
G0 X138.232 Y141.012
G0 X137.498 Y140.752
G0 X136.906 Y140.415
G0 X136.504 Y140.089
G0 X136.15 Y139.694
G0 X135.882 Y139.264
G0 X135.135 Y137.565
M204 S500
M205 X5 Y5
G1 F1200 X135.136 Y137.552
G1 X135.223 Y136.932 E9.46567
G1 X135.293 Y136.435 E9.46857
G1 X135.305 Y136.354 E9.46883
G1 X135.314 Y136.073 E9.47173
G1 X135.328 Y135.65 E9.4771
G1 X135.267 Y134.599 E9.49047
G1 X135.05 Y133.52 E9.50445
G1 X134.748 Y132.679 E9.51579
G1 X134.349 Y131.955 E9.52629
G1 X133.886 Y131.36 E9.53586
G1 X133.365 Y130.866 E9.54498
G1 X132.745 Y130.443 E9.55451
G1 X132.012 Y130.092 E9.56483
G1 X131.186 Y129.843 E9.57578
G1 X130.136 Y129.706 E9.58922
G1 X129.614 Y129.689 E9.59586
G1 X128.691 Y129.739 E9.60759
G1 X127.782 Y129.905 E9.61933
G1 X127.027 Y130.167 E9.62947
G1 X126.375 Y130.514 E9.63885
G1 X125.81 Y130.938 E9.64782
G1 X125.315 Y131.453 E9.65689
G1 X124.915 Y132.041 E9.66592
G1 X124.602 Y132.688 E9.67505
G1 X124.323 Y133.615 E9.68734
G1 X124.159 Y134.854 E9.70321
G1 X124.141 Y135.494 E9.71134
G1 X124.202 Y136.535 E9.72458
G1 X124.425 Y137.643 E9.73893
G1 X124.741 Y138.497 E9.75049
G1 X125.152 Y139.23 E9.76116
G1 X125.59 Y139.782 E9.77011
G1 X126.15 Y140.304 E9.77983
G1 X126.79 Y140.731 E9.78959
G1 X127.536 Y141.078 E9.80004
G1 X128.373 Y141.316 E9.81109
G1 X129.417 Y141.439 E9.82444
G1 X129.854 Y141.452 E9.82999
G1 X130.771 Y141.405 E9.84165
G1 X131.684 Y141.239 E9.85343
G1 X132.465 Y140.971 E9.86391
G1 X133.109 Y140.632 E9.87315
G1 X133.638 Y140.239 E9.88152
G1 X134.119 Y139.739 E9.89033
G1 X134.524 Y139.163 E9.89927
G1 X134.851 Y138.489 E9.90878
G1 X134.998 Y138.011 E9.91513
G1 X135.092 Y137.704 E9.91798
G1 X135.135 Y137.565 E9.9185
M204 S625
M205 X6 Y6
G0 F4285.7 X135.008 Y134.633
G0 X134.798 Y133.591
G0 X134.51 Y132.787
G0 X134.131 Y132.099
G0 X133.692 Y131.536
G0 X133.201 Y131.069
G0 X132.614 Y130.67
G0 X131.917 Y130.336
G0 X131.131 Y130.098
G0 X129.617 Y129.95
G0 X128.722 Y129.999
G0 X123.626 Y130.917
M204 S500
M205 X5 Y5
G1 F1200 X123.537 Y130.611 E9.92255
G1 X123.345 Y130.331 E9.92686
G1 X123.082 Y130.134 E9.93103
G1 X122.86 Y130.032 E9.93413
G1 X122.598 Y129.959 E9.93759
G1 X122.083 Y129.893 E9.94418
G1 X121.574 Y129.881 E9.95064
G1 X120.779 Y129.923 E9.96075
G1 X120.496 Y129.976 E9.96441
G1 X120.282 Y130.043 E9.96725
G1 X120.063 Y130.148 E9.97034
G1 X119.809 Y130.349 E9.97445
G1 X119.617 Y130.641 E9.97889
G1 X119.542 Y130.951 E9.98294
G1 X119.539 Y144.307 E10.15252
G1 X119.581 Y144.59 E10.15615
G1 X119.732 Y144.889 E10.16041
G1 X119.98 Y145.136 E10.16485
G1 X120.182 Y145.253 E10.16781
G1 X120.41 Y145.345 E10.17094
G1 X120.741 Y145.424 E10.17526
G1 X121.413 Y145.478 E10.18382
G1 X121.61 Y145.478 E10.18632
G1 X122.415 Y145.428 E10.19656
G1 X122.717 Y145.359 E10.20049
G1 X122.992 Y145.253 E10.20423
G1 X123.187 Y145.137 E10.20712
G1 X123.412 Y144.918 E10.2111
G1 X123.573 Y144.639 E10.21519
G1 X123.631 Y144.32 E10.21931
G1 X123.626 Y130.917 E10.38949
M204 S625
M205 X6 Y6
G0 F4285.7 X122.948 Y130.359
G0 X122.545 Y130.215
G0 X121.578 Y130.142
G0 X120.559 Y130.23
G0 X118.602 Y130.744
M204 S500
M205 X5 Y5
G1 F1200 X118.469 Y130.475 E10.3933
G1 X118.315 Y130.298 E10.39628
G1 X118.161 Y130.177 E10.39876
G1 X117.976 Y130.073 E10.40146
G1 X117.745 Y129.988 E10.40458
G1 X117.313 Y129.91 E10.41016
G1 X116.601 Y129.881 E10.41921
G1 X115.801 Y129.922 E10.42938
G1 X115.527 Y129.972 E10.43291
G1 X115.315 Y130.034 E10.43572
G1 X115.091 Y130.14 E10.43886
G1 X114.829 Y130.342 E10.44307
G1 X114.637 Y130.634 E10.4475
G1 X114.557 Y130.943 E10.45156
G1 X114.553 Y136.121 E10.5173
G1 X114.536 Y136.594 E10.52331
G1 X114.502 Y136.854 E10.52664
G1 X114.444 Y137.071 E10.52949
G1 X114.36 Y137.258 E10.5321
G1 X114.295 Y137.356 E10.53359
G1 X114.247 Y137.408 E10.53449
G1 X114.2 Y137.445 E10.53525
G1 X114.126 Y137.487 E10.53633
G1 X114.037 Y137.519 E10.53753
G1 X113.933 Y137.54 E10.53887
G1 X113.803 Y137.548 E10.54053
G1 X113.647 Y137.533 E10.54252
G1 X113.537 Y137.503 E10.54397
G1 X113.347 Y137.412 E10.54664
G1 X113.079 Y137.228 E10.55077
G1 X112.596 Y136.78 E10.55913
G1 X112.51 Y136.684 E10.56077
G1 X112.505 Y130.905 E10.63415
G1 X112.408 Y130.595 E10.63827
G1 X112.235 Y130.351 E10.64207
G1 X112.076 Y130.211 E10.64476
G1 X111.904 Y130.104 E10.64733
G1 X111.71 Y130.022 E10.65
G1 X111.442 Y129.953 E10.65352
G1 X110.924 Y129.89 E10.66014
G1 X110.451 Y129.881 E10.66615
G1 X109.658 Y129.923 E10.67623
G1 X109.375 Y129.976 E10.67989
G1 X109.163 Y130.042 E10.68271
G1 X108.945 Y130.146 E10.68578
G1 X108.693 Y130.344 E10.68984
G1 X108.519 Y130.606 E10.69384
G1 X108.448 Y130.811 E10.69659
G1 X108.417 Y131.023 E10.69931
G1 X108.417 Y140.118 E10.81479
G1 X108.459 Y140.401 E10.81843
G1 X108.606 Y140.704 E10.8227
G1 X108.825 Y140.928 E10.82668
G1 X109.009 Y141.041 E10.82942
G1 X109.228 Y141.133 E10.83244
G1 X109.551 Y141.212 E10.83666
G1 X110.159 Y141.259 E10.8444
G1 X110.309 Y141.26 E10.84631
G1 X111.021 Y141.215 E10.85537
G1 X111.253 Y141.164 E10.85838
G1 X111.486 Y141.08 E10.86153
G1 X111.767 Y140.916 E10.86566
G1 X111.996 Y140.632 E10.87029
G1 X112.248 Y140.809 E10.8742
G1 X112.886 Y141.134 E10.88329
G1 X113.549 Y141.344 E10.89212
G1 X114.146 Y141.437 E10.89979
G1 X114.513 Y141.452 E10.90446
G1 X115.195 Y141.415 E10.91313
G1 X115.811 Y141.295 E10.9211
G1 X116.362 Y141.1 E10.92852
G1 X116.911 Y140.796 E10.93649
G1 X117.323 Y140.475 E10.94312
G1 X117.691 Y140.082 E10.94995
G1 X118.013 Y139.609 E10.95722
G1 X118.272 Y139.067 E10.96485
G1 X118.493 Y138.324 E10.97469
G1 X118.63 Y137.214 E10.98889
G1 X118.646 Y136.65 E10.99605
G1 X118.646 Y131.023 E11.0675
G1 X118.602 Y130.744 E11.07109
M204 S625
M205 X6 Y6
G0 F4285.7 X118.37 Y137.194
G0 X118.237 Y138.27
G0 X118.028 Y138.973
G0 X117.786 Y139.478
G0 X117.487 Y139.918
G0 X116.767 Y140.578
G0 X116.254 Y140.862
G0 X115.742 Y141.043
G0 X115.162 Y141.156
G0 X114.172 Y141.177
G0 X109.593 Y140.954
G0 X108.99 Y140.723
G0 X108.823 Y140.552
G0 X108.678 Y140.098
G0 X107.481 Y130.745
M204 S500
M205 X5 Y5
G1 F1200 X107.346 Y130.471 E11.07497
G1 X107.188 Y130.293 E11.07799
G1 X107.04 Y130.177 E11.08038
G1 X106.855 Y130.071 E11.08308
G1 X106.619 Y129.988 E11.08626
G1 X106.191 Y129.91 E11.09178
G1 X105.479 Y129.881 E11.10083
G1 X104.678 Y129.922 E11.11101
G1 X104.405 Y129.973 E11.11454
G1 X104.196 Y130.034 E11.11731
G1 X103.971 Y130.14 E11.12046
G1 X103.708 Y130.342 E11.12467
G1 X103.516 Y130.634 E11.12911
G1 X103.436 Y130.943 E11.13316
G1 X103.432 Y136.121 E11.19891
G1 X103.415 Y136.594 E11.20492
G1 X103.381 Y136.854 E11.20825
G1 X103.321 Y137.078 E11.21119
G1 X103.242 Y137.254 E11.21364
G1 X103.179 Y137.349 E11.21509
G1 X103.12 Y137.412 E11.21619
G1 X103.079 Y137.445 E11.21685
G1 X103.005 Y137.487 E11.21793
G1 X102.916 Y137.519 E11.21914
G1 X102.812 Y137.54 E11.22048
G1 X102.681 Y137.548 E11.22215
G1 X102.53 Y137.534 E11.22407
G1 X102.415 Y137.501 E11.22559
G1 X102.224 Y137.411 E11.22827
G1 X101.957 Y137.228 E11.23238
G1 X101.48 Y136.785 E11.24065
G1 X101.389 Y136.683 E11.24239
G1 X101.389 Y131.013 E11.31438
G1 X101.344 Y130.742 E11.31787
G1 X101.204 Y130.454 E11.32193
G1 X100.977 Y130.225 E11.32603
G1 X100.782 Y130.103 E11.32895
G1 X100.587 Y130.022 E11.33163
G1 X100.318 Y129.953 E11.33515
G1 X99.802 Y129.89 E11.34175
G1 X99.33 Y129.881 E11.34775
G1 X98.537 Y129.923 E11.35783
G1 X98.254 Y129.976 E11.36149
G1 X98.042 Y130.042 E11.36431
G1 X97.824 Y130.146 E11.36737
G1 X97.572 Y130.344 E11.37144
G1 X97.398 Y130.606 E11.37544
G1 X97.327 Y130.811 E11.37819
G1 X97.296 Y131.023 E11.38091
G1 X97.296 Y140.118 E11.49639
G1 X97.338 Y140.401 E11.50002
G1 X97.485 Y140.703 E11.50429
G1 X97.703 Y140.928 E11.50827
G1 X97.885 Y141.04 E11.51098
G1 X98.107 Y141.134 E11.51404
G1 X98.431 Y141.212 E11.51827
G1 X99.038 Y141.259 E11.526
G1 X99.188 Y141.26 E11.52791
G1 X99.9 Y141.215 E11.53697
G1 X100.132 Y141.164 E11.53998
G1 X100.365 Y141.08 E11.54313
G1 X100.646 Y140.916 E11.54726
G1 X100.873 Y140.63 E11.55189
G1 X101.127 Y140.809 E11.55584
G1 X101.765 Y141.134 E11.56493
G1 X102.428 Y141.344 E11.57376
G1 X103.025 Y141.437 E11.58143
G1 X103.392 Y141.452 E11.5861
G1 X104.074 Y141.415 E11.59477
G1 X104.69 Y141.295 E11.60274
G1 X105.241 Y141.1 E11.61016
G1 X105.792 Y140.795 E11.61815
G1 X106.212 Y140.463 E11.62495
G1 X106.57 Y140.082 E11.63159
G1 X106.892 Y139.609 E11.63886
G1 X107.151 Y139.067 E11.64648
G1 X107.372 Y138.324 E11.65633
G1 X107.509 Y137.214 E11.67053
G1 X107.525 Y136.65 E11.67769
G1 X107.525 Y131.022 E11.74915
G1 X107.481 Y130.745 E11.75271
M204 S625
M205 X6 Y6
G0 F4285.7 X107.249 Y137.194
G0 X107.116 Y138.27
G0 X106.907 Y138.973
G0 X106.665 Y139.478
G0 X106.366 Y139.919
G0 X105.647 Y140.577
G0 X105.133 Y140.862
G0 X104.621 Y141.043
G0 X104.041 Y141.156
G0 X103.051 Y141.177
G0 X98.472 Y140.954
G0 X97.867 Y140.723
G0 X97.59 Y140.322
G0 X96.212 Y131.013
M204 S500
M205 X5 Y5
G1 F1200 X96.164 Y130.737 E11.75627
G1 X96.03 Y130.467 E11.76009
G1 X95.87 Y130.285 E11.76317
G1 X95.707 Y130.163 E11.76576
G1 X95.523 Y130.065 E11.7684
G1 X95.287 Y129.983 E11.77158
G1 X94.835 Y129.906 E11.7774
G1 X94.159 Y129.881 E11.78599
G1 X93.36 Y129.923 E11.79615
G1 X93.077 Y129.976 E11.7998
G1 X92.865 Y130.042 E11.80262
G1 X92.647 Y130.146 E11.80569
G1 X92.395 Y130.344 E11.80976
G1 X92.199 Y130.638 E11.81424
G1 X92.121 Y130.965 E11.81851
G1 X92.119 Y140.099 E11.93449
G1 X92.16 Y140.365 E11.9379
G1 X92.297 Y140.658 E11.94201
G1 X92.522 Y140.887 E11.94609
G1 X92.69 Y140.995 E11.94862
G1 X92.704 Y141.004 E11.94883
G1 X92.709 Y141.006 E11.9489
G1 X92.818 Y141.059 E11.95044
G1 X92.827 Y141.063 E11.95057
G1 X92.861 Y141.08 E11.95105
G1 X92.95 Y141.108 E11.95223
G1 X93.081 Y141.151 E11.95399
G1 X93.073 Y141.153 E11.95409
G1 X92.924 Y141.206 E11.9561
G1 X92.919 Y141.207
G1 X92.835 Y141.251
G1 X92.82 Y141.258 E11.9563
G1 X92.703 Y141.321 E11.95798
G1 X92.695 Y141.327 E11.9581
G1 X92.507 Y141.465 E11.96106
G1 X92.35 Y141.63 E11.96396
G1 X92.202 Y141.844 E11.96726
G1 X92.069 Y142.142 E11.9714
G1 X91.985 Y142.437 E11.9753
G1 X91.937 Y142.846 E11.98053
G1 X91.927 Y143.114 E11.98393
G1 X91.938 Y143.422 E11.98784
G1 X91.968 Y143.709 E11.99151
G1 X92.058 Y144.07 E11.99623
G1 X92.146 Y144.301 E11.99937
G1 X92.275 Y144.524 E12.00264
G1 X92.419 Y144.71 E12.00563
G1 X92.591 Y144.867 E12.00859
G1 X92.776 Y144.992 E12.01142
G1 X93.029 Y145.113 E12.01498
G1 X93.381 Y145.216 E12.01964
G1 X93.836 Y145.276 E12.02547
G1 X94.176 Y145.287 E12.02978
G1 X94.522 Y145.274 E12.03418
G1 X94.822 Y145.243 E12.03801
G1 X95.141 Y145.172 E12.04216
G1 X95.416 Y145.072 E12.04588
G1 X95.647 Y144.944 E12.04923
G1 X95.848 Y144.787 E12.05247
G1 X96.005 Y144.615 E12.05542
G1 X96.143 Y144.408 E12.05858
G1 X96.266 Y144.115 E12.06262
G1 X96.35 Y143.808 E12.06666
G1 X96.398 Y143.394 E12.07195
G1 X96.404 Y143.162 E12.0749
G1 X96.393 Y142.85 E12.07886
G1 X96.339 Y142.456 E12.08391
G1 X96.245 Y142.133 E12.08818
G1 X96.141 Y141.901 E12.09141
G1 X96.011 Y141.698 E12.09447
G1 X95.853 Y141.516 E12.09753
G1 X95.664 Y141.366 E12.10059
G1 X95.494 Y141.265 E12.10311
G1 X95.463 Y141.247 E12.10356
