;START_OF_HEADER
;HEADER_VERSION:0.1
;FLAVOR:Griffin
;GENERATOR.NAME:Cura_SteamEngine
;GENERATOR.VERSION:2.7.0
;GENERATOR.BUILD_DATE:2017-08-30
;TARGET_MACHINE.NAME:Ultimaker 3
;EXTRUDER_TRAIN.0.INITIAL_TEMPERATURE:100
;EXTRUDER_TRAIN.0.MATERIAL.VOLUME_USED:970
;EXTRUDER_TRAIN.0.MATERIAL.GUID:506c9f0d-e3aa-4bd4-b2d2-23e2425b1aa9
;EXTRUDER_TRAIN.0.NOZZLE.DIAMETER:0.4
;EXTRUDER_TRAIN.0.NOZZLE.NAME:AA 0.4
;EXTRUDER_TRAIN.1.INITIAL_TEMPERATURE:220
;EXTRUDER_TRAIN.1.MATERIAL.VOLUME_USED:988
;EXTRUDER_TRAIN.1.MATERIAL.GUID:86a89ceb-4159-47f6-ab97-e9953803d70f
;EXTRUDER_TRAIN.1.NOZZLE.DIAMETER:0.4
;EXTRUDER_TRAIN.1.NOZZLE.NAME:BB 0.4
;BUILD_PLATE.INITIAL_TEMPERATURE:50
;PRINT.TIME:5493
;PRINT.SIZE.MIN.X:9
;PRINT.SIZE.MIN.Y:6
;PRINT.SIZE.MIN.Z:0.27
;PRINT.SIZE.MAX.X:213
;PRINT.SIZE.MAX.Y:207
;PRINT.SIZE.MAX.Z:13.01
;END_OF_HEADER
;Generated with Cura_SteamEngine 2.7.0

T0
T1
G92 E0

M109 S220
G0 F15000 X204 Y6 Z2
G280
G1 F1500 E-2
;LAYER_COUNT:180
;LAYER:0
M107
M204 S625
M205 X6 Y6
G0 F8571.4 X99.119 Y81.871 Z0.27
G0 X98.804 Y81.499
M204 S500
M205 X5 Y5
;TYPE:SKIRT
G1 F900 E0
G1 F1200 X99.119 Y81.871 E0.00722
G1 X99.369 Y82.289 E0.01444
G1 X99.548 Y82.743 E0.02166
G1 X99.65 Y83.219 E0.02888
G1 X99.675 Y83.603 E0.03458
G1 X99.675 Y95.397 E0.20928
G1 X99.635 Y95.883 E0.21651
G1 X99.516 Y96.356 E0.22373
G1 X99.322 Y96.803 E0.23095
G1 X99.057 Y97.212 E0.23817
G1 X98.804 Y97.501 E0.24386
G1 X98.701 Y97.604 E0.24602
G1 X98.329 Y97.919 E0.25324
G1 X97.911 Y98.169 E0.26045
G1 X97.457 Y98.348 E0.26768
G1 X96.981 Y98.45 E0.27489
G1 X96.597 Y98.475 E0.28059
G1 X96.003 Y98.475 E0.28939
G1 X95.517 Y98.435 E0.29662
G1 X95.044 Y98.316 E0.30384
G1 X94.597 Y98.122 E0.31106
G1 X94.497 Y98.057 E0.31283
G1 X94.311 Y98.169 E0.31604
G1 X93.857 Y98.348 E0.32327
G1 X93.381 Y98.45 E0.33048
G1 X92.997 Y98.475 E0.33618
G1 X92.403 Y98.475 E0.34498
G1 X91.917 Y98.435 E0.35221
G1 X91.444 Y98.316 E0.35943
G1 X90.997 Y98.122 E0.36665
G1 X90.588 Y97.857 E0.37387
G1 X90.299 Y97.604 E0.37956
G1 X90.196 Y97.501 E0.38172
G1 X89.881 Y97.129 E0.38894
G1 X89.631 Y96.711 E0.39615
G1 X89.452 Y96.257 E0.40338
G1 X89.35 Y95.781 E0.41059
G1 X89.325 Y95.397 E0.41629
G1 X89.325 Y83.603 E0.591
G1 X89.365 Y83.117 E0.59823
G1 X89.484 Y82.644 E0.60545
G1 X89.678 Y82.197 E0.61267
G1 X89.943 Y81.788 E0.61989
G1 X90.196 Y81.499 E0.62558
G1 X90.299 Y81.396 E0.62774
G1 X90.671 Y81.081 E0.63496
G1 X91.089 Y80.831 E0.64217
G1 X91.543 Y80.652 E0.6494
G1 X92.019 Y80.55 E0.65661
G1 X92.403 Y80.525 E0.66231
G1 X92.997 Y80.525 E0.67111
G1 X93.483 Y80.565 E0.67833
G1 X93.956 Y80.684 E0.68556
G1 X94.403 Y80.878 E0.69278
G1 X94.503 Y80.943 E0.69454
G1 X94.689 Y80.831 E0.69776
G1 X95.143 Y80.652 E0.70499
G1 X95.619 Y80.55 E0.7122
G1 X96.003 Y80.525 E0.7179
G1 X96.597 Y80.525 E0.7267
G1 X97.083 Y80.565 E0.73392
G1 X97.556 Y80.684 E0.74115
G1 X98.003 Y80.878 E0.74837
G1 X98.412 Y81.143 E0.75559
G1 X98.701 Y81.396 E0.76128
G1 X98.804 Y81.499 E0.76343
M204 S625
M205 X6 Y6
G0 F8571.4 X98.556 Y81.747
M204 S500
M205 X5 Y5
G1 F1200 X98.85 Y82.098 E0.77022
G1 X99.079 Y82.494 E0.77699
G1 X99.236 Y82.924 E0.78377
G1 X99.325 Y83.603 E0.79392
G1 X99.325 Y95.397 E0.96863
G1 X99.285 Y95.853 E0.97541
G1 X99.167 Y96.295 E0.98218
G1 X98.973 Y96.71 E0.98897
G1 X98.556 Y97.253 E0.99911
G1 X98.453 Y97.356 E1.00127
G1 X98.102 Y97.65 E1.00805
G1 X97.706 Y97.879 E1.01483
G1 X97.276 Y98.036 E1.02161
G1 X96.597 Y98.125 E1.03175
G1 X96.003 Y98.125 E1.04055
G1 X95.547 Y98.085 E1.04733
G1 X95.105 Y97.967 E1.05411
G1 X94.69 Y97.773 E1.0609
G1 X94.515 Y97.639 E1.06416
G1 X94.502 Y97.65 E1.06441
G1 X94.106 Y97.879 E1.07119
G1 X93.676 Y98.036 E1.07797
G1 X92.997 Y98.125 E1.08812
G1 X92.403 Y98.125 E1.09691
G1 X91.947 Y98.085 E1.1037
G1 X91.505 Y97.967 E1.11047
G1 X91.09 Y97.773 E1.11726
G1 X90.547 Y97.356 E1.1274
G1 X90.444 Y97.253 E1.12956
G1 X90.15 Y96.902 E1.13634
G1 X89.921 Y96.506 E1.14312
G1 X89.764 Y96.076 E1.1499
G1 X89.675 Y95.397 E1.16004
G1 X89.675 Y83.603 E1.33475
G1 X89.715 Y83.147 E1.34153
G1 X89.833 Y82.705 E1.34831
G1 X90.027 Y82.29 E1.35509
G1 X90.444 Y81.747 E1.36524
G1 X90.547 Y81.644 E1.36739
G1 X90.898 Y81.35 E1.37418
G1 X91.294 Y81.121 E1.38095
G1 X91.724 Y80.964 E1.38773
G1 X92.403 Y80.875 E1.39788
G1 X92.997 Y80.875 E1.40668
G1 X93.453 Y80.915 E1.41346
G1 X93.895 Y81.033 E1.42023
G1 X94.31 Y81.227 E1.42702
G1 X94.485 Y81.361 E1.43028
G1 X94.498 Y81.35 E1.43054
G1 X94.894 Y81.121 E1.43731
G1 X95.324 Y80.964 E1.44409
G1 X96.003 Y80.875 E1.45424
G1 X96.597 Y80.875 E1.46304
G1 X97.053 Y80.915 E1.46982
G1 X97.495 Y81.033 E1.4766
G1 X97.91 Y81.227 E1.48338
G1 X98.453 Y81.644 E1.49352
G1 X98.556 Y81.747 E1.49568
M204 S625
M205 X6 Y6
G0 F8571.4 X98.309 Y81.994
M204 S500
M205 X5 Y5
G1 F1200 X98.58 Y82.323 E1.502
G1 X98.786 Y82.696 E1.50831
G1 X98.919 Y83.101 E1.51462
G1 X98.975 Y83.603 E1.5221
G1 X98.975 Y95.397 E1.69681
G1 X98.935 Y95.821 E1.70312
G1 X98.817 Y96.231 E1.70944
G1 X98.624 Y96.611 E1.71575
G1 X98.309 Y97.006 E1.72324
G1 X98.206 Y97.109 E1.7254
G1 X97.877 Y97.38 E1.73171
G1 X97.504 Y97.586 E1.73802
G1 X97.099 Y97.719 E1.74434
G1 X96.597 Y97.775 E1.75182
G1 X96.003 Y97.775 E1.76062
G1 X95.579 Y97.735 E1.76693
G1 X95.169 Y97.617 E1.77325
G1 X94.789 Y97.424 E1.77956
G1 X94.502 Y97.195 E1.785
G1 X94.277 Y97.38 E1.78931
G1 X93.904 Y97.586 E1.79563
G1 X93.499 Y97.719 E1.80194
G1 X92.997 Y97.775 E1.80942
G1 X92.403 Y97.775 E1.81822
G1 X91.979 Y97.735 E1.82453
G1 X91.569 Y97.617 E1.83085
G1 X91.189 Y97.424 E1.83717
G1 X90.794 Y97.109 E1.84465
G1 X90.691 Y97.006 E1.84681
G1 X90.42 Y96.677 E1.85312
G1 X90.214 Y96.304 E1.85943
G1 X90.081 Y95.899 E1.86575
G1 X90.025 Y95.397 E1.87323
G1 X90.025 Y83.603 E2.04794
G1 X90.065 Y83.179 E2.05425
G1 X90.183 Y82.769 E2.06057
G1 X90.376 Y82.389 E2.06688
G1 X90.691 Y81.994 E2.07436
G1 X90.794 Y81.891 E2.07652
G1 X91.123 Y81.62 E2.08284
G1 X91.496 Y81.414 E2.08915
G1 X91.901 Y81.281 E2.09546
G1 X92.403 Y81.225 E2.10295
G1 X92.997 Y81.225 E2.11174
G1 X93.421 Y81.265 E2.11805
G1 X93.831 Y81.383 E2.12437
G1 X94.211 Y81.576 E2.13069
G1 X94.498 Y81.805 E2.13613
G1 X94.723 Y81.62 E2.14044
G1 X95.096 Y81.414 E2.14675
G1 X95.501 Y81.281 E2.15307
G1 X96.003 Y81.225 E2.16055
G1 X96.597 Y81.225 E2.16935
G1 X97.021 Y81.265 E2.17566
G1 X97.431 Y81.383 E2.18198
G1 X97.811 Y81.576 E2.18829
G1 X98.206 Y81.891 E2.19577
G1 X98.309 Y81.994 E2.19793
M204 S625
M205 X6 Y6
G0 F8571.4 X94.499 Y82.289
M204 S500
M205 X5 Y5
G1 F1200 X94.539 Y82.242 E2.19885
G1 X94.642 Y82.139 E2.201
G1 X94.946 Y81.891 E2.20682
G1 X95.293 Y81.711 E2.21261
G1 X95.671 Y81.604 E2.21843
G1 X96.003 Y81.575 E2.22336
G1 X96.597 Y81.575 E2.23216
G1 X96.987 Y81.615 E2.23797
G1 X97.361 Y81.733 E2.24378
G1 X97.703 Y81.924 E2.24958
G1 X97.958 Y82.139 E2.25452
G1 X98.061 Y82.242 E2.25668
G1 X98.309 Y82.546 E2.26249
G1 X98.489 Y82.893 E2.26828
G1 X98.596 Y83.271 E2.2741
G1 X98.625 Y83.603 E2.27904
G1 X98.625 Y95.397 E2.45375
G1 X98.585 Y95.787 E2.45955
G1 X98.467 Y96.161 E2.46536
G1 X98.276 Y96.503 E2.47117
G1 X98.061 Y96.758 E2.47611
G1 X97.958 Y96.861 E2.47827
G1 X97.654 Y97.109 E2.48408
G1 X97.307 Y97.289 E2.48987
G1 X96.929 Y97.396 E2.49569
G1 X96.597 Y97.425 E2.50062
G1 X96.003 Y97.425 E2.50942
G1 X95.613 Y97.385 E2.51523
G1 X95.239 Y97.267 E2.52104
G1 X94.897 Y97.076 E2.52684
G1 X94.642 Y96.861 E2.53178
G1 X94.539 Y96.758 E2.53394
G1 X94.501 Y96.711 E2.53484
G1 X94.461 Y96.758 E2.53575
G1 X94.358 Y96.861 E2.53791
G1 X94.054 Y97.109 E2.54372
G1 X93.707 Y97.289 E2.54951
G1 X93.329 Y97.396 E2.55533
G1 X92.997 Y97.425 E2.56027
G1 X92.403 Y97.425 E2.56907
G1 X92.013 Y97.385 E2.57487
G1 X91.639 Y97.267 E2.58068
G1 X91.297 Y97.076 E2.58649
G1 X91.042 Y96.861 E2.59143
G1 X90.939 Y96.758 E2.59358
G1 X90.691 Y96.454 E2.5994
G1 X90.511 Y96.107 E2.60519
G1 X90.404 Y95.729 E2.61101
G1 X90.375 Y95.397 E2.61594
G1 X90.375 Y83.603 E2.79065
G1 X90.415 Y83.213 E2.79646
G1 X90.533 Y82.839 E2.80227
G1 X90.724 Y82.497 E2.80807
G1 X90.939 Y82.242 E2.81301
G1 X91.042 Y82.139 E2.81517
G1 X91.346 Y81.891 E2.82098
G1 X91.693 Y81.711 E2.82677
G1 X92.071 Y81.604 E2.83259
G1 X92.403 Y81.575 E2.83753
G1 X92.997 Y81.575 E2.84633
G1 X93.387 Y81.615 E2.85213
G1 X93.761 Y81.733 E2.85794
G1 X94.103 Y81.924 E2.86375
G1 X94.358 Y82.139 E2.86869
G1 X94.461 Y82.242 E2.87084
G1 X94.499 Y82.289 E2.87174
M204 S625
M205 X6 Y6
G0 F8571.4 X94.497 Y82.896
M204 S500
M205 X5 Y5
G1 F1200 X94.786 Y82.489 E2.87913
G1 X94.889 Y82.386 E2.88129
G1 X95.167 Y82.165 E2.88655
G1 X95.486 Y82.012 E2.89179
G1 X96.003 Y81.925 E2.89956
G1 X96.597 Y81.925 E2.90836
G1 X96.949 Y81.965 E2.91361
G1 X97.283 Y82.082 E2.91885
G1 X97.711 Y82.386 E2.92663
G1 X97.814 Y82.489 E2.92878
G1 X98.035 Y82.767 E2.93404
G1 X98.188 Y83.086 E2.93929
G1 X98.275 Y83.603 E2.94705
G1 X98.275 Y95.397 E3.12176
G1 X98.235 Y95.749 E3.12701
G1 X98.118 Y96.083 E3.13225
G1 X97.814 Y96.511 E3.14003
G1 X97.711 Y96.614 E3.14218
G1 X97.433 Y96.835 E3.14745
G1 X97.114 Y96.988 E3.15269
G1 X96.597 Y97.075 E3.16045
G1 X96.003 Y97.075 E3.16925
G1 X95.651 Y97.035 E3.1745
G1 X95.317 Y96.918 E3.17974
G1 X94.889 Y96.614 E3.18752
G1 X94.786 Y96.511 E3.18968
G1 X94.565 Y96.233 E3.19494
G1 X94.503 Y96.104 E3.19706
G1 X94.214 Y96.511 E3.20445
G1 X94.111 Y96.614 E3.20661
G1 X93.833 Y96.835 E3.21187
G1 X93.514 Y96.988 E3.21711
G1 X92.997 Y97.075 E3.22488
G1 X92.403 Y97.075 E3.23368
G1 X92.051 Y97.035 E3.23892
G1 X91.717 Y96.918 E3.24417
G1 X91.289 Y96.614 E3.25194
G1 X91.186 Y96.511 E3.2541
G1 X90.965 Y96.233 E3.25936
G1 X90.812 Y95.914 E3.2646
G1 X90.725 Y95.397 E3.27237
G1 X90.725 Y83.603 E3.44708
G1 X90.765 Y83.251 E3.45232
G1 X90.882 Y82.917 E3.45757
G1 X91.186 Y82.489 E3.46534
G1 X91.289 Y82.386 E3.4675
G1 X91.567 Y82.165 E3.47276
G1 X91.886 Y82.012 E3.478
G1 X92.403 Y81.925 E3.48577
G1 X92.997 Y81.925 E3.49457
G1 X93.349 Y81.965 E3.49982
G1 X93.683 Y82.082 E3.50506
G1 X94.111 Y82.386 E3.51284
G1 X94.214 Y82.489 E3.51499
G1 X94.435 Y82.767 E3.52025
G1 X94.497 Y82.896 E3.52237
M204 S625
M205 X6 Y6
G0 F8571.4 X93.966 Y82.737
M204 S500
M205 X5 Y5
G1 F1200 X94.157 Y82.984 E3.527
G1 X94.279 Y83.272 E3.53163
G1 X94.325 Y83.603 E3.53658
G1 X94.325 Y87.775 E3.59838
G1 X94.675 Y87.775 E3.60357
G1 X94.675 Y83.603 E3.66537
G1 X94.715 Y83.293 E3.67
G1 X94.832 Y83.003 E3.67463
G1 X95.034 Y82.737 E3.67958
G1 X95.137 Y82.634 E3.68174
G1 X95.384 Y82.443 E3.68636
G1 X95.672 Y82.321 E3.691
G1 X96.003 Y82.275 E3.69595
G1 X96.597 Y82.275 E3.70475
G1 X96.907 Y82.315 E3.70938
G1 X97.197 Y82.432 E3.71401
G1 X97.463 Y82.634 E3.71896
G1 X97.566 Y82.737 E3.72111
G1 X97.757 Y82.984 E3.72574
G1 X97.879 Y83.272 E3.73037
G1 X97.925 Y83.603 E3.73532
G1 X97.925 Y95.397 E3.91003
G1 X97.885 Y95.707 E3.91466
G1 X97.768 Y95.997 E3.91929
G1 X97.566 Y96.263 E3.92424
G1 X97.463 Y96.366 E3.9264
G1 X97.216 Y96.557 E3.93102
G1 X96.928 Y96.679 E3.93566
G1 X96.597 Y96.725 E3.94061
G1 X96.003 Y96.725 E3.94941
G1 X95.693 Y96.685 E3.95404
G1 X95.403 Y96.568 E3.95867
G1 X95.137 Y96.366 E3.96362
G1 X95.034 Y96.263 E3.96577
G1 X94.843 Y96.016 E3.9704
G1 X94.721 Y95.728 E3.97503
G1 X94.675 Y95.397 E3.97998
G1 X94.675 Y91.225 E4.04178
G1 X94.325 Y91.225 E4.04697
G1 X94.325 Y95.397 E4.10877
G1 X94.285 Y95.707 E4.1134
G1 X94.168 Y95.997 E4.11803
G1 X93.966 Y96.263 E4.12298
G1 X93.863 Y96.366 E4.12514
G1 X93.616 Y96.557 E4.12976
G1 X93.328 Y96.679 E4.1344
G1 X92.997 Y96.725 E4.13935
G1 X92.403 Y96.725 E4.14815
G1 X92.093 Y96.685 E4.15278
G1 X91.803 Y96.568 E4.15741
G1 X91.537 Y96.366 E4.16236
G1 X91.434 Y96.263 E4.16451
G1 X91.243 Y96.016 E4.16914
G1 X91.121 Y95.728 E4.17377
G1 X91.075 Y95.397 E4.17872
G1 X91.075 Y83.603 E4.35343
G1 X91.115 Y83.293 E4.35806
G1 X91.232 Y83.003 E4.36269
G1 X91.434 Y82.737 E4.36764
G1 X91.537 Y82.634 E4.3698
G1 X91.784 Y82.443 E4.37442
G1 X92.072 Y82.321 E4.37906
G1 X92.403 Y82.275 E4.38401
G1 X92.997 Y82.275 E4.39281
G1 X93.307 Y82.315 E4.39744
G1 X93.597 Y82.432 E4.40207
G1 X93.863 Y82.634 E4.40702
G1 X93.966 Y82.737 E4.40918
M204 S625
M205 X6 Y6
G0 F8571.4 X93.616 Y82.881
M204 S500
M205 X5 Y5
G1 F1200 X93.719 Y82.984 E4.41133
G1 X93.875 Y83.197 E4.41524
G1 X93.961 Y83.446 E4.41915
G1 X93.975 Y83.603 E4.42148
G1 X93.975 Y88.125 E4.48847
G1 X95.025 Y88.125 E4.50402
G1 X95.025 Y83.603 E4.57101
G1 X95.065 Y83.342 E4.57492
G1 X95.18 Y83.105 E4.57882
G1 X95.281 Y82.984 E4.58116
G1 X95.384 Y82.881 E4.58331
G1 X95.597 Y82.725 E4.58722
G1 X95.846 Y82.639 E4.59113
G1 X96.003 Y82.625 E4.59346
G1 X96.597 Y82.625 E4.60226
G1 X96.858 Y82.665 E4.60617
G1 X97.095 Y82.78 E4.61007
G1 X97.216 Y82.881 E4.61241
G1 X97.319 Y82.984 E4.61457
G1 X97.475 Y83.197 E4.61848
G1 X97.561 Y83.446 E4.62238
G1 X97.575 Y83.603 E4.62471
G1 X97.575 Y95.397 E4.79942
G1 X97.535 Y95.658 E4.80333
G1 X97.42 Y95.895 E4.80724
G1 X97.319 Y96.016 E4.80957
G1 X97.216 Y96.119 E4.81173
G1 X97.003 Y96.275 E4.81564
G1 X96.754 Y96.361 E4.81954
G1 X96.597 Y96.375 E4.82188
G1 X96.003 Y96.375 E4.83068
G1 X95.742 Y96.335 E4.83459
G1 X95.505 Y96.22 E4.83849
G1 X95.384 Y96.119 E4.84082
G1 X95.281 Y96.016 E4.84298
G1 X95.125 Y95.803 E4.84689
G1 X95.039 Y95.554 E4.8508
G1 X95.025 Y95.397 E4.85313
G1 X95.025 Y90.875 E4.92012
G1 X93.975 Y90.875 E4.93567
G1 X93.975 Y95.397 E5.00266
G1 X93.935 Y95.658 E5.00657
G1 X93.82 Y95.895 E5.01047
G1 X93.719 Y96.016 E5.0128
G1 X93.616 Y96.119 E5.01496
G1 X93.403 Y96.275 E5.01887
G1 X93.154 Y96.361 E5.02278
G1 X92.997 Y96.375 E5.02511
G1 X92.403 Y96.375 E5.03391
G1 X92.142 Y96.335 E5.03782
G1 X91.905 Y96.22 E5.04172
G1 X91.784 Y96.119 E5.04406
G1 X91.681 Y96.016 E5.04622
G1 X91.525 Y95.803 E5.05013
G1 X91.439 Y95.554 E5.05403
G1 X91.425 Y95.397 E5.05636
G1 X91.425 Y83.603 E5.23107
G1 X91.465 Y83.342 E5.23498
G1 X91.58 Y83.105 E5.23889
G1 X91.681 Y82.984 E5.24122
G1 X91.784 Y82.881 E5.24338
G1 X91.997 Y82.725 E5.24729
G1 X92.246 Y82.639 E5.25119
G1 X92.403 Y82.625 E5.25353
G1 X92.997 Y82.625 E5.26233
G1 X93.258 Y82.665 E5.26624
G1 X93.495 Y82.78 E5.27014
G1 X93.616 Y82.881 E5.27247
M204 S625
M205 X6 Y6
G0 F8571.4 X93.471 Y83.232
M204 S500
M205 X5 Y5
G1 F1200 X93.585 Y83.401 E5.27549
G1 X93.625 Y83.603 E5.27854
G1 X93.625 Y88.475 E5.35072
G1 X95.375 Y88.475 E5.37664
G1 X95.375 Y83.603 E5.44881
G1 X95.415 Y83.403 E5.45183
G1 X95.529 Y83.232 E5.45487
G1 X95.632 Y83.129 E5.45703
G1 X95.801 Y83.015 E5.46005
G1 X96.003 Y82.975 E5.4631
G1 X96.597 Y82.975 E5.4719
G1 X96.797 Y83.015 E5.47492
G1 X96.968 Y83.129 E5.47797
G1 X97.071 Y83.232 E5.48013
G1 X97.185 Y83.401 E5.48314
G1 X97.225 Y83.603 E5.4862
G1 X97.225 Y95.397 E5.6609
G1 X97.185 Y95.597 E5.66392
G1 X97.071 Y95.768 E5.66697
G1 X96.968 Y95.871 E5.66913
G1 X96.799 Y95.985 E5.67215
G1 X96.597 Y96.025 E5.6752
G1 X96.003 Y96.025 E5.684
G1 X95.803 Y95.985 E5.68702
G1 X95.632 Y95.871 E5.69006
G1 X95.529 Y95.768 E5.69222
G1 X95.415 Y95.599 E5.69524
G1 X95.375 Y95.397 E5.69829
G1 X95.375 Y90.525 E5.77046
G1 X93.625 Y90.525 E5.79638
G1 X93.625 Y95.397 E5.86855
G1 X93.585 Y95.597 E5.87158
G1 X93.471 Y95.768 E5.87462
G1 X93.368 Y95.871 E5.87678
G1 X93.199 Y95.985 E5.8798
G1 X92.997 Y96.025 E5.88285
G1 X92.403 Y96.025 E5.89165
G1 X92.203 Y95.985 E5.89467
G1 X92.032 Y95.871 E5.89771
G1 X91.929 Y95.768 E5.89987
G1 X91.815 Y95.599 E5.90289
G1 X91.775 Y95.397 E5.90594
G1 X91.775 Y83.603 E6.08065
G1 X91.815 Y83.403 E6.08367
G1 X91.929 Y83.232 E6.08671
G1 X92.032 Y83.129 E6.08887
G1 X92.201 Y83.015 E6.09189
G1 X92.403 Y82.975 E6.09494
G1 X92.997 Y82.975 E6.10374
G1 X93.197 Y83.015 E6.10676
G1 X93.368 Y83.129 E6.10981
G1 X93.471 Y83.232 E6.11197
M204 S625
M205 X6 Y6
G0 F8571.4 X93.224 Y83.479
M204 S500
M205 X5 Y5
G1 F1200 X93.275 Y83.603 E6.11395
